; generated by PrusaSlicer 2.2.0+win64 on 2020-05-30 at 18:30:54 UTC

; 

; external perimeters extrusion width = 0.45mm
; perimeters extrusion width = 0.45mm
; infill extrusion width = 0.45mm
; solid infill extrusion width = 0.45mm
; top infill extrusion width = 0.40mm
; first layer extrusion width = 0.42mm

M107
G28 ; home all axes
G1 Z30 F5000 ; lift nozzle
M106 S255
M104 S215 ; set extruder temp
M140 S50 ; set bed temp
M109 S215 ; wait extruder temp
M190 S50 ; set bed temp wait
G29 S1
G92 E0
M106 S0 ; (Apaga Ventilador de capa ]
G1 X0 Y0 Z0.2 F3000 ; go outside printing area
G1 X60.0 E9.0  F1000.0 ; intro line
G1 X100.0 E12.5  F1000.0 ; intro line
G92 E0

G21 ; set units to millimeters
G90 ; use absolute coordinates
M82 ; use absolute distances for extrusion
G92 E0
; Filament gcode
G1 Z0.250 F9000.000
G1 E-0.90000 F2400.00000
G92 E0
G1 Z0.650 F9000.000
G1 X141.285 Y88.134
G1 Z0.250
G1 E0.90000 F2400.00000
G1 F1800.000
G1 X142.253 Y87.468 E0.94251
G1 X143.331 Y87.016 E0.98480
G1 X144.484 Y86.791 E1.02731
G1 X165.006 Y86.767 E1.76966
G1 X166.012 Y86.857 E1.80620
G1 X166.992 Y87.125 E1.84295
G1 X167.910 Y87.561 E1.87971
G1 X168.732 Y88.148 E1.91625
G1 X169.438 Y88.871 E1.95279
G1 X170.009 Y89.711 E1.98955
G1 X170.422 Y90.639 E2.02630
G1 X170.666 Y91.626 E2.06306
G1 X170.733 Y92.480 E2.09406
G1 X170.727 Y112.766 E2.82787
G1 X170.618 Y113.640 E2.85972
G1 X170.379 Y114.481 E2.89136
G1 X170.013 Y115.282 E2.92321
G1 X169.527 Y116.017 E2.95506
G1 X168.656 Y116.915 E3.00033
G1 X167.616 Y117.601 E3.04539
G1 X166.447 Y118.047 E3.09067
G1 X165.209 Y118.229 E3.13594
G1 X144.710 Y118.225 E3.87745
G1 X143.843 Y118.115 E3.90909
G1 X143.008 Y117.875 E3.94051
G1 X142.213 Y117.510 E3.97215
G1 X141.483 Y117.027 E4.00379
G1 X140.585 Y116.156 E4.04906
G1 X139.899 Y115.116 E4.09412
G1 X139.453 Y113.947 E4.13939
G1 X139.271 Y112.709 E4.18466
G1 X139.275 Y92.210 E4.92618
G1 X139.385 Y91.343 E4.95781
G1 X139.625 Y90.508 E4.98924
G1 X139.990 Y89.713 E5.02088
G1 X140.473 Y88.983 E5.05251
G1 X141.243 Y88.178 E5.09285
G1 X141.507 Y88.434 F9000.000
G1 F1800.000
G1 X142.457 Y87.774 E5.13468
G1 X143.471 Y87.356 E5.17436
G1 X144.549 Y87.153 E5.21404
G1 X165.006 Y87.134 E5.95403
G1 X165.956 Y87.220 E5.98856
G1 X166.877 Y87.473 E6.02309
G1 X167.738 Y87.885 E6.05761
G1 X168.512 Y88.443 E6.09214
G1 X169.175 Y89.129 E6.12667
G1 X169.704 Y89.917 E6.16099
G1 X170.087 Y90.791 E6.19552
G1 X170.309 Y91.719 E6.23004
G1 X170.366 Y92.489 E6.25797
G1 X170.361 Y112.746 E6.99073
G1 X170.259 Y113.569 E7.02072
G1 X170.029 Y114.371 E7.05092
G1 X169.678 Y115.129 E7.08111
G1 X169.214 Y115.822 E7.11131
G1 X168.398 Y116.654 E7.15346
G1 X167.416 Y117.292 E7.19581
G1 X166.325 Y117.700 E7.23796
G1 X165.171 Y117.864 E7.28011
G1 X144.737 Y117.860 E8.01929
G1 X143.914 Y117.755 E8.04928
G1 X143.118 Y117.525 E8.07927
G1 X142.366 Y117.176 E8.10926
G1 X141.678 Y116.714 E8.13925
G1 X140.846 Y115.898 E8.18140
G1 X140.208 Y114.916 E8.22375
G1 X139.800 Y113.825 E8.26590
G1 X139.636 Y112.671 E8.30805
G1 X139.640 Y92.237 E9.04723
G1 X139.745 Y91.414 E9.07722
G1 X139.975 Y90.618 E9.10721
G1 X140.324 Y89.866 E9.13720
G1 X140.786 Y89.178 E9.16719
G1 X141.465 Y88.477 E9.20250
G1 E8.30250 F2400.00000
G92 E0
G1 Z0.650 F9000.000
G1 X164.057 Y111.557
G1 Z0.250
G1 E0.90000 F2400.00000
G1 F1800.000
G1 X145.943 Y111.557 E1.55527
G1 X145.943 Y93.443 E2.21055
G1 X164.057 Y93.443 E2.86582
G1 X164.057 Y111.497 E3.51892
G1 X164.424 Y111.924 F9000.000
G1 F1800.000
G1 X145.576 Y111.924 E4.20070
G1 X145.576 Y93.076 E4.88248
G1 X164.424 Y93.076 E5.56425
G1 X164.424 Y111.864 E6.24386
G1 X164.790 Y112.290 F9000.000
G1 F1800.000
G1 X145.210 Y112.290 E6.95214
G1 X145.210 Y92.710 E7.66042
G1 X164.790 Y92.710 E8.36870
G1 X164.790 Y112.230 E9.07482
G1 X164.404 Y112.186 F9000.000
G1 E8.17482 F2400.00000
G92 E0
G1 Z0.650 F9000.000
G1 X146.053 Y110.704
G1 Z0.250
G1 E0.90000 F2400.00000
G1 F1800.000
G1 X146.631 Y111.283 E0.92967
G1 X147.150 Y111.283 E0.94853
G1 X146.217 Y110.350 E0.99641
G1 X146.217 Y109.830 E1.01527
G1 X147.670 Y111.283 E1.08983
G1 X148.190 Y111.283 E1.10869
G1 X146.217 Y109.310 E1.20992
G1 X146.217 Y108.790 E1.22878
G1 X148.710 Y111.283 E1.35669
G1 X149.229 Y111.283 E1.37555
G1 X146.217 Y108.271 E1.53013
G1 X146.217 Y107.751 E1.54899
G1 X149.749 Y111.283 E1.73024
G1 X150.269 Y111.283 E1.74910
G1 X146.217 Y107.231 E1.95703
G1 X146.217 Y106.711 E1.97589
G1 X150.789 Y111.283 E2.21049
G1 X151.308 Y111.283 E2.22935
G1 X146.217 Y106.192 E2.49063
G1 X146.217 Y105.672 E2.50949
G1 X151.828 Y111.283 E2.79744
G1 X152.348 Y111.283 E2.81630
G1 X146.217 Y105.152 E3.13092
G1 X146.217 Y104.632 E3.14978
G1 X152.868 Y111.283 E3.49108
G1 X153.387 Y111.283 E3.50994
G1 X146.217 Y104.113 E3.87791
G1 X146.217 Y103.593 E3.89677
G1 X153.907 Y111.283 E4.29142
G1 X154.427 Y111.283 E4.31028
G1 X146.217 Y103.073 E4.73160
G1 X146.217 Y102.553 E4.75046
G1 X154.947 Y111.283 E5.19845
G1 X155.466 Y111.283 E5.21731
G1 X146.217 Y102.034 E5.69198
G1 X146.217 Y101.514 E5.71084
G1 X155.986 Y111.283 E6.21218
G1 X156.506 Y111.283 E6.23105
G1 X146.217 Y100.994 E6.75906
G1 X146.217 Y100.474 E6.77792
G1 X157.026 Y111.283 E7.33261
G1 X157.545 Y111.283 E7.35147
G1 X146.217 Y99.955 E7.93284
G1 X146.217 Y99.435 E7.95170
G1 X158.065 Y111.283 E8.55974
G1 X158.585 Y111.283 E8.57860
G1 X146.217 Y98.915 E9.21331
G1 X146.217 Y98.395 E9.23217
G1 X159.105 Y111.283 E9.89356
G1 X159.624 Y111.283 E9.91242
G1 X146.217 Y97.876 E10.60048
G1 X146.217 Y97.356 E10.61934
G1 X160.144 Y111.283 E11.33407
G1 X160.664 Y111.283 E11.35294
G1 X146.217 Y96.836 E12.09434
G1 X146.217 Y96.316 E12.11320
G1 X161.184 Y111.283 E12.88129
G1 X161.703 Y111.283 E12.90015
G1 X146.217 Y95.797 E13.69490
G1 X146.217 Y95.277 E13.71377
G1 X162.223 Y111.283 E14.53520
G1 X162.743 Y111.283 E14.55406
G1 X146.217 Y94.757 E15.40216
G1 X146.217 Y94.237 E15.42102
G1 X163.263 Y111.283 E16.29580
G1 X163.782 Y111.283 E16.31466
G1 X146.217 Y93.717 E17.21612
G1 X146.737 Y93.717 E17.23498
G1 X163.783 Y110.763 E18.10976
G1 X163.783 Y110.243 E18.12862
G1 X147.257 Y93.717 E18.97673
G1 X147.777 Y93.717 E18.99560
G1 X163.783 Y109.723 E19.81703
G1 X163.783 Y109.204 E19.83589
G1 X148.296 Y93.717 E20.63065
G1 X148.816 Y93.717 E20.64952
G1 X163.783 Y108.684 E21.41760
G1 X163.783 Y108.164 E21.43647
G1 X149.336 Y93.717 E22.17788
G1 X149.856 Y93.717 E22.19674
G1 X163.783 Y107.644 E22.91148
G1 X163.783 Y107.125 E22.93034
G1 X150.375 Y93.717 E23.61841
G1 X150.895 Y93.717 E23.63727
G1 X163.783 Y106.605 E24.29866
G1 X163.783 Y106.085 E24.31752
G1 X151.415 Y93.717 E24.95224
G1 X151.935 Y93.717 E24.97110
G1 X163.783 Y105.565 E25.57914
G1 X163.783 Y105.046 E25.59801
G1 X152.454 Y93.717 E26.17938
G1 X152.974 Y93.717 E26.19824
G1 X163.783 Y104.526 E26.75293
G1 X163.783 Y104.006 E26.77179
G1 X153.494 Y93.717 E27.29981
G1 X154.014 Y93.717 E27.31868
G1 X163.783 Y103.486 E27.82002
G1 X163.783 Y102.967 E27.83888
G1 X154.533 Y93.717 E28.31356
G1 X155.053 Y93.717 E28.33242
G1 X163.783 Y102.447 E28.78042
G1 X163.783 Y101.927 E28.79928
G1 X155.573 Y93.717 E29.22060
G1 X156.093 Y93.717 E29.23947
G1 X163.783 Y101.407 E29.63412
G1 X163.783 Y100.888 E29.65298
G1 X156.612 Y93.717 E30.02095
G1 X157.132 Y93.717 E30.03982
G1 X163.783 Y100.368 E30.38112
G1 X163.783 Y99.848 E30.39998
G1 X157.652 Y93.717 E30.71461
G1 X158.172 Y93.717 E30.73347
G1 X163.783 Y99.328 E31.02142
G1 X163.783 Y98.809 E31.04029
G1 X158.691 Y93.717 E31.30157
G1 X159.211 Y93.717 E31.32043
G1 X163.783 Y98.289 E31.55503
G1 X163.783 Y97.769 E31.57389
G1 X159.731 Y93.717 E31.78183
G1 X160.251 Y93.717 E31.80069
G1 X163.783 Y97.249 E31.98195
G1 X163.783 Y96.730 E32.00081
G1 X160.770 Y93.717 E32.15539
G1 X161.290 Y93.717 E32.17425
G1 X163.783 Y96.210 E32.30216
G1 X163.783 Y95.690 E32.32102
G1 X161.810 Y93.717 E32.42226
G1 X162.330 Y93.717 E32.44112
G1 X163.783 Y95.170 E32.51568
G1 X163.783 Y94.651 E32.53454
G1 X162.849 Y93.717 E32.58243
G1 X163.369 Y93.717 E32.60129
G1 X163.947 Y94.296 E32.63097
G1 Z0.450 F9000.000
G1 X163.961 Y111.461
G1 F3600.000
G1 X146.039 Y111.461 E33.20726
G1 X146.039 Y93.539 E33.78356
G1 X163.961 Y93.539 E34.35986
G1 X163.961 Y111.401 E34.93422
G1 X164.368 Y111.868 F9000.000
G1 F3600.000
G1 X145.632 Y111.868 E35.53670
G1 X145.632 Y93.132 E36.13918
G1 X164.368 Y93.132 E36.74165
G1 X164.368 Y111.808 E37.34220
G1 X164.775 Y112.275 F9000.000
G1 F1440.000
G1 X145.225 Y112.275 E37.97086
G1 X145.225 Y92.725 E38.59952
G1 X164.775 Y92.725 E39.22817
G1 X164.775 Y112.215 E39.85490
G1 X164.389 Y112.171 F9000.000
G1 X146.992 Y93.661
G1 F1500.000
G1 X146.344 Y94.309 E39.88461
G1 X146.344 Y94.890 E39.90346
G1 X147.390 Y93.844 E39.95143
G1 X147.971 Y93.844 E39.97028
G1 X146.344 Y95.471 E40.04490
G1 X146.344 Y96.052 E40.06375
G1 X148.552 Y93.844 E40.16503
G1 X149.132 Y93.844 E40.18388
G1 X146.344 Y96.632 E40.31182
G1 X146.344 Y97.213 E40.33067
G1 X149.713 Y93.844 E40.48526
G1 X150.294 Y93.844 E40.50411
G1 X146.344 Y97.794 E40.68537
G1 X146.344 Y98.375 E40.70422
G1 X150.875 Y93.844 E40.91213
G1 X151.456 Y93.844 E40.93098
G1 X146.344 Y98.956 E41.16555
G1 X146.344 Y99.537 E41.18440
G1 X152.037 Y93.844 E41.44562
G1 X152.618 Y93.844 E41.46447
G1 X146.344 Y100.118 E41.75236
G1 X146.344 Y100.699 E41.77121
G1 X153.199 Y93.844 E42.08575
G1 X153.780 Y93.844 E42.10460
G1 X146.344 Y101.280 E42.44580
G1 X146.344 Y101.861 E42.46465
G1 X154.361 Y93.844 E42.83250
G1 X154.942 Y93.844 E42.85135
G1 X146.344 Y102.442 E43.24587
G1 X146.344 Y103.023 E43.26472
G1 X155.523 Y93.844 E43.68589
G1 X156.104 Y93.844 E43.70474
G1 X146.344 Y103.604 E44.15257
G1 X146.344 Y104.184 E44.17142
G1 X156.684 Y93.844 E44.64591
G1 X157.265 Y93.844 E44.66476
G1 X146.344 Y104.765 E45.16591
G1 X146.344 Y105.346 E45.18476
G1 X157.846 Y93.844 E45.71256
G1 X158.427 Y93.844 E45.73141
G1 X146.344 Y105.927 E46.28587
G1 X146.344 Y106.508 E46.30472
G1 X159.008 Y93.844 E46.88584
G1 X159.589 Y93.844 E46.90469
G1 X146.344 Y107.089 E47.51247
G1 X146.344 Y107.670 E47.53132
G1 X160.170 Y93.844 E48.16576
G1 X160.751 Y93.844 E48.18461
G1 X146.344 Y108.251 E48.84570
G1 X146.344 Y108.832 E48.86455
G1 X161.332 Y93.844 E49.55230
G1 X161.913 Y93.844 E49.57115
G1 X146.344 Y109.413 E50.28556
G1 X146.344 Y109.994 E50.30441
G1 X162.494 Y93.844 E51.04547
G1 X163.075 Y93.844 E51.06432
G1 X146.344 Y110.575 E51.83205
G1 X146.344 Y111.156 E51.85090
G1 X163.656 Y93.844 E52.64528
G1 X163.656 Y94.425 E52.66413
G1 X146.925 Y111.156 E53.43185
G1 X147.506 Y111.156 E53.45070
G1 X163.656 Y95.006 E54.19177
G1 X163.656 Y95.587 E54.21062
G1 X148.087 Y111.156 E54.92503
G1 X148.668 Y111.156 E54.94388
G1 X163.656 Y96.168 E55.63164
G1 X163.656 Y96.749 E55.65049
G1 X149.249 Y111.156 E56.31158
G1 X149.830 Y111.156 E56.33043
G1 X163.656 Y97.330 E56.96487
G1 X163.656 Y97.911 E56.98372
G1 X150.411 Y111.156 E57.59150
G1 X150.992 Y111.156 E57.61035
G1 X163.656 Y98.492 E58.19147
G1 X163.656 Y99.073 E58.21032
G1 X151.573 Y111.156 E58.76479
G1 X152.154 Y111.156 E58.78364
G1 X163.656 Y99.654 E59.31145
G1 X163.656 Y100.235 E59.33030
G1 X152.735 Y111.156 E59.83144
G1 X153.315 Y111.156 E59.85029
G1 X163.656 Y100.815 E60.32479
G1 X163.656 Y101.396 E60.34364
G1 X153.896 Y111.156 E60.79147
G1 X154.477 Y111.156 E60.81032
G1 X163.656 Y101.977 E61.23150
G1 X163.656 Y102.558 E61.25034
G1 X155.058 Y111.156 E61.64486
G1 X155.639 Y111.156 E61.66371
G1 X163.656 Y103.139 E62.03157
G1 X163.656 Y103.720 E62.05042
G1 X156.220 Y111.156 E62.39163
G1 X156.801 Y111.156 E62.41048
G1 X163.656 Y104.301 E62.72502
G1 X163.656 Y104.882 E62.74387
G1 X157.382 Y111.156 E63.03176
G1 X157.963 Y111.156 E63.05061
G1 X163.656 Y105.463 E63.31184
G1 X163.656 Y106.044 E63.33069
G1 X158.544 Y111.156 E63.56526
G1 X159.125 Y111.156 E63.58411
G1 X163.656 Y106.625 E63.79202
G1 X163.656 Y107.206 E63.81087
G1 X159.706 Y111.156 E63.99213
G1 X160.287 Y111.156 E64.01098
G1 X163.656 Y107.787 E64.16558
G1 X163.656 Y108.367 E64.18443
G1 X160.867 Y111.156 E64.31237
G1 X161.448 Y111.156 E64.33122
G1 X163.656 Y108.948 E64.43250
G1 X163.656 Y109.529 E64.45135
G1 X162.029 Y111.156 E64.52598
G1 X162.610 Y111.156 E64.54482
G1 X163.656 Y110.110 E64.59279
G1 X163.656 Y110.691 E64.61164
G1 X163.008 Y111.339 E64.64136
G1 Z0.650 F9000.000
G1 X163.961 Y111.461
G1 F3600.000
G1 X146.039 Y111.461 E65.21765
G1 X146.039 Y93.539 E65.79395
G1 X163.961 Y93.539 E66.37025
G1 X163.961 Y111.401 E66.94461
G1 X164.368 Y111.868 F9000.000
G1 F3600.000
G1 X145.632 Y111.868 E67.54709
G1 X145.632 Y93.132 E68.14957
G1 X164.368 Y93.132 E68.75204
G1 X164.368 Y111.808 E69.35259
G1 X164.775 Y112.275 F9000.000
G1 F1440.000
G1 X145.225 Y112.275 E69.98125
G1 X145.225 Y92.725 E70.60991
G1 X164.775 Y92.725 E71.23856
G1 X164.775 Y112.215 E71.86529
G1 X164.389 Y112.171 F9000.000
G1 X146.161 Y110.508
G1 F1500.000
G1 X146.809 Y111.156 E71.89500
G1 X147.390 Y111.156 E71.91385
G1 X146.344 Y110.110 E71.96182
G1 X146.344 Y109.529 E71.98067
G1 X147.971 Y111.156 E72.05529
G1 X148.552 Y111.156 E72.07414
G1 X146.344 Y108.948 E72.17542
G1 X146.344 Y108.368 E72.19427
G1 X149.132 Y111.156 E72.32221
G1 X149.713 Y111.156 E72.34106
G1 X146.344 Y107.787 E72.49565
G1 X146.344 Y107.206 E72.51450
G1 X150.294 Y111.156 E72.69576
G1 X150.875 Y111.156 E72.71461
G1 X146.344 Y106.625 E72.92252
G1 X146.344 Y106.044 E72.94137
G1 X151.456 Y111.156 E73.17594
G1 X152.037 Y111.156 E73.19479
G1 X146.344 Y105.463 E73.45601
G1 X146.344 Y104.882 E73.47486
G1 X152.618 Y111.156 E73.76275
G1 X153.199 Y111.156 E73.78160
G1 X146.344 Y104.301 E74.09614
G1 X146.344 Y103.720 E74.11499
G1 X153.780 Y111.156 E74.45619
G1 X154.361 Y111.156 E74.47504
G1 X146.344 Y103.139 E74.84290
G1 X146.344 Y102.558 E74.86175
G1 X154.942 Y111.156 E75.25626
G1 X155.523 Y111.156 E75.27511
G1 X146.344 Y101.977 E75.69628
G1 X146.344 Y101.396 E75.71513
G1 X156.104 Y111.156 E76.16296
G1 X156.684 Y111.156 E76.18181
G1 X146.344 Y100.816 E76.65630
G1 X146.344 Y100.235 E76.67515
G1 X157.265 Y111.156 E77.17630
G1 X157.846 Y111.156 E77.19515
G1 X146.344 Y99.654 E77.72295
G1 X146.344 Y99.073 E77.74180
G1 X158.427 Y111.156 E78.29626
G1 X159.008 Y111.156 E78.31511
G1 X146.344 Y98.492 E78.89623
G1 X146.344 Y97.911 E78.91508
G1 X159.589 Y111.156 E79.52286
G1 X160.170 Y111.156 E79.54171
G1 X146.344 Y97.330 E80.17615
G1 X146.344 Y96.749 E80.19500
G1 X160.751 Y111.156 E80.85609
G1 X161.332 Y111.156 E80.87494
G1 X146.344 Y96.168 E81.56269
G1 X146.344 Y95.587 E81.58154
G1 X161.913 Y111.156 E82.29595
G1 X162.494 Y111.156 E82.31480
G1 X146.344 Y95.006 E83.05586
G1 X146.344 Y94.425 E83.07471
G1 X163.075 Y111.156 E83.84244
G1 X163.656 Y111.156 E83.86129
G1 X146.344 Y93.844 E84.65567
G1 X146.925 Y93.844 E84.67452
G1 X163.656 Y110.575 E85.44225
G1 X163.656 Y109.994 E85.46110
G1 X147.506 Y93.844 E86.20216
G1 X148.087 Y93.844 E86.22101
G1 X163.656 Y109.413 E86.93543
G1 X163.656 Y108.832 E86.95428
G1 X148.668 Y93.844 E87.64203
G1 X149.249 Y93.844 E87.66088
G1 X163.656 Y108.251 E88.32197
G1 X163.656 Y107.670 E88.34082
G1 X149.830 Y93.844 E88.97526
G1 X150.411 Y93.844 E88.99411
G1 X163.656 Y107.089 E89.60189
G1 X163.656 Y106.508 E89.62074
G1 X150.992 Y93.844 E90.20186
G1 X151.573 Y93.844 E90.22071
G1 X163.656 Y105.927 E90.77518
G1 X163.656 Y105.346 E90.79403
G1 X152.154 Y93.844 E91.32184
G1 X152.735 Y93.844 E91.34069
G1 X163.656 Y104.765 E91.84184
G1 X163.656 Y104.185 E91.86068
G1 X153.315 Y93.844 E92.33518
G1 X153.896 Y93.844 E92.35403
G1 X163.656 Y103.604 E92.80186
G1 X163.656 Y103.023 E92.82071
G1 X154.477 Y93.844 E93.24189
G1 X155.058 Y93.844 E93.26074
G1 X163.656 Y102.442 E93.65525
G1 X163.656 Y101.861 E93.67410
G1 X155.639 Y93.844 E94.04196
G1 X156.220 Y93.844 E94.06081
G1 X163.656 Y101.280 E94.40202
G1 X163.656 Y100.699 E94.42087
G1 X156.801 Y93.844 E94.73541
G1 X157.382 Y93.844 E94.75426
G1 X163.656 Y100.118 E95.04215
G1 X163.656 Y99.537 E95.06100
G1 X157.963 Y93.844 E95.32223
G1 X158.544 Y93.844 E95.34108
G1 X163.656 Y98.956 E95.57565
G1 X163.656 Y98.375 E95.59450
G1 X159.125 Y93.844 E95.80241
G1 X159.706 Y93.844 E95.82126
G1 X163.656 Y97.794 E96.00252
G1 X163.656 Y97.213 E96.02137
G1 X160.287 Y93.844 E96.17597
G1 X160.867 Y93.844 E96.19482
G1 X163.656 Y96.633 E96.32276
G1 X163.656 Y96.052 E96.34161
