; generated by PrusaSlicer 2.3.0+win64 on 2021-10-11 at 20:53:50 UTC

; 

; external perimeters extrusion width = 0.45mm
; perimeters extrusion width = 0.45mm
; infill extrusion width = 0.45mm
; solid infill extrusion width = 0.45mm
; top infill extrusion width = 0.40mm
; support material extrusion width = 0.35mm
; first layer extrusion width = 0.70mm

M107
;TYPE:Custom
G28 ; home all axes
G1 Z20 F5000 ; lift nozzle
M104 S215 ; set extruder temp
M140 S50 ; set bed temp
M109 S215 ; wait extruder temp
M190 S50 ; set bed temp wait
G29 S1
G92 E0
G1 X0 Y0 Z0.2 F3000 ; go outside printing area
G1 X60.0 E9.0  F1000.0 ; intro line
G1 X100.0 E12.5  F1000.0 ; intro line
G92 E0

G21 ; set units to millimeters
G90 ; use absolute coordinates
M82 ; use absolute distances for extrusion
G92 E0
; Filament gcode
;LAYER_CHANGE
;Z:0.35
;HEIGHT:0.35
G1 Z0.350 F6000.000
G1 E-1.20000 F2400.000
G92 E0
G1 Z0.750 F6000.000
G1 X142.906 Y139.505
G1 Z0.350
G1 E1.20000 F2400.000
;TYPE:Skirt
;WIDTH:0.7
G1 F1800.000
G1 X143.336 Y138.639 E1.28356
G1 X143.831 Y138.080 E1.34805
G1 X144.441 Y137.649 E1.41254
G1 X145.132 Y137.368 E1.47703
G1 X145.874 Y137.253 E1.54190
G1 X179.004 Y137.250 E4.40377
G1 X179.615 Y137.309 E4.45678
G1 X180.204 Y137.482 E4.50980
G1 X180.754 Y137.764 E4.56319
G1 X181.237 Y138.143 E4.61620
G1 X181.643 Y138.609 E4.66960
G1 X181.951 Y139.139 E4.72261
G1 X182.154 Y139.719 E4.77562
G1 X182.245 Y140.326 E4.82864
G1 X182.250 Y184.540 E8.64803
G1 X182.094 Y185.495 E8.73158
G1 X181.664 Y186.361 E8.81514
G1 X181.159 Y186.929 E8.88078
G1 X180.532 Y187.366 E8.94680
G1 X179.825 Y187.643 E9.01243
G1 X179.072 Y187.749 E9.07807
G1 X145.947 Y187.749 E11.93956
G1 X145.001 Y187.592 E12.02235
G1 X144.139 Y187.164 E12.10553
G1 X143.565 Y186.652 E12.17193
G1 X143.130 Y186.024 E12.23795
G1 X142.853 Y185.312 E12.30397
G1 X142.751 Y184.554 E12.36999
G1 X142.750 Y140.460 E16.17900
G1 X142.897 Y139.564 E16.25737
G1 X143.502 Y139.693 F6000.000
G1 F1800.000
G1 X143.858 Y138.983 E16.32591
G1 X144.260 Y138.534 E16.37801
G1 X144.758 Y138.187 E16.43045
G1 X145.319 Y137.965 E16.48254
G1 X145.916 Y137.876 E16.53464
G1 X179.004 Y137.875 E19.39292
G1 X179.980 Y138.065 E19.47884
G1 X180.816 Y138.605 E19.56476
G1 X181.391 Y139.416 E19.65067
G1 X181.622 Y140.384 E19.73659
G1 X181.625 Y184.528 E23.54993
G1 X181.498 Y185.307 E23.61813
G1 X181.142 Y186.017 E23.68668
G1 X180.731 Y186.474 E23.73980
G1 X180.227 Y186.820 E23.79258
G1 X179.654 Y187.042 E23.84571
G1 X179.044 Y187.125 E23.89883
G1 X145.964 Y187.125 E26.75643
G1 X145.189 Y186.996 E26.82429
G1 X144.483 Y186.642 E26.89249
G1 X144.026 Y186.231 E26.94561
G1 X143.676 Y185.720 E26.99908
G1 X143.456 Y185.146 E27.05220
G1 X143.375 Y184.536 E27.10533
G1 X143.375 Y140.472 E30.91176
G1 X143.493 Y139.752 E30.97477
G1 E29.77477 F2400.000
G92 E0
G1 Z0.750 F6000.000
G1 X162.517 Y145.015
G1 Z0.350
G1 E1.20000 F2400.000
;TYPE:Perimeter
G1 F1800.000
G1 X162.662 Y144.534 E1.24342
G1 X162.892 Y144.102 E1.28567
G1 X163.210 Y143.713 E1.32909
G1 X163.587 Y143.402 E1.37134
G1 X164.030 Y143.164 E1.41476
G1 X164.498 Y143.021 E1.45701
G1 X164.999 Y142.970 E1.50055
G1 X165.501 Y143.021 E1.54416
G1 X165.970 Y143.164 E1.58647
G1 X166.413 Y143.402 E1.62990
G1 X166.789 Y143.711 E1.67197
G1 X167.098 Y144.087 E1.71404
G1 X167.336 Y144.530 E1.75745
G1 X167.479 Y144.998 E1.79971
G1 X167.530 Y145.500 E1.84331
G1 X167.479 Y146.002 E1.88692
G1 X167.336 Y146.470 E1.92916
G1 X167.099 Y146.912 E1.97253
G1 X166.787 Y147.290 E2.01484
G1 X166.398 Y147.608 E2.05826
G1 X165.966 Y147.838 E2.10052
G1 X165.485 Y147.983 E2.14393
G1 X165.000 Y148.029 E2.18600
G1 X164.515 Y147.983 E2.22807
G1 X164.034 Y147.838 E2.27149
G1 X163.602 Y147.608 E2.31375
G1 X163.211 Y147.289 E2.35735
G1 X162.892 Y146.898 E2.40095
G1 X162.662 Y146.466 E2.44320
G1 X162.517 Y145.985 E2.48657
G1 X162.471 Y145.500 E2.52869
G1 X162.512 Y145.075 E2.56558
G1 X163.133 Y145.136 F6000.000
;TYPE:External perimeter
G1 F1800.000
G1 X163.243 Y144.773 E2.59837
G1 X163.415 Y144.450 E2.62999
G1 X163.655 Y144.156 E2.66277
G1 X163.937 Y143.923 E2.69440
G1 X164.272 Y143.743 E2.72718
G1 X164.622 Y143.636 E2.75880
G1 X164.999 Y143.598 E2.79160
G1 X165.378 Y143.636 E2.82445
G1 X165.728 Y143.743 E2.85612
G1 X166.063 Y143.923 E2.88891
G1 X166.345 Y144.155 E2.92047
G1 X166.577 Y144.437 E2.95202
G1 X166.757 Y144.772 E2.98481
G1 X166.864 Y145.122 E3.01643
G1 X166.902 Y145.500 E3.04928
G1 X166.864 Y145.878 E3.08213
G1 X166.757 Y146.228 E3.11375
G1 X166.577 Y146.562 E3.14649
G1 X166.344 Y146.845 E3.17816
G1 X166.050 Y147.085 E3.21094
G1 X165.727 Y147.257 E3.24257
G1 X165.364 Y147.367 E3.27535
G1 X165.000 Y147.402 E3.30691
G1 X164.636 Y147.367 E3.33846
G1 X164.273 Y147.257 E3.37125
G1 X163.950 Y147.085 E3.40287
G1 X163.655 Y146.845 E3.43572
G1 X163.415 Y146.550 E3.46857
G1 X163.243 Y146.227 E3.50019
G1 X163.134 Y145.864 E3.53293
G1 X163.098 Y145.500 E3.56453
G1 X163.128 Y145.196 E3.59091
G1 X162.848 Y144.887 F6000.000
G1 E2.39091 F2400.000
G92 E0
G1 Z0.750 F6000.000
G1 X164.996 Y175.842
G1 Z0.350
G1 E1.20000 F2400.000
;TYPE:Perimeter
G1 F1800.000
G1 X165.606 Y175.901 E1.25294
G1 X166.205 Y176.081 E1.30701
G1 X166.746 Y176.369 E1.35990
G1 X167.230 Y176.765 E1.41395
G1 X167.620 Y177.237 E1.46683
G1 X167.916 Y177.788 E1.52089
G1 X168.095 Y178.374 E1.57377
G1 X168.158 Y179.000 E1.62813
G1 X168.095 Y179.626 E1.68248
G1 X167.916 Y180.211 E1.73536
G1 X167.620 Y180.762 E1.78935
G1 X167.233 Y181.232 E1.84200
G1 X166.763 Y181.620 E1.89459
G1 X166.208 Y181.917 E1.94895
G1 X165.606 Y182.099 E2.00330
G1 X165.000 Y182.157 E2.05589
G1 X164.394 Y182.099 E2.10847
G1 X163.792 Y181.917 E2.16282
G1 X163.237 Y181.620 E2.21718
G1 X162.765 Y181.230 E2.27007
G1 X162.369 Y180.746 E2.32412
G1 X162.082 Y180.205 E2.37700
G1 X161.901 Y179.607 E2.43099
G1 X161.842 Y178.997 E2.48393
G1 X161.905 Y178.374 E2.53800
G1 X162.083 Y177.792 E2.59058
G1 X162.369 Y177.254 E2.64316
G1 X162.767 Y176.767 E2.69752
G1 X163.254 Y176.369 E2.75188
G1 X163.792 Y176.083 E2.80446
G1 X164.374 Y175.905 E2.85703
G1 X164.936 Y175.849 E2.90584
G1 X164.997 Y176.470 F6000.000
G1 F1800.000
G1 X165.485 Y176.517 E2.94815
G1 X165.966 Y176.662 E2.99157
G1 X166.398 Y176.892 E3.03383
G1 X166.787 Y177.210 E3.07725
G1 X167.098 Y177.587 E3.11950
G1 X167.336 Y178.030 E3.16292
G1 X167.479 Y178.498 E3.20518
G1 X167.530 Y179.000 E3.24878
G1 X167.479 Y179.502 E3.29238
G1 X167.336 Y179.970 E3.33463
G1 X167.099 Y180.412 E3.37800
G1 X166.789 Y180.788 E3.42012
G1 X166.413 Y181.098 E3.46219
G1 X165.968 Y181.337 E3.50580
G1 X165.485 Y181.483 E3.54940
G1 X165.000 Y181.529 E3.59147
G1 X164.515 Y181.483 E3.63354
G1 X164.032 Y181.337 E3.67714
G1 X163.587 Y181.098 E3.72075
G1 X163.210 Y180.787 E3.76300
G1 X162.892 Y180.398 E3.80642
G1 X162.662 Y179.966 E3.84867
G1 X162.517 Y179.485 E3.89203
G1 X162.470 Y178.998 E3.93434
G1 X162.521 Y178.498 E3.97777
G1 X162.663 Y178.032 E4.01983
G1 X162.892 Y177.602 E4.06190
G1 X163.211 Y177.211 E4.10551
G1 X163.602 Y176.892 E4.14911
G1 X164.032 Y176.663 E4.19118
G1 X164.498 Y176.521 E4.23324
G1 X164.937 Y176.476 E4.27142
G1 X164.999 Y177.098 F6000.000
;TYPE:External perimeter
G1 F1800.000
G1 X165.364 Y177.133 E4.30309
G1 X165.727 Y177.243 E4.33588
G1 X166.050 Y177.415 E4.36750
G1 X166.344 Y177.655 E4.40029
G1 X166.577 Y177.937 E4.43191
G1 X166.757 Y178.272 E4.46470
G1 X166.864 Y178.622 E4.49632
G1 X166.902 Y179.000 E4.52917
G1 X166.864 Y179.378 E4.56202
G1 X166.757 Y179.728 E4.59364
G1 X166.577 Y180.062 E4.62638
G1 X166.345 Y180.345 E4.65798
G1 X166.063 Y180.577 E4.68954
G1 X165.728 Y180.757 E4.72239
G1 X165.364 Y180.867 E4.75524
G1 X165.000 Y180.902 E4.78679
G1 X164.636 Y180.867 E4.81835
G1 X164.272 Y180.757 E4.85120
G1 X163.937 Y180.577 E4.88405
G1 X163.655 Y180.344 E4.91567
G1 X163.415 Y180.050 E4.94846
G1 X163.243 Y179.727 E4.98008
G1 X163.134 Y179.364 E5.01282
G1 X163.098 Y178.999 E5.04449
G1 X163.136 Y178.622 E5.07727
G1 X163.243 Y178.272 E5.10883
G1 X163.415 Y177.950 E5.14038
G1 X163.655 Y177.655 E5.17323
G1 X163.950 Y177.415 E5.20609
G1 X164.272 Y177.243 E5.23764
G1 X164.622 Y177.136 E5.26919
G1 X164.939 Y177.104 E5.29675
G1 X165.181 Y176.780 F6000.000
G1 E4.09675 F2400.000
G92 E0
G1 Z0.750 F6000.000
G1 X177.400 Y182.900
G1 Z0.350
G1 E1.20000 F2400.000
;TYPE:Perimeter
G1 F1800.000
G1 X147.600 Y182.900 E3.77425
G1 X147.600 Y142.100 E7.29872
G1 X164.280 Y142.100 E8.73961
G1 X164.328 Y142.419 E8.76752
G1 X163.788 Y142.584 E8.81624
G1 X163.237 Y142.880 E8.87029
G1 X162.765 Y143.270 E8.92318
G1 X162.369 Y143.754 E8.97723
G1 X162.081 Y144.295 E9.03012
G1 X161.901 Y144.894 E9.08417
G1 X161.843 Y145.500 E9.13676
G1 X161.901 Y146.107 E9.18941
G1 X162.082 Y146.705 E9.24340
G1 X162.369 Y147.246 E9.29627
G1 X162.767 Y147.733 E9.35063
G1 X163.254 Y148.131 E9.40499
G1 X163.795 Y148.419 E9.45787
G1 X164.394 Y148.599 E9.51192
G1 X165.000 Y148.657 E9.56451
G1 X165.606 Y148.599 E9.61709
G1 X166.205 Y148.419 E9.67114
G1 X166.746 Y148.131 E9.72403
G1 X167.230 Y147.735 E9.77809
G1 X167.620 Y147.262 E9.83104
G1 X167.916 Y146.711 E9.88503
G1 X168.095 Y146.126 E9.93791
G1 X168.158 Y145.500 E9.99226
G1 X168.095 Y144.874 E10.04662
G1 X167.916 Y144.288 E10.09951
G1 X167.620 Y143.737 E10.15356
G1 X167.232 Y143.268 E10.20614
G1 X166.763 Y142.880 E10.25873
G1 X166.211 Y142.584 E10.31279
G1 X165.672 Y142.419 E10.36151
G1 X165.720 Y142.100 E10.38942
G1 X177.400 Y142.100 E11.39840
G1 X177.400 Y182.840 E14.91769
G1 X178.025 Y183.525 F6000.000
G1 F1800.000
G1 X146.975 Y183.525 E17.59990
G1 X146.975 Y141.475 E21.23233
G1 X178.025 Y141.475 E23.91455
G1 X178.025 Y183.465 E27.54179
G1 X178.650 Y184.150 F6000.000
;TYPE:External perimeter
G1 F1800.000
G1 X146.350 Y184.150 E30.33197
G1 X146.350 Y140.850 E34.07236
G1 X178.650 Y140.850 E36.86253
G1 X178.650 Y184.090 E40.59774
G1 X178.269 Y184.028 F6000.000
G1 E39.39774 F2400.000
G92 E0
G1 Z0.750 F6000.000
G1 X166.770 Y181.828
G1 Z0.350
G1 E1.20000 F2400.000
;TYPE:Solid infill
;WIDTH:0.701446
G1 F1800.000
G1 X167.373 Y182.432 E1.27385
G1 X168.259 Y182.432 E1.35055
G1 X167.471 Y181.643 E1.44707
G1 X167.566 Y181.565 E1.45769
G1 X167.888 Y181.174 E1.50155
G1 X169.145 Y182.432 E1.65550
G1 X170.031 Y182.432 E1.73219
G1 X168.225 Y180.626 E1.95328
G1 X168.351 Y180.393 E1.97622
G1 X168.474 Y179.989 E2.01276
G1 X170.917 Y182.432 E2.31185
G1 X171.802 Y182.432 E2.38854
G1 X168.605 Y179.235 E2.78000
G1 X168.629 Y179.000 E2.80041
G1 X168.559 Y178.302 E2.86114
G1 X172.688 Y182.432 E3.36678
G1 X173.574 Y182.432 E3.44347
G1 X148.068 Y156.926 E6.56652
G1 X148.068 Y156.040 E6.64322
G1 X174.460 Y182.432 E9.87473
G1 X175.345 Y182.432 E9.95142
G1 X148.068 Y155.155 E13.29140
G1 X148.068 Y154.269 E13.36809
G1 X176.231 Y182.432 E16.81652
G1 X176.932 Y182.432 E16.87717
G1 X176.932 Y182.246 E16.89321
G1 X148.068 Y153.383 E20.42741
G1 X148.068 Y152.497 E20.50410
G1 X176.932 Y181.360 E24.03830
G1 X176.932 Y180.475 E24.11499
G1 X148.068 Y151.612 E27.64919
G1 X148.068 Y150.726 E27.72588
G1 X176.932 Y179.589 E31.26008
G1 X176.932 Y178.703 E31.33677
G1 X148.068 Y149.840 E34.87097
G1 X148.068 Y148.954 E34.94767
G1 X176.932 Y177.817 E38.48186
G1 X176.932 Y176.932 E38.55856
G1 X148.068 Y148.068 E42.09275
G1 X148.068 Y147.183 E42.16945
G1 X176.932 Y176.046 E45.70364
G1 X176.932 Y175.160 E45.78034
G1 X148.068 Y146.297 E49.31453
G1 X148.068 Y145.411 E49.39123
G1 X176.932 Y174.274 E52.92542
G1 X176.932 Y173.388 E53.00212
G1 X148.068 Y144.525 E56.53631
G1 X148.068 Y143.640 E56.61301
G1 X176.932 Y172.503 E60.14720
G1 X176.932 Y171.617 E60.22390
G1 X148.068 Y142.754 E63.75809
G1 X148.068 Y142.568 E63.77415
G1 X148.769 Y142.568 E63.83479
G1 X176.932 Y170.731 E67.28322
G1 X176.932 Y169.845 E67.35992
G1 X149.655 Y142.568 E70.69989
G1 X150.540 Y142.568 E70.77659
G1 X176.932 Y168.960 E74.00810
G1 X176.932 Y168.074 E74.08479
G1 X151.426 Y142.568 E77.20784
G1 X152.312 Y142.569 E77.28454
G1 X176.932 Y167.188 E80.29913
G1 X176.932 Y166.302 E80.37582
G1 X153.198 Y142.569 E83.28195
G1 X154.084 Y142.569 E83.35864
G1 X176.932 Y165.417 E86.15630
G1 X176.932 Y164.531 E86.23300
G1 X154.969 Y142.569 E88.92220
G1 X155.855 Y142.569 E88.99889
G1 X177.213 Y163.926 E91.61407
G1 E90.41407 F2400.000
G92 E0
G1 Z0.750 F6000.000
G1 X177.213 Y143.553
G1 Z0.350
G1 E1.20000 F2400.000
G1 F1800.000
G1 X176.228 Y142.568 E1.32061
G1 X175.342 Y142.568 E1.39731
G1 X176.932 Y144.158 E1.59195
G1 X176.932 Y145.044 E1.66864
G1 X174.456 Y142.568 E1.97174
G1 X173.570 Y142.568 E2.04844
G1 X176.932 Y145.930 E2.46000
G1 X176.932 Y146.815 E2.53669
G1 X172.685 Y142.568 E3.05671
G1 X171.799 Y142.568 E3.13341
G1 X176.932 Y147.701 E3.76189
G1 X176.932 Y148.587 E3.83858
G1 X170.913 Y142.568 E4.57552
G1 X170.027 Y142.568 E4.65221
G1 X176.932 Y149.473 E5.49761
G1 X176.932 Y150.358 E5.57431
G1 X169.142 Y142.568 E6.52817
G1 X168.256 Y142.568 E6.60486
G1 X176.932 Y151.244 E7.66718
G1 X176.932 Y152.130 E7.74387
G1 X167.702 Y142.900 E8.87400
G1 X167.612 Y142.991 E8.88507
G1 X168.011 Y143.475 E8.93938
G1 X168.351 Y144.107 E9.00154
G1 X168.495 Y144.579 E9.04424
G1 X176.932 Y153.016 E10.07731
G1 X176.932 Y153.902 E10.15400
G1 X168.620 Y145.590 E11.17175
G1 X168.556 Y146.219 E11.22649
G1 X168.511 Y146.367 E11.23990
G1 X176.932 Y154.787 E12.27094
G1 X176.932 Y155.673 E12.34763
G1 X168.281 Y147.022 E13.40688
G1 X168.011 Y147.525 E13.45624
G1 X167.960 Y147.587 E13.46324
G1 X176.932 Y156.559 E14.56182
G1 X176.932 Y157.445 E14.63851
G1 X167.559 Y148.072 E15.78617
G1 X167.071 Y148.470 E15.84068
G1 X176.932 Y158.330 E17.04803
G1 X176.932 Y159.216 E17.12472
G1 X166.505 Y148.790 E18.40140
G1 X166.384 Y148.854 E18.41325
G1 X165.846 Y149.016 E18.46195
G1 X176.932 Y160.102 E19.81938
G1 X176.932 Y160.988 E19.89607
G1 X165.066 Y149.122 E21.34902
G1 X164.303 Y149.061 E21.41524
G1 X164.040 Y148.982 E21.43907
G1 X176.932 Y161.873 E23.01763
G1 X176.932 Y162.759 E23.09433
G1 X156.741 Y142.569 E25.56661
G1 X157.627 Y142.569 E25.64330
G1 X161.518 Y146.460 E26.11982
G1 X161.439 Y146.198 E26.14356
G1 X161.378 Y145.434 E26.20986
G1 X158.512 Y142.569 E26.56077
G1 X159.398 Y142.569 E26.63746
G1 X161.484 Y144.654 E26.89284
G1 X161.646 Y144.116 E26.94154
G1 X161.710 Y143.995 E26.95339
G1 X160.284 Y142.569 E27.12802
G1 X161.170 Y142.569 E27.20472
G1 X162.030 Y143.429 E27.31002
G1 X162.379 Y143.001 E27.35779
G1 X162.079 Y142.702 E27.39447
G1 X162.134 Y142.647 E27.40125
G1 X161.774 Y142.287 E27.44527
G1 X162.815 Y142.774 F6000.000
;TYPE:Gap fill
;WIDTH:0.207816
G1 F1800.000
G1 X163.020 Y142.568 E27.45060
;WIDTH:0.211741
G1 X163.030 Y142.560 E27.45085
;WIDTH:0.248809
G1 X163.209 Y142.412 E27.45641
G1 E26.25641 F2400.000
G92 E0
G1 Z0.750 F6000.000
G1 X166.788 Y142.412
G1 Z0.350
G1 E1.20000 F2400.000
;WIDTH:0.207807
G1 F1800.000
G1 X166.979 Y142.570 E1.20455
;WIDTH:0.204051
G1 X167.174 Y142.765 E1.20947
G1 E0.00947 F2400.000
G92 E0
G1 Z0.750 F6000.000
G1 X164.172 Y182.588
G1 Z0.350
G1 E1.20000 F2400.000
;WIDTH:0.215454
G1 F1800.000
G1 X163.639 Y182.268 E1.21207
;WIDTH:0.211303
G1 X163.511 Y182.182 E1.21497
;WIDTH:0.185207
G1 X163.383 Y182.096 E1.21732
G1 X163.700 Y182.406 F6000.000
;WIDTH:0.358695
G1 F1800.000
G1 X164.003 Y182.451 E1.22934
;WIDTH:0.192089
G1 X164.325 Y182.497 E1.23459
G1 X165.006 Y182.529 E1.24561
;WIDTH:0.224252
G1 X165.340 Y182.513 E1.25252
;WIDTH:0.256415
G1 X165.675 Y182.497 E1.26092
;WIDTH:0.259917
G1 X165.693 Y182.495 E1.26138
;WIDTH:0.309306
G1 X165.997 Y182.451 E1.27131
;WIDTH:0.358695
G1 X166.300 Y182.406 E1.28333
G1 X166.617 Y182.096 F6000.000
;WIDTH:0.185208
G1 F1800.000
G1 X165.828 Y182.588 E1.29749
G1 E0.09749 F2400.000
G92 E0
G1 Z0.750 F6000.000
G1 X166.115 Y175.859
G1 Z0.350
G1 E1.20000 F2400.000
;TYPE:Solid infill
;WIDTH:0.701446
G1 F1800.000
G1 X148.068 Y157.812 E3.40976
G1 X148.068 Y158.698 E3.48646
G1 X164.765 Y175.395 E5.53095
G1 X164.281 Y175.444 E5.57311
G1 X164.011 Y175.526 E5.59755
G1 X148.068 Y159.583 E7.54966
G1 X148.068 Y160.469 E7.62636
G1 X163.374 Y175.775 E9.50045
G1 X162.994 Y175.977 E9.53774
G1 X162.827 Y176.113 E9.55640
G1 X148.068 Y161.355 E11.36349
G1 X148.068 Y162.241 E11.44019
G1 X162.356 Y176.529 E13.18971
G1 X161.962 Y177.021 E13.24427
G1 X148.068 Y163.127 E14.94555
G1 X148.068 Y164.012 E15.02224
