; generated by PrusaSlicer 2.3.0+win64 on 2021-10-09 at 10:22:45 UTC

; 

; external perimeters extrusion width = 0.45mm
; perimeters extrusion width = 0.45mm
; infill extrusion width = 0.45mm
; solid infill extrusion width = 0.45mm
; top infill extrusion width = 0.40mm
; support material extrusion width = 0.35mm
; first layer extrusion width = 0.70mm

M107
;TYPE:Custom
G28 ; home all axes
G1 Z20 F5000 ; lift nozzle
M104 S215 ; set extruder temp
M140 S50 ; set bed temp
M109 S215 ; wait extruder temp
M190 S50 ; set bed temp wait
G29 S1
G92 E0
G1 X0 Y0 Z0.2 F3000 ; go outside printing area
G1 X60.0 E9.0  F1000.0 ; intro line
G1 X100.0 E12.5  F1000.0 ; intro line
G92 E0

G21 ; set units to millimeters
G90 ; use absolute coordinates
M82 ; use absolute distances for extrusion
G92 E0
; Filament gcode
;LAYER_CHANGE
;Z:0.35
;HEIGHT:0.35
G1 Z0.350 F6000.000
G1 E-1.20000 F2400.000
G92 E0
G1 Z0.750 F6000.000
G1 X165.776 Y114.338
G1 Z0.350
G1 E1.20000 F2400.000
;TYPE:Skirt
;WIDTH:0.7
G1 F1800.000
G1 X187.500 Y114.303 E3.07656
G1 X188.102 Y114.360 E3.12881
G1 X188.683 Y114.528 E3.18106
G1 X189.223 Y114.800 E3.23330
G1 X189.703 Y115.168 E3.28555
G1 X190.107 Y115.618 E3.33780
G1 X190.420 Y116.136 E3.39004
G1 X190.632 Y116.702 E3.44229
G1 X190.735 Y117.298 E3.49454
G1 X192.310 Y152.435 E6.53277
G1 X192.309 Y166.609 E7.75715
G1 X192.158 Y167.526 E7.83751
G1 X191.782 Y168.358 E7.91637
G1 X165.070 Y203.865 E11.75457
G1 X164.518 Y204.407 E11.82135
G1 X160.549 Y207.347 E12.24812
G1 X155.237 Y210.338 E12.77470
G1 X154.671 Y210.564 E12.82732
G1 X154.069 Y210.681 E12.88034
G1 X129.983 Y210.978 E14.96105
G1 X129.109 Y210.852 E15.03738
G1 X128.301 Y210.495 E15.11370
G1 X127.696 Y210.014 E15.18048
G1 X127.223 Y209.407 E15.24688
G1 X126.907 Y208.707 E15.31328
G1 X126.763 Y207.947 E15.38007
G1 X126.758 Y187.623 E17.13575
G1 X126.832 Y187.032 E17.18723
G1 X129.430 Y175.452 E18.21233
G1 X159.732 Y118.375 E23.79461
G1 X160.102 Y117.886 E23.84762
G1 X160.553 Y117.476 E23.90025
G1 X164.445 Y114.850 E24.30579
G1 X165.084 Y114.519 E24.36799
G1 X165.718 Y114.353 E24.42462
G1 E23.22462 F2400.000
G92 E0
G1 Z0.750 F6000.000
G1 X188.461 Y115.112
G1 Z0.350
G1 E1.20000 F2400.000
G1 F1800.000
G1 X189.288 Y115.635 E1.28456
G1 X189.866 Y116.425 E1.36912
G1 X190.114 Y117.368 E1.45334
G1 X191.685 Y152.443 E4.48619
G1 X191.685 Y166.572 E5.70674
G1 X191.567 Y167.322 E5.77229
G1 X191.249 Y168.032 E5.83957
G1 X164.584 Y203.472 E9.67066
G1 X164.131 Y203.916 E9.72551
G1 X160.210 Y206.822 E10.14708
G1 X154.966 Y209.774 E10.66690
G1 X154.009 Y210.059 E10.75315
G1 X129.994 Y210.353 E12.82786
G1 X129.279 Y210.251 E12.89024
G1 X128.622 Y209.959 E12.95228
G1 X128.130 Y209.565 E13.00678
G1 X127.748 Y209.068 E13.06094
G1 X127.494 Y208.490 E13.11543
G1 X127.385 Y207.873 E13.16959
G1 X127.383 Y187.622 E14.91895
G1 X130.025 Y175.642 E15.97862
G1 X160.268 Y118.697 E21.54841
G1 X160.945 Y117.964 E21.63467
G1 X164.796 Y115.367 E22.03587
G1 X165.318 Y115.099 E22.08659
G1 X165.891 Y114.952 E22.13765
G1 X187.500 Y114.928 E24.00426
G1 X188.402 Y115.101 E24.08364
G1 E22.88364 F2400.000
G92 E0
G1 Z0.750 F6000.000
G1 X162.500 Y120.079
G1 Z0.350
G1 E1.20000 F2400.000
;TYPE:Support material
G1 F1800.000
G1 X162.500 Y151.648 E3.92702
G1 X163.750 Y151.648 E4.03498
G1 X163.750 Y120.360 E6.73771
G1 X165.000 Y120.360 E6.84567
G1 X165.000 Y151.648 E9.54840
G1 X166.249 Y151.648 E9.65636
G1 X166.249 Y117.553 E12.60157
G1 X167.499 Y117.553 E12.70953
G1 X167.499 Y151.648 E15.65474
G1 X168.749 Y151.648 E15.76270
G1 X168.749 Y117.553 E18.70791
G1 X169.999 Y117.553 E18.81587
G1 X169.999 Y151.648 E21.76108
G1 X171.248 Y151.648 E21.86904
G1 X171.248 Y117.553 E24.81426
G1 X172.498 Y117.553 E24.92222
G1 X172.498 Y151.648 E27.86743
G1 X173.748 Y151.648 E27.97539
G1 X173.748 Y117.553 E30.92060
G1 X174.998 Y117.553 E31.02856
G1 X174.998 Y151.648 E33.97377
G1 X176.248 Y151.648 E34.08173
G1 X176.248 Y117.553 E37.02695
G1 X177.497 Y117.553 E37.13491
G1 X177.497 Y151.648 E40.08012
G1 X178.747 Y151.648 E40.18808
G1 X178.747 Y117.553 E43.13329
G1 X179.997 Y117.553 E43.24125
G1 X179.997 Y151.648 E46.18646
G1 X181.247 Y151.648 E46.29442
G1 X181.247 Y117.553 E49.23964
G1 X182.496 Y117.553 E49.34759
G1 X182.496 Y151.648 E52.29281
G1 X183.746 Y151.648 E52.40077
G1 X183.746 Y117.553 E55.34598
G1 X184.996 Y117.553 E55.45394
G1 X184.996 Y151.648 E58.39915
G1 X186.246 Y151.648 E58.50711
G1 X186.246 Y117.553 E61.45232
G1 X187.496 Y117.553 E61.56028
G1 X187.496 Y151.929 E64.52979
G1 E63.32979 F2400.000
G92 E0
G1 Z0.750 F6000.000
G1 X167.499 Y188.079
G1 Z0.350
G1 E1.20000 F2400.000
G1 F1800.000
G1 X167.499 Y175.936 E2.24898
G1 X167.325 Y175.879 E2.26483
G1 X166.774 Y176.500 E2.33652
G1 X166.249 Y177.133 E2.40752
G1 X166.249 Y187.798 E3.32878
G1 X165.341 Y187.798 E3.40725
G1 X165.341 Y196.219 E4.13470
G1 X165.000 Y196.219 E4.16420
G1 X165.000 Y178.839 E5.66554
G1 X164.393 Y179.792 E5.76310
G1 X163.750 Y180.925 E5.87565
G1 X163.750 Y196.219 E7.19681
G1 X162.534 Y196.219 E7.30184
G1 X162.534 Y201.833 E7.78681
G1 X162.500 Y201.833 E7.78974
G1 X162.500 Y183.656 E9.35994
G1 X162.078 Y184.840 E9.46850
G1 X161.767 Y185.864 E9.56094
G1 X161.500 Y186.900 E9.65339
G1 X161.250 Y188.104 E9.75963
G1 X161.250 Y201.833 E10.94556
G1 X160.000 Y201.833 E11.05352
G1 X160.000 Y193.384 E11.78337
G1 X159.708 Y194.049 E11.84610
G1 X159.409 Y194.650 E11.90407
G1 X159.085 Y195.238 E11.96206
G1 X158.751 Y195.787 E12.01766
G1 X158.751 Y204.640 E12.78238
G1 X157.501 Y204.640 E12.89034
G1 X157.501 Y197.481 E13.50880
G1 X156.913 Y198.134 E13.58468
G1 X156.251 Y198.788 E13.66512
G1 X156.251 Y204.640 E14.17061
G1 X155.001 Y204.640 E14.27857
G1 X155.001 Y199.833 E14.69379
G1 X154.356 Y200.292 E14.76214
G1 X153.752 Y200.678 E14.82415
G1 X153.752 Y207.447 E15.40885
G1 X152.502 Y207.447 E15.51681
G1 X152.502 Y201.361 E16.04260
G1 X151.887 Y201.644 E16.10108
G1 X151.252 Y201.902 E16.16029
G1 X151.252 Y207.447 E16.63927
G1 X150.002 Y207.447 E16.74723
G1 X150.002 Y202.320 E17.19018
G1 X149.343 Y202.493 E17.24903
G1 X148.752 Y202.622 E17.30128
G1 X148.752 Y207.447 E17.71808
G1 X147.503 Y207.447 E17.82603
G1 X147.503 Y202.818 E18.22595
G1 X146.825 Y202.880 E18.28474
G1 X146.253 Y202.909 E18.33423
G1 X146.253 Y207.447 E18.72623
G1 X145.003 Y207.447 E18.83419
G1 X145.003 Y202.918 E19.22547
G1 X143.753 Y202.918 E19.33343
G1 X143.753 Y207.447 E19.72471
G1 X142.504 Y207.447 E19.83267
G1 X142.504 Y202.918 E20.22396
G1 X141.254 Y202.918 E20.33191
G1 X141.254 Y207.447 E20.72320
G1 X140.004 Y207.447 E20.83116
G1 X140.004 Y202.918 E21.22244
G1 X138.754 Y202.918 E21.33040
G1 X138.754 Y207.447 E21.72168
G1 X137.504 Y207.447 E21.82964
G1 X137.504 Y202.918 E22.22092
G1 X136.255 Y202.918 E22.32888
G1 X136.255 Y207.447 E22.72017
G1 X135.005 Y207.447 E22.82813
G1 X135.005 Y202.918 E23.21941
G1 X133.755 Y202.918 E23.32737
G1 X133.755 Y207.447 E23.71865
G1 X132.505 Y207.447 E23.82661
G1 X132.505 Y202.918 E24.21789
G1 X131.940 Y202.918 E24.26674
G1 X131.428 Y202.273 E24.33784
G1 X132.505 Y197.654 E24.74753
G1 X132.505 Y176.501 E26.57478
G1 X133.755 Y176.501 E26.68274
G1 X133.755 Y192.298 E28.04730
G1 X134.898 Y187.400 E28.48180
G1 X134.931 Y186.652 E28.54645
G1 X135.005 Y185.978 E28.60504
G1 X135.005 Y173.694 E29.66613
G1 X136.255 Y173.694 E29.77409
G1 X136.255 Y182.245 E30.51273
G1 X136.545 Y181.752 E30.56215
G1 X136.858 Y181.278 E30.61123
G1 X137.196 Y180.821 E30.66031
G1 X137.504 Y180.444 E30.70240
G1 X137.504 Y173.694 E31.28547
G1 X138.754 Y173.694 E31.39342
G1 X138.754 Y179.203 E31.86932
G1 X139.368 Y178.722 E31.93671
G1 X140.004 Y178.294 E32.00294
G1 X140.004 Y173.694 E32.40024
G1 X141.254 Y173.694 E32.50820
G1 X141.254 Y177.623 E32.84755
G1 X141.861 Y177.368 E32.90442
G1 X142.504 Y177.145 E32.96320
G1 X142.504 Y173.694 E33.26124
G1 X143.753 Y173.694 E33.36920
G1 X143.753 Y176.833 E33.64031
G1 X144.334 Y176.740 E33.69107
G1 X145.003 Y176.673 E33.74919
G1 X145.003 Y173.694 E34.00653
G1 X145.624 Y173.694 E34.06012
G1 X145.624 Y170.887 E34.30261
G1 X146.253 Y170.887 E34.35697
G1 X146.253 Y176.648 E34.85456
G1 X147.503 Y176.648 E34.96252
G1 X147.503 Y170.887 E35.46011
G1 X148.431 Y170.887 E35.54027
G1 X148.431 Y168.080 E35.78276
G1 X148.752 Y168.080 E35.81055
G1 X148.752 Y176.525 E36.54001
G1 X149.066 Y176.433 E36.56822
G1 X149.404 Y176.304 E36.59948
G1 X149.697 Y176.162 E36.62761
G1 X150.002 Y175.983 E36.65818
G1 X150.002 Y168.080 E37.34082
G1 X151.252 Y168.080 E37.44878
G1 X151.252 Y175.211 E38.06476
G1 E36.86476 F2400.000
G92 E0
G1 Z0.750 F6000.000
G1 X146.253 Y187.302
G1 Z0.350
G1 E1.20000 F2400.000
G1 F1800.000
G1 X146.253 Y192.136 E1.61761
G1 X146.635 Y192.798 E1.68360
G1 X147.503 Y192.798 E1.75856
G1 X147.503 Y187.202 E2.24189
G1 X148.752 Y187.202 E2.34985
G1 X148.752 Y192.798 E2.83317
G1 X149.865 Y192.798 E2.92929
G1 X150.002 Y192.560 E2.95297
G1 X150.002 Y187.440 E3.39528
G1 X151.252 Y189.604 E3.61120
G1 X151.252 Y190.958 E3.72811
G1 E2.52811 F2400.000
G92 E0
G1 Z0.750 F6000.000
G1 X131.256 Y207.728
G1 Z0.350
G1 E1.20000 F2400.000
G1 F1800.000
G1 X131.256 Y187.730 E2.92754
G1 X130.006 Y187.730 E3.03550
G1 X130.006 Y207.728 E4.76305
G1 E3.56305 F2400.000
G92 E0
G1 Z0.750 F6000.000
G1 X145.219 Y195.250
G1 Z0.350
G1 E1.20000 F2400.000
;TYPE:Perimeter
G1 F1800.000
G1 X142.188 Y190.000 E1.72365
G1 X145.219 Y184.750 E2.24730
G1 X151.281 Y184.750 E2.77094
G1 X154.312 Y190.000 E3.29459
G1 X151.281 Y195.250 E3.81824
G1 X145.279 Y195.250 E4.33670
G1 X145.580 Y194.625 F6000.000
G1 F1800.000
G1 X142.910 Y190.000 E4.79802
G1 X145.580 Y185.375 E5.25934
G1 X150.920 Y185.375 E5.72065
G1 X153.590 Y190.000 E6.18197
G1 X150.920 Y194.625 E6.64329
G1 X145.640 Y194.625 E7.09942
G1 X145.941 Y194.000 F6000.000
;TYPE:External perimeter
G1 F1800.000
G1 X143.631 Y190.000 E7.49841
G1 X145.941 Y186.000 E7.89740
G1 X150.559 Y186.000 E8.29638
G1 X152.869 Y190.000 E8.69537
G1 X150.559 Y194.000 E9.09436
G1 X146.001 Y194.000 E9.48816
G1 X145.594 Y194.200 F6000.000
G1 E8.28816 F2400.000
G92 E0
G1 Z0.750 F6000.000
G1 X134.368 Y200.465
G1 Z0.350
G1 E1.20000 F2400.000
;TYPE:Perimeter
G1 F1800.000
G1 X137.344 Y187.708 E2.33159
G1 X137.366 Y186.991 E2.39361
G1 X137.423 Y186.402 E2.44473
G1 X137.505 Y185.897 E2.48887
G1 X137.616 Y185.407 E2.53227
G1 X137.832 Y184.700 E2.59617
G1 X138.138 Y183.951 E2.66609
G1 X138.514 Y183.237 E2.73570
G1 X138.959 Y182.558 E2.80592
G1 X139.366 Y182.043 E2.86259
G1 X139.759 Y181.613 E2.91293
G1 X140.182 Y181.212 E2.96327
G1 X140.697 Y180.791 E3.02072
G1 X141.176 Y180.456 E3.07119
G1 X141.678 Y180.154 E3.12182
G1 X142.197 Y179.889 E3.17216
G1 X142.815 Y179.630 E3.23004
G1 X143.294 Y179.468 E3.27375
G1 X143.789 Y179.333 E3.31807
G1 X144.291 Y179.228 E3.36238
G1 X144.785 Y179.157 E3.40549
G1 X145.629 Y179.101 E3.47856
G1 X147.999 Y179.097 E3.68329
G1 X148.712 Y179.031 E3.74510
G1 X149.235 Y178.932 E3.79108
G1 X149.732 Y178.796 E3.83555
G1 X150.172 Y178.640 E3.87596
G1 X150.650 Y178.430 E3.92103
G1 X151.196 Y178.130 E3.97485
G1 X151.677 Y177.806 E4.02490
G1 X152.128 Y177.441 E4.07502
G1 X152.576 Y177.005 E4.12907
G1 X152.952 Y176.564 E4.17912
G1 X153.289 Y176.092 E4.22924
G1 X153.604 Y175.551 E4.28328
G1 X153.850 Y175.023 E4.33363
G1 X154.062 Y174.433 E4.38774
G1 X154.208 Y173.869 E4.43810
G1 X154.309 Y173.247 E4.49251
G1 X154.349 Y172.640 E4.54512
G1 X154.350 Y154.100 E6.14665
G1 X187.461 Y154.100 E9.00693
G1 X187.461 Y165.466 E9.98874
G1 X184.964 Y165.469 E10.20444
G1 X184.017 Y165.502 E10.28628
G1 X182.613 Y165.613 E10.40798
G1 X180.991 Y165.833 E10.54941
G1 X179.827 Y166.053 E10.65168
G1 X178.682 Y166.322 E10.75335
G1 X177.549 Y166.641 E10.85502
G1 X176.427 Y167.010 E10.95699
G1 X175.112 Y167.514 E11.07869
G1 X173.821 Y168.087 E11.20069
G1 X172.562 Y168.727 E11.32269
G1 X171.338 Y169.432 E11.44469
G1 X170.153 Y170.200 E11.56669
G1 X169.012 Y171.026 E11.68839
G1 X168.087 Y171.766 E11.79066
G1 X167.033 Y172.695 E11.91206
G1 X166.184 Y173.520 E12.01433
G1 X165.221 Y174.549 E12.13603
G1 X164.314 Y175.626 E12.25773
G1 X163.597 Y176.565 E12.35976
G1 X162.900 Y177.567 E12.46518
G1 X162.173 Y178.726 E12.58341
G1 X161.487 Y179.957 E12.70507
G1 X160.963 Y181.014 E12.80704
G1 X160.486 Y182.090 E12.90871
G1 X160.056 Y183.186 E13.01038
G1 X159.675 Y184.299 E13.11205
G1 X159.343 Y185.425 E13.21342
G1 X159.111 Y186.345 E13.29536
G1 X158.870 Y187.490 E13.39642
G1 X158.712 Y188.416 E13.47763
G1 X158.549 Y189.566 E13.57794
G1 X158.322 Y190.669 E13.67526
G1 X158.138 Y191.325 E13.73407
G1 X157.921 Y191.967 E13.79258
G1 X157.671 Y192.596 E13.85108
G1 X157.390 Y193.209 E13.90929
G1 X157.019 Y193.910 E13.97784
G1 X156.608 Y194.584 E14.04603
G1 X156.145 Y195.247 E14.11588
G1 X155.591 Y195.941 E14.19260
G1 X155.060 Y196.522 E14.26060
G1 X154.493 Y197.073 E14.32885
G1 X153.894 Y197.587 E14.39710
G1 X153.264 Y198.065 E14.46535
G1 X152.607 Y198.503 E14.53361
G1 X151.921 Y198.902 E14.60216
G1 X151.321 Y199.207 E14.66030
G1 X150.685 Y199.489 E14.72041
G1 X149.963 Y199.761 E14.78708
G1 X149.204 Y199.996 E14.85568
G1 X148.553 Y200.158 E14.91358
G1 X147.770 Y200.306 E14.98243
G1 X147.102 Y200.394 E15.04064
G1 X146.424 Y200.447 E15.09945
G1 X145.852 Y200.465 E15.14881
G1 X134.428 Y200.465 E16.13572
G1 X133.580 Y201.090 F6000.000
G1 F1800.000
G1 X136.721 Y187.627 E17.32996
G1 X136.742 Y186.951 E17.38836
G1 X136.803 Y186.321 E17.44302
G1 X136.891 Y185.778 E17.49058
G1 X137.011 Y185.247 E17.53764
G1 X137.243 Y184.490 E17.60601
G1 X137.571 Y183.686 E17.68099
G1 X137.975 Y182.920 E17.75579
G1 X138.452 Y182.192 E17.83096
G1 X138.889 Y181.637 E17.89199
G1 X139.313 Y181.175 E17.94622
G1 X139.769 Y180.742 E18.00045
G1 X140.319 Y180.292 E18.06190
G1 X140.835 Y179.931 E18.11626
G1 X141.375 Y179.607 E18.17066
G1 X141.934 Y179.322 E18.22489
G1 X142.594 Y179.045 E18.28666
G1 X143.111 Y178.870 E18.33390
G1 X143.643 Y178.725 E18.38152
G1 X144.183 Y178.612 E18.42913
G1 X144.720 Y178.535 E18.47601
G1 X145.608 Y178.476 E18.55292
G1 X147.970 Y178.472 E18.75694
G1 X148.625 Y178.412 E18.81373
G1 X149.094 Y178.322 E18.85500
G1 X149.545 Y178.200 E18.89535
G1 X149.942 Y178.059 E18.93174
G1 X150.373 Y177.869 E18.97246
G1 X150.871 Y177.596 E19.02144
G1 X151.305 Y177.304 E19.06666
G1 X151.712 Y176.974 E19.11195
G1 X152.119 Y176.577 E19.16105
G1 X152.459 Y176.179 E19.20627
G1 X152.763 Y175.752 E19.25155
G1 X153.050 Y175.261 E19.30065
G1 X153.272 Y174.785 E19.34605
G1 X153.464 Y174.249 E19.39522
G1 X153.596 Y173.740 E19.44062
G1 X153.688 Y173.177 E19.48997
G1 X153.724 Y172.619 E19.53821
G1 X153.725 Y153.475 E21.19196
G1 X188.086 Y153.475 E24.16020
G1 X188.086 Y166.069 E25.24808
G1 X187.759 Y166.090 E25.27636
G1 X184.976 Y166.094 E25.51684
G1 X184.053 Y166.126 E25.59660
G1 X182.680 Y166.234 E25.71560
G1 X181.091 Y166.450 E25.85408
G1 X179.957 Y166.665 E25.95377
G1 X178.838 Y166.928 E26.05309
G1 X177.731 Y167.239 E26.15241
G1 X176.637 Y167.599 E26.25191
G1 X175.350 Y168.092 E26.37091
G1 X174.090 Y168.652 E26.49009
G1 X172.860 Y169.277 E26.60927
G1 X171.664 Y169.965 E26.72844
G1 X170.506 Y170.715 E26.84762
G1 X169.390 Y171.523 E26.96662
G1 X168.489 Y172.244 E27.06631
G1 X167.458 Y173.154 E27.18512
G1 X166.630 Y173.958 E27.28480
G1 X165.689 Y174.964 E27.40380
G1 X164.801 Y176.017 E27.52280
G1 X164.102 Y176.933 E27.62234
G1 X163.421 Y177.911 E27.72528
G1 X162.711 Y179.045 E27.84083
G1 X162.040 Y180.248 E27.95979
G1 X161.528 Y181.280 E28.05930
G1 X161.063 Y182.331 E28.15862
G1 X160.643 Y183.401 E28.25793
G1 X160.271 Y184.489 E28.35725
G1 X159.946 Y185.590 E28.45639
G1 X159.720 Y186.486 E28.53621
G1 X159.484 Y187.607 E28.63517
G1 X159.329 Y188.512 E28.71454
G1 X159.166 Y189.666 E28.81521
G1 X159.059 Y190.249 E28.86640
G1 X158.927 Y190.824 E28.91732
G1 X158.735 Y191.509 E28.97883
G1 X158.508 Y192.182 E29.04016
G1 X158.246 Y192.842 E29.10148
G1 X157.951 Y193.485 E29.16263
G1 X157.563 Y194.219 E29.23435
G1 X157.132 Y194.926 E29.30586
G1 X156.646 Y195.621 E29.37914
G1 X156.066 Y196.347 E29.45935
G1 X155.509 Y196.957 E29.53074
G1 X154.915 Y197.534 E29.60229
G1 X154.287 Y198.074 E29.67383
G1 X153.627 Y198.574 E29.74538
G1 X152.937 Y199.034 E29.81692
G1 X152.220 Y199.451 E29.88865
G1 X151.589 Y199.772 E29.94975
