; generated by PrusaSlicer 2.2.0+win64 on 2020-06-05 at 12:02:15 UTC

; 

; external perimeters extrusion width = 0.45mm
; perimeters extrusion width = 0.45mm
; infill extrusion width = 0.45mm
; solid infill extrusion width = 0.45mm
; top infill extrusion width = 0.40mm
; support material extrusion width = 0.35mm
; first layer extrusion width = 0.42mm

M107
G28 ; home all axes
G1 Z20 F5000 ; lift nozzle
M104 S235 ; set extruder temp
M140 S70 ; set bed temp
M109 S235 ; wait extruder temp
M190 S70 ; set bed temp wait
G29 S1
G92 E0
G1 X0 Y0 Z0.2 F3000 ; go outside printing area
G1 X60.0 E9.0  F1000.0 ; intro line
G1 X100.0 E12.5  F1000.0 ; intro line
G92 E0

G21 ; set units to millimeters
G90 ; use absolute coordinates
M82 ; use absolute distances for extrusion
G92 E0
G1 Z0.250 F9000.000
G1 E-1.40000 F2100.00000
G92 E0
G1 Z0.550 F9000.000
G1 X133.492 Y73.401
G1 Z0.250
G1 E1.40000 F2100.00000
G1 F1800.000
G1 X134.558 Y72.580 E1.44867
G1 X135.791 Y72.028 E1.49756
G1 X137.114 Y71.780 E1.54623
G1 X172.506 Y71.767 E2.82650
G1 X173.564 Y71.867 E2.86496
G1 X174.586 Y72.160 E2.90342
G1 X175.536 Y72.638 E2.94188
G1 X176.382 Y73.282 E2.98034
G1 X177.094 Y74.071 E3.01880
G1 X177.651 Y74.984 E3.05747
G1 X178.027 Y75.979 E3.09593
G1 X178.213 Y77.025 E3.13439
G1 X178.232 Y127.595 E4.96367
G1 X178.166 Y128.372 E4.99189
G1 X177.995 Y129.133 E5.02012
G1 X177.722 Y129.864 E5.04834
G1 X177.353 Y130.552 E5.07656
G1 X176.478 Y131.628 E5.12672
G1 X175.376 Y132.459 E5.17667
G1 X174.107 Y133.003 E5.22662
G1 X172.739 Y133.228 E5.27678
G1 X137.370 Y133.231 E6.55620
G1 X136.605 Y133.162 E6.58399
G1 X135.850 Y132.990 E6.61200
G1 X135.130 Y132.720 E6.63980
G1 X134.448 Y132.353 E6.66781
G1 X133.364 Y131.470 E6.71839
G1 X132.526 Y130.350 E6.76898
G1 X131.984 Y129.061 E6.81956
G1 X131.770 Y127.679 E6.87015
G1 X131.768 Y77.405 E8.68875
G1 X131.834 Y76.628 E8.71697
G1 X132.005 Y75.867 E8.74520
G1 X132.278 Y75.136 E8.77342
G1 X132.647 Y74.448 E8.80164
G1 X133.454 Y73.448 E8.84814
G1 X133.738 Y73.679 F9000.000
G1 F1800.000
G1 X134.763 Y72.884 E8.89504
G1 X135.922 Y72.371 E8.94090
G1 X137.163 Y72.144 E8.98654
G1 X172.506 Y72.134 E10.26501
G1 X173.496 Y72.227 E10.30098
G1 X174.457 Y72.503 E10.33716
G1 X175.350 Y72.953 E10.37334
G1 X176.144 Y73.561 E10.40951
G1 X176.812 Y74.305 E10.44569
G1 X177.330 Y75.161 E10.48187
G1 X177.680 Y76.098 E10.51805
G1 X177.850 Y77.083 E10.55422
G1 X177.866 Y127.580 E12.38088
G1 X177.804 Y128.315 E12.40757
G1 X177.642 Y129.035 E12.43425
G1 X177.385 Y129.720 E12.46073
G1 X177.035 Y130.369 E12.48741
G1 X176.215 Y131.373 E12.53429
G1 X175.178 Y132.150 E12.58117
G1 X173.990 Y132.655 E12.62785
G1 X172.711 Y132.862 E12.67473
G1 X137.386 Y132.865 E13.95258
G1 X135.949 Y132.637 E14.00521
G1 X134.631 Y132.035 E14.05764
G1 X133.619 Y131.206 E14.10493
G1 X132.835 Y130.153 E14.15242
G1 X132.332 Y128.946 E14.19972
G1 X132.136 Y127.654 E14.24701
G1 X132.134 Y77.414 E16.06436
G1 X132.197 Y76.679 E16.09105
G1 X132.358 Y75.965 E16.11753
G1 X132.615 Y75.280 E16.14401
G1 X132.965 Y74.631 E16.17069
G1 X133.700 Y73.725 E16.21288
G1 E14.81288 F2100.00000
G92 E0
G1 Z0.550 F9000.000
G1 X171.557 Y126.557
G1 Z0.250
G1 E1.40000 F2100.00000
G1 F1800.000
G1 X138.443 Y126.557 E2.59788
G1 X138.443 Y120.443 E2.81907
G1 X171.557 Y120.443 E4.01695
G1 X171.557 Y126.497 E4.23596
G1 X171.924 Y126.924 F9000.000
G1 F1800.000
G1 X138.076 Y126.924 E5.46035
G1 X138.076 Y120.076 E5.70804
G1 X171.924 Y120.076 E6.93242
G1 X171.924 Y126.864 E7.17794
G1 X172.290 Y127.290 F9000.000
G1 F1800.000
G1 X137.710 Y127.290 E8.42883
G1 X137.710 Y119.710 E8.70303
G1 X172.290 Y119.710 E9.95392
G1 X172.290 Y127.230 E10.22594
G1 X171.891 Y127.261 F9000.000
G1 E8.82594 F2100.00000
G92 E0
G1 Z0.550 F9000.000
G1 X138.553 Y125.707
G1 Z0.250
G1 E1.40000 F2100.00000
G1 F1800.000
G1 X139.128 Y126.283 E1.42946
G1 X139.647 Y126.283 E1.44821
G1 X138.717 Y125.353 E1.49574
G1 X138.717 Y124.835 E1.51449
G1 X140.165 Y126.283 E1.58854
G1 X140.683 Y126.283 E1.60729
G1 X138.717 Y124.317 E1.70785
G1 X138.717 Y123.799 E1.72660
G1 X141.201 Y126.283 E1.85367
G1 X141.719 Y126.283 E1.87242
G1 X138.717 Y123.281 E2.02600
G1 X138.717 Y122.763 E2.04475
G1 X142.237 Y126.283 E2.22485
G1 X142.756 Y126.283 E2.24360
G1 X138.717 Y122.244 E2.45021
G1 X138.717 Y121.726 E2.46895
G1 X143.274 Y126.283 E2.70207
G1 X143.792 Y126.283 E2.72082
G1 X138.717 Y121.208 E2.98046
G1 X138.717 Y120.717 E2.99821
G1 X138.745 Y120.717 E2.99920
G1 X144.310 Y126.283 E3.28394
G1 X144.828 Y126.283 E3.30269
G1 X139.263 Y120.717 E3.58742
G1 X139.781 Y120.717 E3.60617
G1 X145.346 Y126.283 E3.89091
G1 X145.865 Y126.283 E3.90965
G1 X140.299 Y120.717 E4.19439
G1 X140.818 Y120.717 E4.21314
G1 X146.383 Y126.283 E4.49787
G1 X146.901 Y126.283 E4.51662
G1 X141.336 Y120.717 E4.80136
G1 X141.854 Y120.717 E4.82010
G1 X147.419 Y126.283 E5.10484
G1 X147.937 Y126.283 E5.12359
G1 X142.372 Y120.717 E5.40833
G1 X142.890 Y120.717 E5.42707
G1 X148.455 Y126.283 E5.71181
G1 X148.974 Y126.283 E5.73056
G1 X143.409 Y120.717 E6.01529
G1 X143.927 Y120.717 E6.03404
G1 X149.492 Y126.283 E6.31878
G1 X150.010 Y126.283 E6.33752
G1 X144.445 Y120.717 E6.62226
G1 X144.963 Y120.717 E6.64101
G1 X150.528 Y126.283 E6.92574
G1 X151.046 Y126.283 E6.94449
G1 X145.481 Y120.717 E7.22923
G1 X145.999 Y120.717 E7.24797
G1 X151.564 Y126.283 E7.53271
G1 X152.083 Y126.283 E7.55146
G1 X146.518 Y120.717 E7.83619
G1 X147.036 Y120.717 E7.85494
G1 X152.601 Y126.283 E8.13968
G1 X153.119 Y126.283 E8.15843
G1 X147.554 Y120.717 E8.44316
G1 X148.072 Y120.717 E8.46191
G1 X153.637 Y126.283 E8.74665
G1 X154.155 Y126.283 E8.76539
G1 X148.590 Y120.717 E9.05013
G1 X149.108 Y120.717 E9.06888
G1 X154.674 Y126.283 E9.35361
G1 X155.192 Y126.283 E9.37236
G1 X149.627 Y120.717 E9.65710
G1 X150.145 Y120.717 E9.67584
G1 X155.710 Y126.283 E9.96058
G1 X156.228 Y126.283 E9.97933
G1 X150.663 Y120.717 E10.26406
G1 X151.181 Y120.717 E10.28281
G1 X156.746 Y126.283 E10.56755
G1 X157.264 Y126.283 E10.58630
G1 X151.699 Y120.717 E10.87103
G1 X152.217 Y120.717 E10.88978
G1 X157.783 Y126.283 E11.17452
G1 X158.301 Y126.283 E11.19326
G1 X152.736 Y120.717 E11.47800
G1 X153.254 Y120.717 E11.49675
G1 X158.819 Y126.283 E11.78148
G1 X159.337 Y126.283 E11.80023
G1 X153.772 Y120.717 E12.08497
G1 X154.290 Y120.717 E12.10371
G1 X159.855 Y126.283 E12.38845
G1 X160.373 Y126.283 E12.40720
G1 X154.808 Y120.717 E12.69193
G1 X155.326 Y120.717 E12.71068
G1 X160.892 Y126.283 E12.99542
G1 X161.410 Y126.283 E13.01416
G1 X155.845 Y120.717 E13.29890
G1 X156.363 Y120.717 E13.31765
G1 X161.928 Y126.283 E13.60239
G1 X162.446 Y126.283 E13.62113
G1 X156.881 Y120.717 E13.90587
G1 X157.399 Y120.717 E13.92462
G1 X162.964 Y126.283 E14.20935
G1 X163.482 Y126.283 E14.22810
G1 X157.917 Y120.717 E14.51284
G1 X158.435 Y120.717 E14.53158
G1 X164.001 Y126.283 E14.81632
G1 X164.519 Y126.283 E14.83507
G1 X158.954 Y120.717 E15.11980
G1 X159.472 Y120.717 E15.13855
G1 X165.037 Y126.283 E15.42329
G1 X165.555 Y126.283 E15.44203
G1 X159.990 Y120.717 E15.72677
G1 X160.508 Y120.717 E15.74552
G1 X166.073 Y126.283 E16.03025
G1 X166.591 Y126.283 E16.04900
G1 X161.026 Y120.717 E16.33374
G1 X161.544 Y120.717 E16.35249
G1 X167.110 Y126.283 E16.63722
G1 X167.628 Y126.283 E16.65597
G1 X162.063 Y120.717 E16.94071
G1 X162.581 Y120.717 E16.95945
G1 X168.146 Y126.283 E17.24419
G1 X168.664 Y126.283 E17.26294
G1 X163.099 Y120.717 E17.54767
G1 X163.617 Y120.717 E17.56642
G1 X169.182 Y126.283 E17.85116
G1 X169.700 Y126.283 E17.86990
G1 X164.135 Y120.717 E18.15464
G1 X164.654 Y120.717 E18.17339
G1 X170.219 Y126.283 E18.45812
G1 X170.737 Y126.283 E18.47687
G1 X165.172 Y120.717 E18.76161
G1 X165.690 Y120.717 E18.78036
G1 X171.255 Y126.283 E19.06509
G1 X171.283 Y126.283 E19.06609
G1 X171.283 Y125.792 E19.08384
G1 X166.208 Y120.717 E19.34347
G1 X166.726 Y120.717 E19.36222
G1 X171.283 Y125.274 E19.59535
G1 X171.283 Y124.756 E19.61409
G1 X167.244 Y120.717 E19.82070
G1 X167.763 Y120.717 E19.83945
G1 X171.283 Y124.237 E20.01955
G1 X171.283 Y123.719 E20.03830
G1 X168.281 Y120.717 E20.19189
G1 X168.799 Y120.717 E20.21063
G1 X171.283 Y123.201 E20.33771
G1 X171.283 Y122.683 E20.35646
G1 X169.317 Y120.717 E20.45702
G1 X169.835 Y120.717 E20.47577
G1 X171.283 Y122.165 E20.54982
G1 X171.283 Y121.647 E20.56856
G1 X170.353 Y120.717 E20.61610
G1 X170.872 Y120.717 E20.63485
G1 X171.447 Y121.293 E20.66431
G1 E19.26431 F2100.00000
G92 E0
G1 Z0.550 F9000.000
G1 X171.557 Y112.557
G1 Z0.250
G1 E1.40000 F2100.00000
G1 F1800.000
G1 X138.443 Y112.557 E2.59788
G1 X138.443 Y106.443 E2.81907
G1 X171.557 Y106.443 E4.01695
G1 X171.557 Y112.497 E4.23596
G1 X171.924 Y112.924 F9000.000
G1 F1800.000
G1 X138.076 Y112.924 E5.46035
G1 X138.076 Y106.076 E5.70804
G1 X171.924 Y106.076 E6.93242
G1 X171.924 Y112.864 E7.17794
G1 X172.290 Y113.290 F9000.000
G1 F1800.000
G1 X137.710 Y113.290 E8.42883
G1 X137.710 Y105.710 E8.70303
G1 X172.290 Y105.710 E9.95392
G1 X172.290 Y113.230 E10.22594
G1 X171.891 Y113.261 F9000.000
G1 E8.82594 F2100.00000
G92 E0
G1 Z0.550 F9000.000
G1 X138.553 Y111.707
G1 Z0.250
G1 E1.40000 F2100.00000
G1 F1800.000
G1 X139.128 Y112.283 E1.42946
G1 X139.647 Y112.283 E1.44821
G1 X138.717 Y111.353 E1.49574
G1 X138.717 Y110.835 E1.51449
G1 X140.165 Y112.283 E1.58854
G1 X140.683 Y112.283 E1.60729
G1 X138.717 Y110.317 E1.70785
G1 X138.717 Y109.799 E1.72660
G1 X141.201 Y112.283 E1.85367
G1 X141.719 Y112.283 E1.87242
G1 X138.717 Y109.281 E2.02600
G1 X138.717 Y108.763 E2.04475
G1 X142.237 Y112.283 E2.22485
G1 X142.756 Y112.283 E2.24360
G1 X138.717 Y108.244 E2.45021
G1 X138.717 Y107.726 E2.46895
G1 X143.274 Y112.283 E2.70207
G1 X143.792 Y112.283 E2.72082
G1 X138.717 Y107.208 E2.98046
G1 X138.717 Y106.717 E2.99821
G1 X138.745 Y106.717 E2.99920
G1 X144.310 Y112.283 E3.28394
G1 X144.828 Y112.283 E3.30269
G1 X139.263 Y106.717 E3.58742
G1 X139.781 Y106.717 E3.60617
G1 X145.346 Y112.283 E3.89091
G1 X145.865 Y112.283 E3.90965
G1 X140.299 Y106.717 E4.19439
G1 X140.818 Y106.717 E4.21314
G1 X146.383 Y112.283 E4.49787
G1 X146.901 Y112.283 E4.51662
G1 X141.336 Y106.717 E4.80136
G1 X141.854 Y106.717 E4.82010
G1 X147.419 Y112.283 E5.10484
G1 X147.937 Y112.283 E5.12359
G1 X142.372 Y106.717 E5.40833
G1 X142.890 Y106.717 E5.42707
G1 X148.455 Y112.283 E5.71181
G1 X148.974 Y112.283 E5.73056
G1 X143.409 Y106.717 E6.01529
G1 X143.927 Y106.717 E6.03404
G1 X149.492 Y112.283 E6.31878
G1 X150.010 Y112.283 E6.33752
G1 X144.445 Y106.717 E6.62226
G1 X144.963 Y106.717 E6.64101
G1 X150.528 Y112.283 E6.92574
G1 X151.046 Y112.283 E6.94449
G1 X145.481 Y106.717 E7.22923
G1 X145.999 Y106.717 E7.24797
G1 X151.564 Y112.283 E7.53271
G1 X152.083 Y112.283 E7.55146
G1 X146.518 Y106.717 E7.83619
G1 X147.036 Y106.717 E7.85494
G1 X152.601 Y112.283 E8.13968
G1 X153.119 Y112.283 E8.15843
G1 X147.554 Y106.717 E8.44316
G1 X148.072 Y106.717 E8.46191
G1 X153.637 Y112.283 E8.74665
G1 X154.155 Y112.283 E8.76539
G1 X148.590 Y106.717 E9.05013
G1 X149.108 Y106.717 E9.06888
G1 X154.674 Y112.283 E9.35361
G1 X155.192 Y112.283 E9.37236
G1 X149.627 Y106.717 E9.65710
G1 X150.145 Y106.717 E9.67584
G1 X155.710 Y112.283 E9.96058
G1 X156.228 Y112.283 E9.97933
G1 X150.663 Y106.717 E10.26406
G1 X151.181 Y106.717 E10.28281
G1 X156.746 Y112.283 E10.56755
G1 X157.264 Y112.283 E10.58630
G1 X151.699 Y106.717 E10.87103
G1 X152.217 Y106.717 E10.88978
G1 X157.783 Y112.283 E11.17452
G1 X158.301 Y112.283 E11.19326
G1 X152.736 Y106.717 E11.47800
G1 X153.254 Y106.717 E11.49675
G1 X158.819 Y112.283 E11.78148
G1 X159.337 Y112.283 E11.80023
G1 X153.772 Y106.717 E12.08497
G1 X154.290 Y106.717 E12.10371
G1 X159.855 Y112.283 E12.38845
G1 X160.373 Y112.283 E12.40720
G1 X154.808 Y106.717 E12.69193
G1 X155.326 Y106.717 E12.71068
G1 X160.892 Y112.283 E12.99542
G1 X161.410 Y112.283 E13.01416
G1 X155.845 Y106.717 E13.29890
G1 X156.363 Y106.717 E13.31765
G1 X161.928 Y112.283 E13.60239
G1 X162.446 Y112.283 E13.62113
G1 X156.881 Y106.717 E13.90587
G1 X157.399 Y106.717 E13.92462
G1 X162.964 Y112.283 E14.20935
G1 X163.482 Y112.283 E14.22810
G1 X157.917 Y106.717 E14.51284
G1 X158.435 Y106.717 E14.53158
G1 X164.001 Y112.283 E14.81632
G1 X164.519 Y112.283 E14.83507
G1 X158.954 Y106.717 E15.11980
G1 X159.472 Y106.717 E15.13855
G1 X165.037 Y112.283 E15.42329
G1 X165.555 Y112.283 E15.44203
G1 X159.990 Y106.717 E15.72677
G1 X160.508 Y106.717 E15.74552
G1 X166.073 Y112.283 E16.03025
G1 X166.591 Y112.283 E16.04900
G1 X161.026 Y106.717 E16.33374
G1 X161.544 Y106.717 E16.35249
G1 X167.110 Y112.283 E16.63722
G1 X167.628 Y112.283 E16.65597
G1 X162.063 Y106.717 E16.94071
G1 X162.581 Y106.717 E16.95945
G1 X168.146 Y112.283 E17.24419
G1 X168.664 Y112.283 E17.26294
G1 X163.099 Y106.717 E17.54767
G1 X163.617 Y106.717 E17.56642
G1 X169.182 Y112.283 E17.85116
G1 X169.700 Y112.283 E17.86990
G1 X164.135 Y106.717 E18.15464
G1 X164.654 Y106.717 E18.17339
G1 X170.219 Y112.283 E18.45812
G1 X170.737 Y112.283 E18.47687
G1 X165.172 Y106.717 E18.76161
G1 X165.690 Y106.717 E18.78036
G1 X171.255 Y112.283 E19.06509
G1 X171.283 Y112.283 E19.06609
G1 X171.283 Y111.792 E19.08384
G1 X166.208 Y106.717 E19.34347
G1 X166.726 Y106.717 E19.36222
G1 X171.283 Y111.274 E19.59535
G1 X171.283 Y110.756 E19.61409
G1 X167.244 Y106.717 E19.82070
G1 X167.763 Y106.717 E19.83945
G1 X171.283 Y110.237 E20.01955
G1 X171.283 Y109.719 E20.03830
G1 X168.281 Y106.717 E20.19189
G1 X168.799 Y106.717 E20.21063
G1 X171.283 Y109.201 E20.33771
G1 X171.283 Y108.683 E20.35646
G1 X169.317 Y106.717 E20.45702
G1 X169.835 Y106.717 E20.47577
G1 X171.283 Y108.165 E20.54982
G1 X171.283 Y107.647 E20.56856
G1 X170.353 Y106.717 E20.61610
G1 X170.872 Y106.717 E20.63485
G1 X171.447 Y107.293 E20.66431
G1 E19.26431 F2100.00000
G92 E0
G1 Z0.550 F9000.000
G1 X171.557 Y98.557
G1 Z0.250
G1 E1.40000 F2100.00000
G1 F1800.000
G1 X138.443 Y98.557 E2.59788
G1 X138.443 Y92.443 E2.81907
G1 X171.557 Y92.443 E4.01695
G1 X171.557 Y98.497 E4.23596
G1 X171.924 Y98.924 F9000.000
G1 F1800.000
G1 X138.076 Y98.924 E5.46035
G1 X138.076 Y92.076 E5.70804
G1 X171.924 Y92.076 E6.93242
G1 X171.924 Y98.864 E7.17794
G1 X172.290 Y99.290 F9000.000
G1 F1800.000
G1 X137.710 Y99.290 E8.42883
G1 X137.710 Y91.710 E8.70303
G1 X172.290 Y91.710 E9.95392
G1 X172.290 Y99.230 E10.22594
G1 X171.891 Y99.261 F9000.000
G1 E8.82594 F2100.00000
G92 E0
G1 Z0.550 F9000.000
G1 X138.553 Y97.707
G1 Z0.250
G1 E1.40000 F2100.00000
G1 F1800.000
G1 X139.128 Y98.283 E1.42946
G1 X139.647 Y98.283 E1.44821
G1 X138.717 Y97.353 E1.49574
G1 X138.717 Y96.835 E1.51449
G1 X140.165 Y98.283 E1.58854
G1 X140.683 Y98.283 E1.60729
G1 X138.717 Y96.317 E1.70785
G1 X138.717 Y95.799 E1.72660
G1 X141.201 Y98.283 E1.85367
G1 X141.719 Y98.283 E1.87242
G1 X138.717 Y95.281 E2.02600
G1 X138.717 Y94.763 E2.04475
G1 X142.237 Y98.283 E2.22485
G1 X142.756 Y98.283 E2.24360
G1 X138.717 Y94.244 E2.45021
G1 X138.717 Y93.726 E2.46895
G1 X143.274 Y98.283 E2.70207
G1 X143.792 Y98.283 E2.72082
G1 X138.717 Y93.208 E2.98046
G1 X138.717 Y92.717 E2.99821
G1 X138.745 Y92.717 E2.99920
G1 X144.310 Y98.283 E3.28394
G1 X144.828 Y98.283 E3.30269
G1 X139.263 Y92.717 E3.58742
G1 X139.781 Y92.717 E3.60617
G1 X145.346 Y98.283 E3.89091
G1 X145.865 Y98.283 E3.90965
G1 X140.299 Y92.717 E4.19439
G1 X140.818 Y92.717 E4.21314
G1 X146.383 Y98.283 E4.49787
G1 X146.901 Y98.283 E4.51662
G1 X141.336 Y92.717 E4.80136
G1 X141.854 Y92.717 E4.82010
G1 X147.419 Y98.283 E5.10484
G1 X147.937 Y98.283 E5.12359
G1 X142.372 Y92.717 E5.40833
G1 X142.890 Y92.717 E5.42707
G1 X148.455 Y98.283 E5.71181
G1 X148.974 Y98.283 E5.73056
G1 X143.409 Y92.717 E6.01529
G1 X143.927 Y92.717 E6.03404
G1 X149.492 Y98.283 E6.31878
G1 X150.010 Y98.283 E6.33752
G1 X144.445 Y92.717 E6.62226
G1 X144.963 Y92.717 E6.64101
G1 X150.528 Y98.283 E6.92574
G1 X151.046 Y98.283 E6.94449
G1 X145.481 Y92.717 E7.22923
G1 X145.999 Y92.717 E7.24797
G1 X151.564 Y98.283 E7.53271
G1 X152.083 Y98.283 E7.55146
G1 X146.518 Y92.717 E7.83619
G1 X147.036 Y92.717 E7.85494
G1 X152.601 Y98.283 E8.13968
G1 X153.119 Y98.283 E8.15843
G1 X147.554 Y92.717 E8.44316
G1 X148.072 Y92.717 E8.46191
G1 X153.637 Y98.283 E8.74665
G1 X154.155 Y98.283 E8.76539
G1 X148.590 Y92.717 E9.05013
G1 X149.108 Y92.717 E9.06888
G1 X154.674 Y98.283 E9.35361
G1 X155.192 Y98.283 E9.37236
