; G-Code generated by Simplify3D(R) Version 4.1.2
; Jun 2, 2020 at 3:58:15 PM
; Settings Summary
;   processName,Process1
;   applyToModels,Santa Juana_Mano Derecha(3),Santa Juana_Mano Izquierda
;   profileName,Marfake (modified)
;   profileVersion,2020-05-30 20:57:22
;   baseProfile,Default
;   printMaterial,PLA
;   printQuality,Medium
;   printExtruders,
;   extruderName,Primary Extruder
;   extruderToolheadNumber,0
;   extruderDiameter,0.4
;   extruderAutoWidth,1
;   extruderWidth,0.48
;   extrusionMultiplier,0.98
;   extruderUseRetract,1
;   extruderRetractionDistance,1
;   extruderExtraRestartDistance,0
;   extruderRetractionZLift,0.4
;   extruderRetractionSpeed,2400
;   extruderUseCoasting,0
;   extruderCoastingDistance,0.3
;   extruderUseWipe,0
;   extruderWipeDistance,1.2
;   primaryExtruder,0
;   layerHeight,0.2
;   topSolidLayers,3
;   bottomSolidLayers,3
;   perimeterOutlines,3
;   printPerimetersInsideOut,1
;   startPointOption,3
;   startPointOriginX,0
;   startPointOriginY,0
;   sequentialIslands,0
;   spiralVaseMode,0
;   firstLayerHeightPercentage,125
;   firstLayerWidthPercentage,95
;   firstLayerUnderspeed,0.5
;   useRaft,0
;   raftExtruder,0
;   raftTopLayers,1
;   raftBaseLayers,1
;   raftOffset,3
;   raftSeparationDistance,0.14
;   raftTopInfill,100
;   aboveRaftSpeedMultiplier,0.3
;   useSkirt,1
;   skirtExtruder,0
;   skirtLayers,1
;   skirtOutlines,1
;   skirtOffset,3
;   usePrimePillar,0
;   primePillarExtruder,999
;   primePillarWidth,12
;   primePillarLocation,7
;   primePillarSpeedMultiplier,1
;   useOozeShield,0
;   oozeShieldExtruder,999
;   oozeShieldOffset,2
;   oozeShieldOutlines,1
;   oozeShieldSidewallShape,1
;   oozeShieldSidewallAngle,30
;   oozeShieldSpeedMultiplier,1
;   infillExtruder,0
;   internalInfillPattern,Rectilinear
;   externalInfillPattern,Rectilinear
;   infillPercentage,30
;   outlineOverlapPercentage,25
;   infillExtrusionWidthPercentage,100
;   minInfillLength,2
;   infillLayerInterval,1
;   internalInfillAngles,45,-45
;   overlapInternalInfillAngles,0
;   externalInfillAngles,45,-45
;   generateSupport,1
;   supportExtruder,0
;   supportInfillPercentage,45
;   supportExtraInflation,0
;   supportBaseLayers,0
;   denseSupportExtruder,0
;   denseSupportLayers,0
;   denseSupportInfillPercentage,70
;   supportLayerInterval,1
;   supportHorizontalPartOffset,0.3
;   supportUpperSeparationLayers,1
;   supportLowerSeparationLayers,1
;   supportType,0
;   supportGridSpacing,4
;   maxOverhangAngle,89
;   supportAngles,0
;   temperatureName,Primary Extruder,Heated Bed
;   temperatureNumber,0,1
;   temperatureSetpointCount,1,1
;   temperatureSetpointLayers,1,1
;   temperatureSetpointTemperatures,205,50
;   temperatureStabilizeAtStartup,1,1
;   temperatureHeatedBed,0,1
;   fanLayers,1,2
;   fanSpeeds,0,100
;   blipFanToFullPower,0
;   adjustSpeedForCooling,1
;   minSpeedLayerTime,15
;   minCoolingSpeedSlowdown,15
;   increaseFanForCooling,0
;   minFanLayerTime,45
;   maxCoolingFanSpeed,100
;   increaseFanForBridging,0
;   bridgingFanSpeed,100
;   use5D,1
;   relativeEdistances,0
;   allowEaxisZeroing,1
;   independentExtruderAxes,0
;   includeM10123,0
;   stickySupport,1
;   applyToolheadOffsets,0
;   gcodeXoffset,0
;   gcodeYoffset,0
;   gcodeZoffset,0
;   overrideMachineDefinition,1
;   machineTypeOverride,0
;   strokeXoverride,300
;   strokeYoverride,200
;   strokeZoverride,320
;   originOffsetXoverride,0
;   originOffsetYoverride,0
;   originOffsetZoverride,0
;   homeXdirOverride,-1
;   homeYdirOverride,-1
;   homeZdirOverride,-1
;   flipXoverride,1
;   flipYoverride,-1
;   flipZoverride,1
;   toolheadOffsets,0,0|0,0|0,0|0,0|0,0|0,0
;   overrideFirmwareConfiguration,0
;   firmwareTypeOverride,RepRap (Marlin/Repetier/Sprinter)
;   GPXconfigOverride,r2
;   baudRateOverride,115200
;   overridePrinterModels,0
;   printerModelsOverride
;   startingGcode,G28 ; home all axes,G1 Z30 F3000,M190 S[bed1_temperature],M109 S[extruder0_temperature],G29 S1,G92 E0,G1 X0 Y0 Z0.2 F3000 ; go outside printing area,G1 X60.0 E9.0  F1000.0 ; intro line,G1 X100.0 E12.5  F1000.0 ; intro line,G92 E0
;   layerChangeGcode,
;   retractionGcode,
;   toolChangeGcode,
;   endingGcode,G28 X0,G90 ; Posicion Absoluta,M104 S0 ; turn off extruder,M140 S0 ; turn off bed,M84 ; disable motors,M107 ; turn off fan,
;   exportFileFormat,gcode
;   celebration,0
;   celebrationSong,Star Wars
;   postProcessing,
;   defaultSpeed,3600
;   outlineUnderspeed,0.45
;   solidInfillUnderspeed,0.6
;   supportUnderspeed,0.65
;   rapidXYspeed,12000
;   rapidZspeed,600
;   minBridgingArea,50
;   bridgingExtraInflation,1
;   bridgingExtrusionMultiplier,1
;   bridgingSpeedMultiplier,1
;   useFixedBridgingAngle,0
;   fixedBridgingAngle,0
;   applyBridgingToPerimeters,0
;   filamentDiameters,1.75|1.75|1.75|1.75|1.75|1.75
;   filamentPricesPerKg,16|16|16|16|16|16
;   filamentDensities,1.25|1.25|1.25|1.25|1.25|1.25
;   useMinPrintHeight,0
;   minPrintHeight,0
;   useMaxPrintHeight,0
;   maxPrintHeight,50
;   useDiaphragm,0
;   diaphragmLayerInterval,20
;   robustSlicing,1
;   mergeAllIntoSolid,0
;   onlyRetractWhenCrossingOutline,1
;   retractBetweenLayers,1
;   useRetractionMinTravel,1
;   retractionMinTravel,3
;   retractWhileWiping,1
;   onlyWipeOutlines,1
;   avoidCrossingOutline,1
;   maxMovementDetourFactor,5
;   toolChangeRetractionDistance,12
;   toolChangeExtraRestartDistance,-0.5
;   toolChangeRetractionSpeed,600
;   externalThinWallType,0
;   internalThinWallType,1
;   thinWallAllowedOverlapPercentage,10
;   singleExtrusionMinLength,1
;   singleExtrusionMinPrintingWidthPercentage,50
;   singleExtrusionMaxPrintingWidthPercentage,200
;   singleExtrusionEndpointExtension,0.2
;   horizontalSizeCompensation,0
G90
M82
M106 S0
G28 ; home all axes
G1 Z30 F3000
M190 S50
M109 S205
G29 S1
G92 E0
G1 X0 Y0 Z0.2 F3000 ; go outside printing area
G1 X60.0 E9.0  F1000.0 ; intro line
G1 X100.0 E12.5  F1000.0 ; intro line
G92 E0
; process Process1
; layer 1, Z = 0.250
T0
G92 E0.0000
G1 E-1.0000 F2400
; feature skirt
; tool H0.250 W0.456
G1 Z0.400 F600
G1 X116.500 Y77.342 F12000
G1 Z0.250 F600
G1 E0.0000 F2400
G92 E0.0000
G1 X117.068 Y76.586 E0.0440 F1800
G1 X117.353 Y76.292 E0.0630
G1 X117.951 Y75.815 E0.0985
G1 X118.198 Y75.652 E0.1122
G1 X118.748 Y75.359 E0.1412
G1 X118.962 Y75.264 E0.1520
G1 X119.505 Y75.068 E0.1788
G1 X119.697 Y75.012 E0.1881
G1 X120.258 Y74.886 E0.2148
G1 X120.406 Y74.860 E0.2218
G1 X120.957 Y74.788 E0.2476
G1 X121.131 Y74.775 E0.2557
G1 X121.739 Y74.763 E0.2840
G1 X121.957 Y74.773 E0.2941
G1 X122.644 Y74.852 E0.3262
G1 X122.828 Y74.884 E0.3349
G1 X123.450 Y75.030 E0.3646
G1 X123.694 Y75.108 E0.3765
G1 X124.603 Y75.480 E0.4221
G1 X124.864 Y75.616 E0.4358
G1 X125.412 Y75.967 E0.4660
G1 X125.565 Y76.078 E0.4748
G1 X125.611 Y76.117 E0.4776
G1 X129.046 Y76.112 E0.6371
G1 X130.543 Y77.607 E0.7354
G1 X134.510 Y77.607 E0.9196
G1 X136.401 Y79.498 E1.0438
G1 X136.401 Y80.114 E1.0725
G1 X137.049 Y80.114 E1.1026
G1 X138.608 Y81.672 E1.2050
G1 X139.037 Y81.672 E1.2249
G1 X140.928 Y83.563 E1.3491
G1 X140.928 Y90.677 E1.6795
G1 X139.037 Y92.568 E1.8037
G1 X138.940 Y92.568 E1.8082
G1 X138.940 Y93.119 E1.8338
G1 X138.743 Y93.316 E1.8467
G1 X138.743 Y98.473 E2.0863
G1 X136.852 Y100.364 E2.2105
G1 X135.338 Y100.364 E2.2808
G1 X135.263 Y100.438 E2.2857
G1 X128.149 Y100.438 E2.6162
G1 X126.721 Y99.010 E2.7100
G1 X121.935 Y99.010 E2.9323
G1 X120.067 Y97.142 E3.0549
G1 X119.783 Y97.142 E3.0682
G1 X117.892 Y95.251 E3.1924
G1 X117.892 Y94.967 E3.2056
G1 X116.044 Y93.119 E3.3270
G1 X116.044 Y86.005 E3.6574
G1 X116.126 Y85.923 E3.6628
G1 X116.096 Y85.833 E3.6672
G1 X115.871 Y85.084 E3.7035
G1 X115.822 Y84.860 E3.7141
G1 X115.657 Y83.767 E3.7655
G1 X115.644 Y83.651 E3.7709
G1 X115.577 Y82.777 E3.8116
G1 X115.572 Y82.654 E3.8174
G1 X115.572 Y81.249 E3.8826
G1 X115.590 Y81.011 E3.8937
G1 X115.906 Y78.889 E3.9933
G1 X115.980 Y78.589 E4.0077
G1 X116.267 Y77.777 E4.0477
G1 X116.500 Y77.342 E4.0706
G92 E0.0000
G1 E-1.0000 F2400
G1 Z0.650 F600
G1 X119.430 Y79.192 F12000
G1 X119.365 Y79.333
G1 X119.299 Y79.566
G1 X119.119 Y80.773
G1 X120.500 Y82.582
G1 X120.474 Y82.647
G1 X120.445 Y82.983
G1 X120.482 Y83.218
G1 X120.562 Y83.436
G1 X120.683 Y83.635
G1 X120.841 Y83.806
G1 X121.029 Y83.943
G1 X121.240 Y84.040
G1 X121.466 Y84.094
G1 X121.661 Y84.102
G1 X124.126 Y87.332
G1 X124.098 Y87.416
G1 X123.934 Y87.786
G1 X123.768 Y88.047
G1 X123.600 Y88.223
G1 X139.433 Y107.382
G1 Z0.250 F600
G1 E0.0000 F2400
G92 E0.0000
G1 X141.324 Y105.491 E0.1242 F1800
G1 X141.941 Y105.491 E0.1529
G1 X141.941 Y104.378 E0.2045
G1 X143.832 Y102.488 E0.3287
G1 X150.946 Y102.488 E0.6592
G1 X152.335 Y103.876 E0.7504
G1 X152.613 Y103.434 E0.7747
G1 X152.674 Y103.344 E0.7797
G1 X153.313 Y102.464 E0.8302
G1 X153.527 Y102.224 E0.8452
G1 X154.117 Y101.682 E0.8824
G1 X154.460 Y101.440 E0.9019
G1 X155.232 Y101.034 E0.9424
G1 X155.753 Y100.865 E0.9679
G1 X156.613 Y100.739 E1.0082
G1 X157.133 Y100.747 E1.0324
G1 X157.802 Y100.867 E1.0640
G1 X157.987 Y100.911 E1.0728
G1 X158.593 Y101.095 E1.1022
G1 X158.891 Y101.218 E1.1172
G1 X159.471 Y101.531 E1.1478
G1 X159.733 Y101.707 E1.1624
G1 X160.294 Y102.168 E1.1962
G1 X160.542 Y102.424 E1.2127
G1 X160.964 Y102.965 E1.2446
G1 X161.103 Y103.177 E1.2564
G1 X161.478 Y103.855 E1.2924
G1 X161.569 Y104.051 E1.3024
G1 X161.782 Y104.597 E1.3296
G1 X161.834 Y104.757 E1.3374
G1 X162.065 Y105.602 E1.3781
G1 X162.091 Y105.712 E1.3833
G1 X162.238 Y106.450 E1.4183
G1 X162.253 Y106.538 E1.4225
G1 X162.391 Y107.507 E1.4679
G1 X162.403 Y107.614 E1.4729
G1 X162.544 Y109.490 E1.5603
G1 X162.547 Y109.681 E1.5692
G1 X162.482 Y111.182 E1.6389
G1 X162.465 Y111.355 E1.6470
G1 X162.333 Y112.223 E1.6878
G1 X162.305 Y112.363 E1.6944
G1 X162.146 Y113.015 E1.7256
G1 X162.109 Y113.144 E1.7319
G1 X161.844 Y113.936 E1.7706
G1 X161.784 Y114.090 E1.7783
G1 X161.544 Y114.621 E1.8054
G1 X161.433 Y114.825 E1.8162
G1 X161.053 Y115.420 E1.8490
G1 X160.916 Y115.604 E1.8596
G1 X160.363 Y116.246 E1.8990
G1 X160.264 Y116.351 E1.9057
G1 X159.607 Y116.989 E1.9482
G1 X159.494 Y117.088 E1.9552
G1 X158.858 Y117.600 E1.9931
G1 X158.694 Y117.716 E2.0024
G1 X158.078 Y118.096 E2.0361
G1 X157.924 Y118.180 E2.0442
G1 X157.779 Y118.249 E2.0517
G1 X157.779 Y121.085 E2.1834
G1 X155.888 Y122.976 E2.3076
G1 X148.774 Y122.976 E2.6380
G1 X148.331 Y122.533 E2.6671
G1 X147.888 Y122.976 E2.6962
G1 X140.774 Y122.976 E3.0267
G1 X138.883 Y121.085 E3.1509
G1 X138.883 Y118.282 E3.2811
G1 X137.702 Y117.101 E3.3587
G1 X137.702 Y109.987 E3.6891
G1 X139.433 Y108.255 E3.8028
G1 X139.433 Y107.382 E3.8434
G92 E0.0000
G1 E-1.0000 F2400
; feature inner perimeter
G1 Z0.650 F600
G1 X123.600 Y88.223 F12000
G1 X123.768 Y88.047
G1 X123.934 Y87.786
G1 X124.098 Y87.416
G1 X124.264 Y86.928
G1 X124.427 Y86.335
G1 X124.546 Y85.803
G1 X122.769 Y83.227
G1 X122.804 Y83.083
G1 X122.813 Y82.851
G1 X122.777 Y82.622
G1 X122.697 Y82.403
G1 X122.576 Y82.205
G1 X122.418 Y82.034
G1 X122.231 Y81.898
G1 X122.020 Y81.800
G1 X121.794 Y81.745
G1 X121.746 Y81.743
G1 X120.258 Y79.587
G1 Z0.250 F600
G1 E0.0000 F2400
G92 E0.0000
G1 X120.323 Y79.510 E0.0047 F1305
G1 X120.478 Y79.387 E0.0139
G1 X120.629 Y79.306 E0.0218
G1 X120.825 Y79.236 E0.0315
G1 X121.094 Y79.175 E0.0443
G1 X121.370 Y79.139 E0.0572
G1 X121.642 Y79.134 E0.0699
G1 X121.985 Y79.173 E0.0859
G1 X122.266 Y79.239 E0.0993
G1 X122.549 Y79.341 E0.1133
G1 X122.683 Y79.406 E0.1202
G1 X122.918 Y79.557 E0.1332
G1 X123.143 Y79.741 E0.1467
G1 X123.362 Y79.960 E0.1611
G1 X123.556 Y80.198 E0.1753
G1 X123.637 Y80.321 E0.1822
G1 X123.750 Y80.550 E0.1940
G1 X123.853 Y80.844 E0.2085
G1 X123.979 Y81.339 E0.2322
G1 X124.046 Y81.743 E0.2512
G1 X124.063 Y82.022 E0.2642
G1 X124.055 Y82.482 E0.2856
G1 X123.719 Y82.539 E0.3014
G1 X123.522 Y82.004 E0.3279
G1 X123.307 Y81.653 E0.3470
G1 X123.028 Y81.350 E0.3662
G1 X122.695 Y81.108 E0.3853
G1 X122.321 Y80.935 E0.4044
G1 X121.921 Y80.838 E0.4235
G1 X121.509 Y80.821 E0.4427
G1 X121.102 Y80.885 E0.4618
G1 X120.715 Y81.027 E0.4810
G1 X120.363 Y81.242 E0.5001
G1 X120.230 Y81.365 E0.5085
G1 X119.973 Y81.229 E0.5220
G1 X120.193 Y79.758 E0.5911
G1 X120.226 Y79.638 E0.5969
G1 X120.258 Y79.587 E0.5997
G1 X120.298 Y84.609 F12000
G92 E0.0000
G1 X120.940 Y84.906 E0.0328 F1305
G1 X121.340 Y85.002 E0.0520
G1 X121.752 Y85.019 E0.0711
G1 X122.159 Y84.954 E0.0903
G1 X122.546 Y84.812 E0.1094
G1 X122.897 Y84.597 E0.1285
G1 X123.200 Y84.317 E0.1477
G1 X123.443 Y83.984 E0.1668
G1 X123.547 Y83.759 E0.1784
G1 X123.886 Y83.858 E0.1948
G1 X123.837 Y84.216 E0.2116
G1 X123.754 Y85.050 E0.2505
G1 X123.668 Y85.552 E0.2741
G1 X123.542 Y86.115 E0.3009
G1 X123.392 Y86.660 E0.3272
G1 X123.248 Y87.084 E0.3480
G1 X123.061 Y87.505 E0.3694
G1 X122.461 Y87.316 E0.3986
G1 X122.070 Y87.173 E0.4179
G1 X121.792 Y87.041 E0.4322
G1 X121.577 Y86.909 E0.4439
G1 X121.221 Y86.623 E0.4651
G1 X121.125 Y86.516 E0.4719
G1 X120.991 Y86.274 E0.4847
G1 X120.569 Y85.332 E0.5327
G1 X120.298 Y84.609 E0.5685
G1 X119.818 Y84.629 F12000
G92 E0.0000
G1 X119.684 Y84.212 E0.0204 F1305
G1 X119.670 Y84.147 E0.0235
G1 X119.538 Y83.268 E0.0647
G1 X119.484 Y82.555 E0.0979
G1 X119.471 Y82.123 E0.1180
G1 X119.483 Y81.425 E0.1505
G1 X119.746 Y79.662 E0.2333
G1 X119.794 Y79.492 E0.2414
G1 X119.832 Y79.408 E0.2457
G1 X119.888 Y79.318 E0.2507
G1 X120.005 Y79.181 E0.2590
G1 X120.226 Y79.004 E0.2722
G1 X120.444 Y78.888 E0.2836
G1 X120.697 Y78.797 E0.2961
G1 X121.014 Y78.726 E0.3112
G1 X121.336 Y78.684 E0.3263
G1 X121.664 Y78.677 E0.3415
G1 X122.064 Y78.723 E0.3602
G1 X122.395 Y78.801 E0.3760
G1 X122.727 Y78.920 E0.3924
G1 X122.908 Y79.009 E0.4018
G1 X123.186 Y79.187 E0.4171
G1 X123.449 Y79.403 E0.4329
G1 X123.700 Y79.654 E0.4494
G1 X123.924 Y79.928 E0.4659
G1 X124.033 Y80.094 E0.4751
G1 X124.171 Y80.373 E0.4895
G1 X124.290 Y80.713 E0.5062
G1 X124.425 Y81.245 E0.5318
G1 X124.499 Y81.692 E0.5528
G1 X124.519 Y82.012 E0.5677
G1 X124.513 Y82.349 E0.5834
G1 X124.469 Y82.965 E0.6120
G1 X124.290 Y84.270 E0.6732
G1 X124.206 Y85.112 E0.7125
G1 X124.115 Y85.640 E0.7374
G1 X123.984 Y86.225 E0.7652
G1 X123.828 Y86.794 E0.7927
G1 X123.673 Y87.250 E0.8150
G1 X123.531 Y87.570 E0.8313
G1 X123.407 Y87.765 E0.8420
G1 X123.309 Y87.868 E0.8486
G1 X123.229 Y87.918 E0.8530
G1 X123.134 Y87.949 E0.8577
G1 X122.996 Y87.945 E0.8640
G1 X122.849 Y87.916 E0.8710
G1 X122.314 Y87.748 E0.8971
G1 X121.894 Y87.593 E0.9179
G1 X121.575 Y87.442 E0.9343
G1 X121.314 Y87.283 E0.9485
G1 X120.907 Y86.955 E0.9727
G1 X120.751 Y86.781 E0.9836
G1 X120.583 Y86.478 E0.9997
G1 X120.147 Y85.505 E1.0492
G1 X119.818 Y84.629 E1.0926
; feature outer perimeter
G1 X119.388 Y84.779 F12000
G92 E0.0000
G1 X119.243 Y84.329 E0.0220 F810
G1 X119.221 Y84.227 E0.0268
G1 X119.085 Y83.320 E0.0694
G1 X119.028 Y82.579 E0.1039
G1 X119.015 Y82.126 E0.1250
G1 X119.028 Y81.387 E0.1593
G1 X119.299 Y79.566 E0.2448
G1 X119.365 Y79.333 E0.2561
G1 X119.430 Y79.192 E0.2633
G1 X119.519 Y79.049 E0.2711
G1 X119.686 Y78.852 E0.2831
G1 X119.974 Y78.622 E0.3003
G1 X120.258 Y78.470 E0.3152
G1 X120.569 Y78.359 E0.3305
G1 X120.935 Y78.276 E0.3479
G1 X121.302 Y78.229 E0.3651
G1 X121.685 Y78.221 E0.3830
G1 X122.142 Y78.273 E0.4043
G1 X122.525 Y78.363 E0.4226
G1 X122.905 Y78.499 E0.4414
G1 X123.132 Y78.611 E0.4531
G1 X123.455 Y78.818 E0.4709
G1 X123.755 Y79.065 E0.4890
G1 X124.039 Y79.347 E0.5076
G1 X124.292 Y79.658 E0.5262
G1 X124.429 Y79.867 E0.5378
G1 X124.592 Y80.196 E0.5548
G1 X124.727 Y80.581 E0.5738
G1 X124.872 Y81.152 E0.6011
G1 X124.953 Y81.640 E0.6241
G1 X124.975 Y82.001 E0.6409
G1 X124.969 Y82.370 E0.6580
G1 X124.922 Y83.012 E0.6880
G1 X124.743 Y84.323 E0.7494
G1 X124.658 Y85.173 E0.7891
G1 X124.563 Y85.729 E0.8153
G1 X124.427 Y86.335 E0.8441
G1 X124.264 Y86.928 E0.8727
G1 X124.098 Y87.416 E0.8967
G1 X123.934 Y87.786 E0.9154
G1 X123.768 Y88.047 E0.9298
G1 X123.600 Y88.223 E0.9411
G1 X123.425 Y88.334 E0.9508
G1 X123.235 Y88.396 E0.9600
G1 X123.152 Y88.406 E0.9639
G1 X122.945 Y88.399 E0.9735
G1 X122.737 Y88.359 E0.9833
G1 X122.167 Y88.180 E1.0111
G1 X121.717 Y88.014 E1.0334
G1 X121.357 Y87.844 E1.0519
G1 X121.051 Y87.656 E1.0686
G1 X120.592 Y87.288 E1.0959
G1 X120.377 Y87.047 E1.1109
