; generated by PrusaSlicer 2.2.0+win64 on 2020-05-30 at 19:02:04 UTC

; 

; external perimeters extrusion width = 0.45mm
; perimeters extrusion width = 0.45mm
; infill extrusion width = 0.45mm
; solid infill extrusion width = 0.45mm
; top infill extrusion width = 0.40mm
; first layer extrusion width = 0.42mm

M107
G28 ; home all axes
G1 Z30 F5000 ; lift nozzle
M106 S255
M104 S215 ; set extruder temp
M140 S50 ; set bed temp
M109 S215 ; wait extruder temp
M190 S50 ; set bed temp wait
G29 S1
G92 E0
M106 S0 ; (Apaga Ventilador de capa ]
G1 X0 Y0 Z0.2 F3000 ; go outside printing area
G1 X60.0 E9.0  F1000.0 ; intro line
G1 X100.0 E12.5  F1000.0 ; intro line
G92 E0

G21 ; set units to millimeters
G90 ; use absolute coordinates
M82 ; use absolute distances for extrusion
G92 E0
; Filament gcode
G1 Z0.250 F9000.000
G1 E-0.90000 F2400.00000
G92 E0
G1 Z0.650 F9000.000
G1 X98.823 Y58.563
G1 Z0.250
G1 E0.90000 F2400.00000
G1 F1800.000
G1 X100.976 Y57.548 E0.98613
G1 X103.252 Y56.906 E1.07164
G1 X105.596 Y56.646 E1.15697
G1 X204.006 Y56.640 E4.71682
G1 X205.275 Y56.697 E4.76278
G1 X206.596 Y56.877 E4.81099
G1 X207.836 Y57.162 E4.85702
G1 X209.042 Y57.555 E4.90291
G1 X210.269 Y58.081 E4.95119
G1 X211.381 Y58.682 E4.99692
G1 X212.447 Y59.388 E5.04317
G1 X213.488 Y60.221 E5.09142
G1 X214.399 Y61.097 E5.13712
G1 X215.243 Y62.067 E5.18363
G1 X216.014 Y63.134 E5.23124
G1 X216.670 Y64.241 E5.27780
G1 X217.215 Y65.381 E5.32350
G1 X217.658 Y66.566 E5.36926
G1 X218.011 Y67.854 E5.41760
G1 X218.234 Y69.099 E5.46333
G1 X218.360 Y70.979 E5.53149
G1 X218.427 Y143.851 E8.16754
G1 X218.265 Y145.074 E8.21217
G1 X217.845 Y146.234 E8.25681
G1 X217.187 Y147.278 E8.30144
G1 X216.320 Y148.156 E8.34608
G1 X215.525 Y148.700 E8.38091
G1 X214.651 Y149.103 E8.41575
G1 X213.715 Y149.355 E8.45080
G1 X212.756 Y149.446 E8.48564
G1 X97.268 Y149.447 E12.66327
G1 X96.014 Y149.300 E12.70896
G1 X94.827 Y148.884 E12.75445
G1 X93.759 Y148.220 E12.79993
G1 X92.862 Y147.338 E12.84542
G1 X92.321 Y146.549 E12.88004
G1 X91.919 Y145.680 E12.91467
G1 X91.667 Y144.757 E12.94929
G1 X91.572 Y143.805 E12.98391
G1 X91.655 Y70.349 E15.64107
G1 X91.800 Y68.859 E15.69524
G1 X92.100 Y67.393 E15.74937
G1 X92.552 Y65.965 E15.80352
G1 X93.146 Y64.599 E15.85743
G1 X93.892 Y63.280 E15.91224
G1 X94.756 Y62.068 E15.96610
G1 X95.764 Y60.929 E16.02112
G1 X96.892 Y59.898 E16.07639
G1 X98.773 Y58.597 E16.15913
G1 X98.983 Y58.904 F9000.000
G1 F1800.000
G1 X99.088 Y58.833 E16.16370
G1 X101.122 Y57.885 E16.24488
G1 X103.328 Y57.264 E16.32780
G1 X105.613 Y57.012 E16.41095
G1 X204.006 Y57.007 E19.97019
G1 X205.242 Y57.062 E20.01494
G1 X206.530 Y57.237 E20.06199
G1 X207.739 Y57.515 E20.10684
G1 X208.914 Y57.898 E20.15156
G1 X210.110 Y58.411 E20.19862
G1 X211.193 Y58.997 E20.24317
G1 X212.232 Y59.684 E20.28824
G1 X213.251 Y60.501 E20.33548
G1 X214.134 Y61.350 E20.37979
G1 X214.957 Y62.296 E20.42512
G1 X215.708 Y63.335 E20.47151
G1 X216.347 Y64.415 E20.51690
G1 X216.878 Y65.525 E20.56143
G1 X217.312 Y66.686 E20.60624
G1 X217.655 Y67.941 E20.65333
G1 X217.872 Y69.160 E20.69810
G1 X217.994 Y70.980 E20.76410
G1 X218.061 Y143.835 E23.39953
G1 X217.910 Y144.985 E23.44148
G1 X217.515 Y146.075 E23.48342
G1 X216.895 Y147.055 E23.52537
G1 X216.080 Y147.879 E23.56731
G1 X215.333 Y148.388 E23.59998
G1 X214.518 Y148.762 E23.63245
G1 X213.651 Y148.995 E23.66491
G1 X212.752 Y149.080 E23.69758
G1 X97.270 Y149.080 E27.87500
G1 X96.101 Y148.944 E27.91756
G1 X94.985 Y148.553 E27.96033
G1 X93.982 Y147.928 E28.00310
G1 X93.139 Y147.098 E28.04587
G1 X92.636 Y146.362 E28.07812
G1 X92.260 Y145.547 E28.11059
G1 X92.026 Y144.687 E28.14285
G1 X91.938 Y143.793 E28.17531
G1 X92.021 Y70.365 E30.83149
G1 X92.163 Y68.913 E30.88427
G1 X92.461 Y67.461 E30.93788
G1 X92.905 Y66.066 E30.99086
G1 X93.526 Y64.657 E31.04654
G1 X94.252 Y63.397 E31.09914
G1 X95.117 Y62.204 E31.15244
G1 X96.097 Y61.113 E31.20549
G1 X97.191 Y60.127 E31.25877
G1 X98.934 Y58.938 E31.33508
G1 E30.43508 F2400.00000
G92 E0
G1 Z0.650 F9000.000
G1 X206.459 Y115.124
G1 Z0.250
G1 E0.90000 F2400.00000
G1 F1800.000
G1 X204.538 Y115.124 E0.96949
G1 X204.565 Y114.850 E0.97947
G1 X204.627 Y114.641 E0.98733
G1 X204.710 Y114.496 E0.99338
G1 X204.837 Y114.367 E0.99992
G1 X204.992 Y114.276 E1.00643
G1 X205.184 Y114.223 E1.01364
G1 X205.506 Y114.192 E1.02536
G1 X205.815 Y114.221 E1.03658
G1 X206.007 Y114.277 E1.04381
G1 X206.164 Y114.370 E1.05042
G1 X206.283 Y114.493 E1.05660
G1 X206.372 Y114.647 E1.06304
G1 X206.430 Y114.837 E1.07022
G1 X206.453 Y115.065 E1.07850
G1 X206.841 Y115.491 F9000.000
G1 F1800.000
G1 X204.160 Y115.491 E1.17548
G1 X204.160 Y115.232 E1.18482
G1 X204.203 Y114.779 E1.20129
G1 X204.288 Y114.496 E1.21197
G1 X204.415 Y114.273 E1.22128
G1 X204.609 Y114.076 E1.23128
G1 X204.847 Y113.936 E1.24126
G1 X205.117 Y113.861 E1.25137
G1 X205.506 Y113.824 E1.26553
G1 X205.884 Y113.860 E1.27927
G1 X206.153 Y113.938 E1.28940
G1 X206.393 Y114.079 E1.29947
G1 X206.578 Y114.271 E1.30909
G1 X206.710 Y114.500 E1.31868
G1 X206.790 Y114.764 E1.32865
G1 X206.841 Y115.249 E1.34627
G1 X206.841 Y115.431 E1.35285
G1 X206.490 Y115.299 F9000.000
G1 X206.208 Y114.738
G1 F1800.000
G1 X205.729 Y114.670 E1.37880
G1 X205.267 Y114.671 E1.40354
G1 X204.790 Y114.736 E1.42928
G1 E0.52928 F2400.00000
G92 E0
G1 Z0.650 F9000.000
G1 X206.522 Y100.770
G1 Z0.250
G1 E0.90000 F2400.00000
G1 F1800.000
G1 X206.132 Y100.819 E0.91422
G1 X205.746 Y100.770 E0.92828
G1 X205.620 Y100.696 E0.93357
G1 X205.600 Y100.576 E0.93796
G1 X205.713 Y100.514 E0.94261
G1 X205.853 Y100.479 E0.94786
G1 X206.144 Y100.456 E0.95842
G1 X206.389 Y100.475 E0.96729
G1 X206.534 Y100.506 E0.97265
G1 X206.638 Y100.554 E0.97679
G1 X206.668 Y100.710 E0.98255
G1 X206.578 Y100.747 E0.98609
G1 X206.962 Y100.895 F9000.000
G1 F1800.000
G1 X206.893 Y100.979 E0.99003
G1 X206.776 Y101.062 E0.99522
G1 X206.630 Y101.122 E1.00092
G1 X206.434 Y101.163 E1.00818
G1 X206.133 Y101.186 E1.01911
G1 X205.854 Y101.165 E1.02921
G1 X205.638 Y101.122 E1.03717
G1 X205.482 Y101.056 E1.04331
G1 X205.326 Y100.928 E1.05060
G1 X205.294 Y100.878 E1.05276
G1 X205.238 Y100.634 E1.06182
G1 X205.265 Y100.472 E1.06777
G1 X205.300 Y100.382 E1.07127
G1 X205.404 Y100.266 E1.07691
G1 X205.577 Y100.171 E1.08405
G1 X205.794 Y100.116 E1.09213
G1 X206.144 Y100.089 E1.10483
G1 X206.442 Y100.112 E1.11562
G1 X206.650 Y100.157 E1.12332
G1 X206.813 Y100.231 E1.12980
G1 X206.923 Y100.323 E1.13500
G1 X206.988 Y100.432 E1.13960
G1 X207.027 Y100.637 E1.14714
G1 X206.984 Y100.839 E1.15460
G1 X206.853 Y100.900 F9000.000
G1 E0.25460 F2400.00000
G92 E0
G1 Z0.650 F9000.000
G1 X206.851 Y96.560
G1 Z0.250
G1 E0.90000 F2400.00000
G1 F1800.000
G1 X206.771 Y96.546 E0.90297
G1 X206.696 Y96.504 E0.90608
G1 X206.626 Y96.403 E0.91053
G1 X206.592 Y96.301 E0.91439
G1 X206.572 Y96.155 E0.91974
G1 X206.567 Y95.613 E0.93933
G1 X206.742 Y95.649 E0.94580
G1 X206.894 Y95.712 E0.95176
G1 X207.013 Y95.807 E0.95726
G1 X207.095 Y95.931 E0.96262
G1 X207.155 Y96.198 E0.97254
G1 X207.137 Y96.349 E0.97805
G1 X207.097 Y96.440 E0.98164
G1 X207.005 Y96.506 E0.98576
G1 X206.908 Y96.540 E0.98946
G1 X206.808 Y96.491 F9000.000
G1 E0.08946 F2400.00000
G92 E0
G1 Z0.650 F9000.000
G1 X206.851 Y87.067
G1 Z0.250
G1 E0.90000 F2400.00000
G1 F1800.000
G1 X206.771 Y87.053 E0.90297
G1 X206.696 Y87.010 E0.90608
G1 X206.626 Y86.909 E0.91053
G1 X206.592 Y86.808 E0.91439
G1 X206.572 Y86.661 E0.91974
G1 X206.567 Y86.120 E0.93933
G1 X206.742 Y86.156 E0.94580
G1 X206.894 Y86.219 E0.95176
G1 X207.013 Y86.314 E0.95726
G1 X207.095 Y86.437 E0.96262
G1 X207.155 Y86.704 E0.97254
G1 X207.137 Y86.856 E0.97805
G1 X207.097 Y86.947 E0.98164
G1 X207.005 Y87.013 E0.98576
G1 X206.908 Y87.047 E0.98946
G1 X206.808 Y86.997 F9000.000
G1 E0.08946 F2400.00000
G92 E0
G1 Z0.650 F9000.000
G1 X206.635 Y75.053
G1 Z0.250
G1 E0.90000 F2400.00000
G1 F1800.000
G1 X206.656 Y75.169 E0.90428
G1 X206.642 Y75.269 E0.90793
G1 X206.428 Y75.347 E0.91617
G1 X206.125 Y75.376 E0.92719
G1 X205.991 Y75.367 E0.93206
G1 X205.789 Y75.336 E0.93945
G1 X205.632 Y75.281 E0.94545
G1 X205.609 Y75.150 E0.95026
G1 X205.621 Y75.070 E0.95321
G1 X205.711 Y75.015 E0.95701
G1 X205.856 Y74.975 E0.96245
G1 X206.144 Y74.951 E0.97292
G1 X206.398 Y74.972 E0.98213
G1 X206.581 Y75.027 E0.98904
G1 X206.915 Y74.819 F9000.000
G1 F1800.000
G1 X206.988 Y74.945 E0.99429
G1 X207.028 Y75.162 E1.00227
G1 X207.005 Y75.321 E1.00808
G1 X206.971 Y75.421 E1.01192
G1 X206.906 Y75.514 E1.01601
G1 X206.800 Y75.599 E1.02091
G1 X206.669 Y75.663 E1.02621
G1 X206.492 Y75.709 E1.03283
G1 X206.130 Y75.743 E1.04597
G1 X205.700 Y75.693 E1.06163
G1 X205.523 Y75.631 E1.06840
G1 X205.435 Y75.579 E1.07210
G1 X205.358 Y75.512 E1.07583
G1 X205.277 Y75.378 E1.08147
G1 X205.238 Y75.155 E1.08966
G1 X205.293 Y74.904 E1.09895
G1 X205.391 Y74.781 E1.10465
G1 X205.564 Y74.675 E1.11196
G1 X205.791 Y74.613 E1.12050
G1 X206.144 Y74.583 E1.13331
G1 X206.455 Y74.609 E1.14459
G1 X206.651 Y74.654 E1.15186
G1 X206.807 Y74.729 E1.15813
G1 X206.869 Y74.781 E1.16105
G1 X206.864 Y74.955 F9000.000
G1 X206.197 Y75.162
G1 F1800.000
G1 X206.144 Y75.162 E1.16134
G1 X206.122 Y75.164 E1.16146
G1 X206.063 Y75.165 E1.16178
G1 E0.26178 F2400.00000
G92 E0
G1 Z0.650 F9000.000
G1 X205.783 Y117.543
G1 Z0.250
G1 E0.90000 F2400.00000
G1 F1800.000
G1 X205.817 Y117.722 E0.90658
G1 X205.574 Y117.817 E0.91602
G1 X205.327 Y117.973 E0.92659
G1 X205.200 Y118.090 E0.93282
G1 X205.079 Y117.981 E0.93873
G1 X204.702 Y117.800 E0.95386
G1 X204.347 Y117.746 E0.96684
G1 X204.362 Y117.543 E0.97421
G1 X205.723 Y117.543 E1.02344
G1 E0.12344 F2400.00000
G92 E0
G1 Z0.650 F9000.000
G1 X206.431 Y120.065
G1 Z0.250
G1 E0.90000 F2400.00000
G1 F1800.000
G1 X206.594 Y120.071 E0.90588
G1 X206.643 Y120.256 E0.91281
G1 X206.661 Y120.479 E0.92090
G1 X206.606 Y120.953 E0.93815
G1 X206.549 Y121.146 E0.94542
G1 X206.359 Y121.116 E0.95239
G1 X206.378 Y120.290 E0.98229
G1 X206.412 Y120.122 E0.98848
G1 E0.08848 F2400.00000
G92 E0
G1 Z0.650 F9000.000
G1 X206.482 Y79.355
G1 Z0.250
G1 E0.90000 F2400.00000
G1 F1800.000
G1 X206.370 Y79.397 E0.90431
G1 X206.144 Y79.423 E0.91256
G1 X205.881 Y79.383 E0.92218
G1 X205.761 Y79.337 E0.92682
G1 X205.696 Y79.283 E0.92988
G1 X205.624 Y79.130 E0.93599
G1 X205.605 Y78.959 E0.94222
G1 X205.624 Y78.771 E0.94906
G1 X205.681 Y78.570 E0.95661
G1 X206.127 Y77.728 E0.99107
G1 X206.585 Y78.556 E1.02531
G1 X206.643 Y78.780 E1.03367
G1 X206.659 Y78.941 E1.03951
G1 X206.627 Y79.122 E1.04616
G1 X206.597 Y79.222 E1.04994
G1 X206.529 Y79.318 E1.05421
G1 X206.270 Y79.040 F9000.000
G1 F1800.000
G1 X206.150 Y79.053 E1.05856
G1 X205.966 Y79.025 E1.06529
G1 X205.985 Y78.840 E1.07203
G1 X206.023 Y78.707 E1.07702
G1 X206.134 Y78.497 E1.08561
G1 X206.242 Y78.692 E1.09369
G1 X206.281 Y78.844 E1.09935
G1 X206.280 Y78.980 E1.10428
G1 E0.20428 F2400.00000
G92 E0
G1 Z0.650 F9000.000
G1 X137.493 Y106.961
G1 Z0.250
G1 E0.90000 F2400.00000
G1 F1800.000
G1 X137.647 Y107.475 E0.91940
G1 X137.697 Y107.992 E0.93818
G1 X137.647 Y108.508 E0.95696
G1 X137.493 Y109.022 E0.97636
G1 X137.248 Y109.482 E0.99521
G1 X136.909 Y109.898 E1.01461
G1 X136.507 Y110.229 E1.03346
G1 X136.032 Y110.484 E1.05294
G1 X135.517 Y110.639 E1.07242
G1 X135.000 Y110.689 E1.09119
G1 X134.483 Y110.639 E1.10997
G1 X133.968 Y110.484 E1.12945
G1 X133.493 Y110.229 E1.14893
G1 X133.093 Y109.899 E1.16770
G1 X132.763 Y109.498 E1.18648
G1 X132.509 Y109.026 E1.20588
G1 X132.356 Y108.527 E1.22473
G1 X132.303 Y107.992 E1.24421
G1 X132.356 Y107.456 E1.26369
G1 X132.508 Y106.960 E1.28247
G1 X132.752 Y106.501 E1.30124
G1 X133.091 Y106.086 E1.32064
G1 X133.493 Y105.754 E1.33950
G1 X133.966 Y105.501 E1.35890
G1 X134.464 Y105.348 E1.37774
G1 X134.996 Y105.295 E1.39710
G1 X135.517 Y105.344 E1.41600
G1 X136.032 Y105.500 E1.43548
G1 X136.507 Y105.754 E1.45496
G1 X136.909 Y106.086 E1.47381
G1 X137.248 Y106.501 E1.49321
G1 X137.465 Y106.909 E1.50989
G1 X137.152 Y107.102 F9000.000
G1 F1800.000
G1 X137.286 Y107.546 E1.52669
G1 X137.329 Y107.992 E1.54288
G1 X137.286 Y108.437 E1.55908
G1 X137.152 Y108.882 E1.57587
G1 X136.942 Y109.278 E1.59211
G1 X136.648 Y109.638 E1.60890
G1 X136.301 Y109.923 E1.62514
G1 X135.891 Y110.144 E1.64198
G1 X135.446 Y110.278 E1.65882
G1 X135.000 Y110.321 E1.67501
G1 X134.554 Y110.278 E1.69121
G1 X134.109 Y110.144 E1.70805
G1 X133.699 Y109.923 E1.72488
G1 X133.353 Y109.639 E1.74108
G1 X133.068 Y109.293 E1.75728
G1 X132.849 Y108.884 E1.77407
G1 X132.717 Y108.455 E1.79031
G1 X132.671 Y107.992 E1.80715
G1 X132.717 Y107.529 E1.82398
G1 X132.848 Y107.100 E1.84018
G1 X133.058 Y106.705 E1.85638
G1 X133.352 Y106.346 E1.87317
G1 X133.699 Y106.060 E1.88941
G1 X134.108 Y105.840 E1.90620
G1 X134.537 Y105.709 E1.92244
G1 X134.997 Y105.663 E1.93919
G1 X135.446 Y105.706 E1.95547
G1 X135.891 Y105.840 E1.97231
G1 X136.301 Y106.060 E1.98915
G1 X136.648 Y106.346 E2.00539
G1 X136.942 Y106.705 E2.02218
G1 X137.124 Y107.049 E2.03625
G1 X136.812 Y107.242 F9000.000
G1 F1800.000
G1 X136.925 Y107.617 E2.05044
G1 X136.961 Y107.992 E2.06405
G1 X136.925 Y108.366 E2.07766
G1 X136.812 Y108.742 E2.09185
G1 X136.635 Y109.075 E2.10548
G1 X136.387 Y109.378 E2.11966
G1 X136.096 Y109.618 E2.13329
G1 X135.750 Y109.804 E2.14749
G1 X135.375 Y109.917 E2.16168
G1 X135.000 Y109.953 E2.17530
G1 X134.625 Y109.917 E2.18891
G1 X134.250 Y109.804 E2.20311
G1 X133.904 Y109.618 E2.21731
G1 X133.613 Y109.378 E2.23092
G1 X133.374 Y109.088 E2.24454
G1 X133.188 Y108.743 E2.25872
G1 X133.078 Y108.382 E2.27235
G1 X133.039 Y107.992 E2.28655
G1 X133.078 Y107.601 E2.30075
G1 X133.188 Y107.241 E2.31436
G1 X133.365 Y106.909 E2.32797
G1 X133.613 Y106.605 E2.34216
G1 X133.904 Y106.366 E2.35579
G1 X134.249 Y106.180 E2.36997
G1 X134.609 Y106.070 E2.38360
G1 X134.998 Y106.031 E2.39774
G1 X135.375 Y106.067 E2.41141
G1 X135.750 Y106.180 E2.42561
G1 X136.096 Y106.366 E2.43981
G1 X136.387 Y106.605 E2.45344
G1 X136.635 Y106.909 E2.46762
G1 X136.784 Y107.189 E2.47908
G1 X137.201 Y107.294 F9000.000
G1 E1.57908 F2400.00000
G92 E0
G1 Z0.650 F9000.000
G1 X135.000 Y70.689
G1 Z0.250
G1 E0.90000 F2400.00000
G1 F1800.000
G1 X134.466 Y70.636 E0.91944
G1 X133.968 Y70.484 E0.93825
G1 X133.510 Y70.240 E0.95704
G1 X133.093 Y69.899 E0.97651
G1 X132.753 Y69.483 E0.99594
G1 X132.508 Y69.024 E1.01476
G1 X132.356 Y68.527 E1.03354
G1 X132.303 Y67.992 E1.05302
G1 X132.356 Y67.456 E1.07250
G1 X132.509 Y66.958 E1.09135
G1 X132.762 Y66.486 E1.11071
G1 X133.093 Y66.085 E1.12952
G1 X133.493 Y65.754 E1.14831
G1 X133.966 Y65.501 E1.16771
G1 X134.464 Y65.348 E1.18656
G1 X134.997 Y65.295 E1.20592
G1 X135.517 Y65.344 E1.22481
G1 X136.030 Y65.499 E1.24422
G1 X136.490 Y65.744 E1.26307
G1 X136.906 Y66.083 E1.28247
G1 X137.237 Y66.485 E1.30132
G1 X137.491 Y66.958 E1.32072
G1 X137.644 Y67.456 E1.33958
G1 X137.697 Y67.992 E1.35905
G1 X137.644 Y68.526 E1.37848
G1 X137.492 Y69.024 E1.39730
G1 X137.248 Y69.482 E1.41608
G1 X136.907 Y69.899 E1.43556
G1 X136.490 Y70.240 E1.45504
G1 X136.032 Y70.484 E1.47382
G1 X135.536 Y70.635 E1.49259
G1 X135.060 Y70.683 E1.50989
G1 X135.000 Y70.321 F9000.000
G1 F1800.000
G1 X134.538 Y70.275 E1.52669
G1 X134.109 Y70.144 E1.54293
G1 X133.713 Y69.933 E1.55913
G1 X133.353 Y69.639 E1.57596
G1 X133.059 Y69.279 E1.59276
G1 X132.848 Y68.883 E1.60899
G1 X132.717 Y68.455 E1.62519
G1 X132.671 Y67.992 E1.64203
G1 X132.717 Y67.529 E1.65887
G1 X132.849 Y67.099 E1.67511
G1 X133.068 Y66.691 E1.69186
G1 X133.353 Y66.345 E1.70809
G1 X133.699 Y66.060 E1.72429
G1 X134.108 Y65.840 E1.74108
G1 X134.537 Y65.709 E1.75732
G1 X134.998 Y65.663 E1.77407
G1 X135.446 Y65.706 E1.79036
G1 X135.890 Y65.839 E1.80715
G1 X136.287 Y66.050 E1.82339
G1 X136.646 Y66.344 E1.84018
G1 X136.932 Y66.690 E1.85642
G1 X137.151 Y67.099 E1.87322
G1 X137.283 Y67.529 E1.88946
G1 X137.329 Y67.992 E1.90629
G1 X137.283 Y68.454 E1.92309
G1 X137.152 Y68.883 E1.93933
G1 X136.942 Y69.278 E1.95552
G1 X136.647 Y69.639 E1.97236
G1 X136.287 Y69.933 E1.98920
G1 X135.891 Y70.143 E2.00539
G1 X135.463 Y70.274 E2.02159
G1 X135.060 Y70.315 E2.03625
G1 X135.000 Y69.953 F9000.000
G1 F1800.000
G1 X134.611 Y69.914 E2.05041
G1 X134.250 Y69.803 E2.06407
G1 X133.917 Y69.627 E2.07768
G1 X133.613 Y69.378 E2.09188
G1 X133.366 Y69.075 E2.10604
