; generated by PrusaSlicer 2.2.0+win64 on 2020-06-08 at 13:37:17 UTC

; 

; external perimeters extrusion width = 0.45mm
; perimeters extrusion width = 0.45mm
; infill extrusion width = 0.45mm
; solid infill extrusion width = 0.45mm
; top infill extrusion width = 0.40mm
; support material extrusion width = 0.35mm
; first layer extrusion width = 0.42mm

M107
G28 ; home all axes
G1 Z20 F5000 ; lift nozzle
M104 S235 ; set extruder temp
M140 S70 ; set bed temp
M109 S235 ; wait extruder temp
M190 S70 ; set bed temp wait
G29 S1
G92 E0
G1 X0 Y0 Z0.2 F3000 ; go outside printing area
G1 X60.0 E9.0  F1000.0 ; intro line
G1 X100.0 E12.5  F1000.0 ; intro line
G92 E0

G21 ; set units to millimeters
G90 ; use absolute coordinates
M82 ; use absolute distances for extrusion
G92 E0
G1 Z0.350 F9000.000
G1 E-1.40000 F2100.00000
G92 E0
G1 Z0.650 F9000.000
G1 X69.833 Y39.926
G1 Z0.350
G1 E1.40000 F2100.00000
G1 F1800.000
G1 X70.582 Y38.964 E1.45811
G1 X71.321 Y38.281 E1.50609
G1 X72.181 Y37.700 E1.55556
G1 X77.518 Y34.764 E1.84597
G1 X79.053 Y34.181 E1.92429
G1 X80.934 Y33.886 E2.01503
G1 X228.913 Y33.884 E9.07018
G1 X229.741 Y33.945 E9.10976
G1 X230.988 Y34.192 E9.17037
G1 X232.771 Y34.907 E9.26196
G1 X238.166 Y37.914 E9.55646
G1 X239.178 Y38.715 E9.61800
G1 X240.062 Y39.765 E9.68343
G1 X240.739 Y41.039 E9.75219
G1 X241.120 Y42.387 E9.81900
G1 X242.651 Y54.135 E10.38385
G1 X242.650 Y153.918 E15.14115
G1 X242.533 Y154.758 E15.18158
G1 X242.247 Y155.784 E15.23235
G1 X241.800 Y156.740 E15.28266
G1 X241.308 Y157.487 E15.32532
G1 X240.672 Y158.216 E15.37142
G1 X236.578 Y162.160 E15.64246
G1 X235.611 Y162.950 E15.70202
G1 X234.861 Y163.439 E15.74468
G1 X233.700 Y163.993 E15.80605
G1 X231.797 Y164.494 E15.89986
G1 X181.455 Y171.094 E18.32051
G1 X128.857 Y171.112 E20.82821
G1 X77.794 Y164.417 E23.28355
G1 X76.195 Y163.950 E23.36297
G1 X75.116 Y163.427 E23.42013
G1 X74.411 Y162.967 E23.46027
G1 X73.423 Y162.161 E23.52106
G1 X69.327 Y158.215 E23.79225
G1 X68.676 Y157.466 E23.83952
G1 X68.165 Y156.676 E23.88442
G1 X67.706 Y155.654 E23.93781
G1 X67.429 Y154.569 E23.99120
G1 X67.338 Y153.626 E24.03638
G1 X67.343 Y54.305 E28.77166
G1 X68.958 Y42.023 E29.36225
G1 X69.286 Y40.977 E29.41456
G1 X69.805 Y39.979 E29.46817
G1 X70.110 Y40.137 F9000.000
G1 F1800.000
G1 X70.836 Y39.198 E29.52478
G1 X71.541 Y38.548 E29.57047
G1 X72.352 Y38.000 E29.61714
G1 X77.658 Y35.080 E29.90588
G1 X79.130 Y34.517 E29.98105
G1 X80.947 Y34.230 E30.06875
G1 X228.913 Y34.229 E37.12324
G1 X229.698 Y34.287 E37.16078
G1 X230.906 Y34.527 E37.21949
G1 X232.613 Y35.213 E37.30721
G1 X237.968 Y38.196 E37.59945
G1 X238.939 Y38.964 E37.65849
G1 X239.791 Y39.980 E37.72172
G1 X240.426 Y41.183 E37.78654
G1 X240.783 Y42.460 E37.84976
G1 X242.307 Y54.161 E38.41233
G1 X242.306 Y153.896 E43.16735
G1 X242.196 Y154.687 E43.20543
G1 X241.920 Y155.674 E43.25430
G1 X241.492 Y156.586 E43.30233
G1 X241.021 Y157.294 E43.34286
G1 X240.425 Y157.975 E43.38599
G1 X236.335 Y161.915 E43.65677
G1 X235.395 Y162.681 E43.71458
G1 X234.692 Y163.139 E43.75457
G1 X233.566 Y163.676 E43.81407
G1 X231.742 Y164.153 E43.90395
G1 X181.423 Y170.750 E46.32350
G1 X128.872 Y170.767 E48.82896
G1 X77.878 Y164.082 E51.28102
G1 X76.336 Y163.635 E51.35753
G1 X75.290 Y163.129 E51.41296
G1 X74.616 Y162.690 E51.45132
G1 X73.662 Y161.912 E51.51000
G1 X69.572 Y157.972 E51.78075
G1 X68.943 Y157.247 E51.82650
G1 X68.464 Y156.504 E51.86866
G1 X68.029 Y155.532 E51.91940
G1 X67.768 Y154.501 E51.97014
G1 X67.683 Y153.615 E52.01257
G1 X67.687 Y54.311 E56.74703
G1 X69.287 Y42.127 E57.33294
G1 X69.599 Y41.123 E57.38303
G1 X70.082 Y40.190 E57.43313
G1 E56.03313 F2100.00000
G92 E0
G1 Z0.650 F9000.000
G1 X130.085 Y146.156
G1 Z0.350
G1 E1.40000 F2100.00000
G1 F1800.000
G1 X130.461 Y146.001 E1.41941
G1 X130.828 Y145.952 E1.43707
G1 X179.172 Y145.952 E3.74195
G1 X179.539 Y146.001 E3.75962
G1 X179.915 Y146.156 E3.77903
G1 X180.194 Y146.370 E3.79574
G1 X180.482 Y146.717 E3.81727
G1 X180.642 Y147.103 E3.83721
G1 X180.691 Y147.471 E3.85487
G1 X180.691 Y148.294 E3.89414
G1 X181.313 Y161.914 E4.54415
G1 X181.313 Y162.763 E4.58463
G1 X181.265 Y163.130 E4.60229
G1 X181.109 Y163.506 E4.62170
G1 X180.861 Y163.829 E4.64112
G1 X180.538 Y164.077 E4.66053
G1 X180.162 Y164.233 E4.67994
G1 X179.795 Y164.281 E4.69760
G1 X130.205 Y164.281 E7.06185
G1 X129.838 Y164.233 E7.07951
G1 X129.462 Y164.077 E7.09893
G1 X129.139 Y163.829 E7.11834
G1 X128.891 Y163.506 E7.13775
G1 X128.735 Y163.130 E7.15716
G1 X128.687 Y162.763 E7.17483
G1 X128.687 Y161.914 E7.21531
G1 X129.309 Y148.294 E7.86531
G1 X129.309 Y147.471 E7.90459
G1 X129.358 Y147.103 E7.92225
G1 X129.514 Y146.727 E7.94166
G1 X129.762 Y146.404 E7.96107
G1 X130.037 Y146.193 E7.97762
G1 X130.258 Y146.458 F9000.000
G1 F1800.000
G1 X130.551 Y146.337 E7.99271
G1 X130.851 Y146.297 E8.00713
G1 X179.149 Y146.297 E10.30985
G1 X179.449 Y146.337 E10.32427
G1 X179.742 Y146.458 E10.33935
G1 X179.953 Y146.620 E10.35206
G1 X180.183 Y146.897 E10.36926
G1 X180.306 Y147.193 E10.38454
G1 X180.346 Y147.493 E10.39896
G1 X180.346 Y148.302 E10.43753
G1 X180.968 Y161.922 E11.08754
G1 X180.968 Y162.740 E11.12656
G1 X180.929 Y163.040 E11.14098
G1 X180.808 Y163.332 E11.15606
G1 X180.615 Y163.583 E11.17115
G1 X180.364 Y163.776 E11.18623
G1 X180.072 Y163.897 E11.20131
G1 X179.772 Y163.937 E11.21573
G1 X130.228 Y163.937 E13.57783
G1 X129.928 Y163.897 E13.59225
G1 X129.636 Y163.776 E13.60733
G1 X129.385 Y163.583 E13.62241
G1 X129.192 Y163.332 E13.63749
G1 X129.071 Y163.040 E13.65258
G1 X129.032 Y162.740 E13.66700
G1 X129.032 Y161.922 E13.70602
G1 X129.654 Y148.302 E14.35603
G1 X129.654 Y147.493 E14.39460
G1 X129.694 Y147.193 E14.40902
G1 X129.815 Y146.901 E14.42410
G1 X130.007 Y146.650 E14.43919
G1 X130.211 Y146.494 E14.45141
G1 X130.258 Y146.141 F9000.000
G1 X129.921 Y145.847
G1 F1800.000
G1 X129.516 Y146.158 E14.47576
G1 X129.212 Y146.553 E14.49950
G1 X129.022 Y147.013 E14.52325
G1 X128.965 Y147.448 E14.54415
G1 X128.965 Y147.934 E14.56733
G1 X128.813 Y147.976 E14.57482
G1 X128.659 Y147.721 E14.58904
G1 X128.344 Y147.402 E14.61042
G1 X127.963 Y147.166 E14.63179
G1 X127.537 Y147.025 E14.65317
G1 X127.170 Y146.994 E14.67072
G1 X127.138 Y146.844 E14.67804
G1 X128.685 Y145.988 E14.76232
G1 X129.042 Y145.828 E14.78096
G1 X129.383 Y145.740 E14.79779
G1 X129.773 Y145.707 E14.81644
G1 X129.873 Y145.707 E14.82121
G1 X129.902 Y145.790 E14.82541
G1 E13.42541 F2100.00000
G92 E0
G1 Z0.650 F9000.000
G1 X118.886 Y156.293
G1 Z0.350
G1 E1.40000 F2100.00000
G1 F1800.000
G1 X118.430 Y155.587 E1.44007
G1 X118.162 Y154.828 E1.47845
G1 X118.078 Y154.027 E1.51683
G1 X118.183 Y153.229 E1.55521
G1 X118.470 Y152.477 E1.59359
G1 X118.925 Y151.813 E1.63196
G1 X119.548 Y151.248 E1.67204
G1 X120.154 Y150.991 E1.70341
G1 X126.439 Y147.512 E2.04594
G1 X126.790 Y147.382 E2.06376
G1 X127.102 Y147.335 E2.07882
G1 X127.468 Y147.365 E2.09630
G1 X127.816 Y147.481 E2.11378
G1 X128.127 Y147.674 E2.13126
G1 X128.385 Y147.935 E2.14875
G1 X128.575 Y148.248 E2.16623
G1 X128.686 Y148.598 E2.18371
G1 X128.710 Y148.931 E2.19962
G1 X128.133 Y161.557 E2.80224
G1 X128.071 Y161.912 E2.81942
G1 X127.906 Y162.273 E2.83831
G1 X127.657 Y162.580 E2.85719
G1 X127.338 Y162.815 E2.87607
G1 X126.970 Y162.961 E2.89495
G1 X126.566 Y163.012 E2.91434
G1 X126.133 Y162.938 E2.93528
G1 X125.817 Y162.810 E2.95154
G1 X125.528 Y162.595 E2.96872
G1 X119.404 Y156.697 E3.37406
G1 X118.934 Y156.328 E3.40257
G1 X119.141 Y156.053 F9000.000
G1 F1800.000
G1 X118.741 Y155.434 E3.43771
G1 X118.501 Y154.751 E3.47221
G1 X118.425 Y154.032 E3.50672
G1 X118.520 Y153.314 E3.54122
G1 X118.778 Y152.638 E3.57572
G1 X119.187 Y152.041 E3.61022
G1 X119.733 Y151.546 E3.64536
G1 X120.144 Y151.384 E3.66642
G1 X120.316 Y151.296 E3.67563
G1 X126.583 Y147.826 E4.01717
G1 X126.877 Y147.718 E4.03208
G1 X127.114 Y147.682 E4.04353
G1 X127.398 Y147.706 E4.05712
G1 X127.668 Y147.795 E4.07070
G1 X127.911 Y147.945 E4.08429
G1 X128.111 Y148.148 E4.09788
G1 X128.258 Y148.392 E4.11146
G1 X128.345 Y148.664 E4.12505
G1 X128.364 Y148.935 E4.13804
G1 X127.789 Y161.520 E4.73865
G1 X127.738 Y161.809 E4.75268
G1 X127.611 Y162.090 E4.76735
G1 X127.417 Y162.328 E4.78202
G1 X127.169 Y162.511 E4.79669
G1 X126.883 Y162.625 E4.81136
G1 X126.574 Y162.663 E4.82622
G1 X126.228 Y162.605 E4.84296
G1 X125.987 Y162.507 E4.85532
G1 X125.751 Y162.332 E4.86934
G1 X119.640 Y156.445 E5.27390
G1 X119.190 Y156.088 E5.30129
G1 X118.745 Y156.104 F9000.000
G1 E3.90129 F2100.00000
G92 E0
G1 Z0.650 F9000.000
G1 X126.097 Y163.282
G1 Z0.350
G1 E1.40000 F2100.00000
G1 F1800.000
G1 X126.559 Y163.360 E1.42230
G1 X127.056 Y163.298 E1.44622
G1 X127.506 Y163.119 E1.46931
G1 X127.896 Y162.832 E1.49240
G1 X128.342 Y162.284 E1.52608
G1 X128.342 Y162.786 E1.55001
G1 X128.399 Y163.220 E1.57092
G1 X128.590 Y163.680 E1.59466
G1 X128.893 Y164.075 E1.61840
G1 X129.298 Y164.386 E1.64275
G1 X129.250 Y164.527 E1.64982
G1 X129.004 Y164.518 E1.66159
G1 X127.614 Y164.335 E1.72844
G1 X127.136 Y164.220 E1.75187
G1 X126.736 Y164.028 E1.77302
G1 X126.348 Y163.726 E1.79645
G1 X126.029 Y163.419 E1.81760
G1 X126.070 Y163.336 E1.82202
G1 E0.42202 F2100.00000
G92 E0
G1 Z0.650 F9000.000
G1 X118.538 Y156.390
G1 Z0.350
G1 E1.40000 F2100.00000
G1 F1800.000
G1 X117.937 Y156.225 E1.42972
G1 X116.799 Y156.076 E1.48444
G1 X116.230 Y156.076 E1.51157
G1 X115.623 Y156.239 E1.54153
G1 X115.079 Y156.553 E1.57150
G1 X114.634 Y156.998 E1.60146
G1 X114.320 Y157.542 E1.63143
G1 X114.160 Y158.140 E1.66093
G1 X114.144 Y158.911 E1.69768
G1 X114.304 Y159.629 E1.73276
G1 X114.623 Y160.288 E1.76769
G1 X115.086 Y160.856 E1.80262
G1 X115.668 Y161.302 E1.83755
G1 X116.336 Y161.602 E1.87248
G1 X117.191 Y161.765 E1.91400
G1 X117.317 Y161.822 E1.92059
G1 X117.427 Y161.906 E1.92718
G1 X117.514 Y162.014 E1.93377
G1 X117.574 Y162.138 E1.94036
G1 X117.604 Y162.273 E1.94695
G1 X117.601 Y162.407 E1.95333
G1 X117.559 Y162.565 E1.96110
G1 X117.482 Y162.699 E1.96848
G1 X117.372 Y162.808 E1.97585
G1 X117.238 Y162.885 E1.98322
G1 X117.089 Y162.925 E1.99060
G1 X116.875 Y162.926 E2.00081
G1 X115.514 Y162.747 E2.06625
G1 X115.036 Y162.632 E2.08968
G1 X114.637 Y162.439 E2.11082
G1 X114.249 Y162.138 E2.13425
G1 X107.094 Y155.246 E2.60786
G1 X106.730 Y154.963 E2.62984
G1 X106.271 Y154.743 E2.65411
G1 X105.823 Y154.635 E2.67609
G1 X104.699 Y154.487 E2.73013
G1 X104.130 Y154.487 E2.75725
G1 X103.523 Y154.650 E2.78722
G1 X102.979 Y154.965 E2.81718
G1 X102.535 Y155.409 E2.84715
G1 X102.221 Y155.954 E2.87711
G1 X102.061 Y156.551 E2.90661
G1 X102.045 Y157.322 E2.94337
G1 X102.204 Y158.040 E2.97845
G1 X102.524 Y158.700 E3.01338
G1 X102.987 Y159.268 E3.04831
G1 X103.568 Y159.714 E3.08324
G1 X104.237 Y160.013 E3.11817
G1 X105.092 Y160.177 E3.15969
G1 X105.218 Y160.234 E3.16628
G1 X105.327 Y160.318 E3.17287
G1 X105.415 Y160.425 E3.17946
G1 X105.475 Y160.550 E3.18605
G1 X105.504 Y160.685 E3.19264
G1 X105.502 Y160.819 E3.19901
G1 X105.459 Y160.976 E3.20679
G1 X105.382 Y161.110 E3.21416
G1 X105.273 Y161.220 E3.22154
G1 X105.139 Y161.297 E3.22891
G1 X104.990 Y161.337 E3.23628
G1 X104.775 Y161.337 E3.24649
G1 X103.415 Y161.158 E3.31193
G1 X102.937 Y161.043 E3.33536
G1 X102.537 Y160.851 E3.35650
G1 X102.149 Y160.549 E3.37993
G1 X94.994 Y153.658 E3.85355
G1 X94.630 Y153.375 E3.87553
G1 X94.172 Y153.154 E3.89979
G1 X93.724 Y153.046 E3.92177
G1 X92.600 Y152.899 E3.97581
G1 X92.031 Y152.899 E4.00294
G1 X91.424 Y153.062 E4.03291
G1 X90.880 Y153.376 E4.06287
G1 X90.435 Y153.821 E4.09283
G1 X90.121 Y154.365 E4.12280
G1 X89.961 Y154.963 E4.15230
G1 X89.945 Y155.734 E4.18906
G1 X90.105 Y156.452 E4.22413
G1 X90.424 Y157.111 E4.25906
G1 X90.887 Y157.679 E4.29400
G1 X91.469 Y158.125 E4.32893
G1 X92.137 Y158.425 E4.36385
G1 X92.992 Y158.589 E4.40538
G1 X93.118 Y158.645 E4.41196
G1 X93.228 Y158.730 E4.41855
G1 X93.315 Y158.837 E4.42515
G1 X93.375 Y158.962 E4.43174
G1 X93.405 Y159.097 E4.43833
G1 X93.402 Y159.230 E4.44470
G1 X93.360 Y159.388 E4.45248
G1 X93.283 Y159.522 E4.45985
G1 X93.173 Y159.631 E4.46722
G1 X93.039 Y159.709 E4.47460
G1 X92.890 Y159.749 E4.48197
G1 X92.676 Y159.749 E4.49218
G1 X91.315 Y159.570 E4.55762
G1 X90.837 Y159.455 E4.58105
G1 X90.438 Y159.263 E4.60219
G1 X90.050 Y158.961 E4.62562
G1 X82.895 Y152.069 E5.09924
G1 X82.531 Y151.787 E5.12121
G1 X82.072 Y151.566 E5.14548
G1 X81.624 Y151.458 E5.16746
G1 X80.500 Y151.310 E5.22150
G1 X79.931 Y151.311 E5.24863
G1 X79.324 Y151.473 E5.27859
G1 X78.780 Y151.788 E5.30856
G1 X78.336 Y152.232 E5.33852
G1 X78.020 Y152.781 E5.36870
G1 X77.857 Y153.414 E5.39985
G1 X77.847 Y154.148 E5.43489
G1 X78.005 Y154.864 E5.46982
G1 X78.325 Y155.523 E5.50475
G1 X78.788 Y156.091 E5.53968
G1 X79.369 Y156.537 E5.57461
G1 X80.038 Y156.836 E5.60954
G1 X80.893 Y157.000 E5.65106
G1 X81.019 Y157.057 E5.65765
G1 X81.128 Y157.141 E5.66424
G1 X81.187 Y157.213 E5.66867
G1 X81.279 Y157.389 E5.67810
G1 X81.305 Y157.508 E5.68394
G1 X81.303 Y157.642 E5.69031
G1 X81.260 Y157.799 E5.69809
G1 X81.183 Y157.933 E5.70546
G1 X81.074 Y158.043 E5.71284
G1 X80.940 Y158.120 E5.72021
G1 X80.791 Y158.160 E5.72758
G1 X80.576 Y158.160 E5.73779
G1 X79.216 Y157.982 E5.80323
G1 X78.738 Y157.866 E5.82666
G1 X78.338 Y157.674 E5.84780
G1 X77.950 Y157.373 E5.87123
G1 X73.991 Y153.559 E6.13333
G1 X73.944 Y153.502 E6.13683
G1 X73.929 Y153.444 E6.13969
G1 X75.389 Y142.359 E6.67276
G1 X80.278 Y139.639 E6.93951
G1 X80.731 Y139.448 E6.96294
G1 X81.167 Y139.365 E6.98408
G1 X81.658 Y139.377 E7.00751
G1 X83.019 Y139.556 E7.07295
G1 X83.226 Y139.611 E7.08316
G1 X83.360 Y139.688 E7.09053
G1 X83.469 Y139.798 E7.09790
G1 X83.546 Y139.932 E7.10528
G1 X83.587 Y140.081 E7.11265
G1 X83.587 Y140.236 E7.12003
G1 X83.547 Y140.385 E7.12740
G1 X83.469 Y140.519 E7.13477
G1 X83.360 Y140.629 E7.14215
G1 X83.226 Y140.706 E7.14952
G1 X83.077 Y140.746 E7.15690
G1 X82.863 Y140.746 E7.16711
G1 X82.647 Y140.718 E7.17745
G1 X81.883 Y140.718 E7.21391
G1 X81.087 Y140.932 E7.25321
G1 X80.373 Y141.344 E7.29251
G1 X79.790 Y141.927 E7.33181
G1 X79.378 Y142.641 E7.37111
G1 X79.166 Y143.433 E7.41020
G1 X79.160 Y144.093 E7.44166
G1 X79.324 Y144.705 E7.47184
G1 X79.639 Y145.249 E7.50181
G1 X80.083 Y145.693 E7.53177
G1 X80.628 Y146.007 E7.56174
G1 X81.177 Y146.154 E7.58887
G1 X82.301 Y146.302 E7.64291
G1 X82.762 Y146.313 E7.66488
G1 X83.262 Y146.218 E7.68915
G1 X83.687 Y146.039 E7.71113
G1 X92.378 Y141.227 E8.18474
G1 X92.831 Y141.036 E8.20817
G1 X93.266 Y140.954 E8.22931
G1 X93.757 Y140.966 E8.25275
G1 X95.118 Y141.144 E8.31818
G1 X95.325 Y141.200 E8.32839
G1 X95.459 Y141.277 E8.33577
G1 X95.569 Y141.386 E8.34314
G1 X95.646 Y141.520 E8.35051
G1 X95.686 Y141.670 E8.35789
G1 X95.686 Y141.824 E8.36526
G1 X95.646 Y141.974 E8.37264
G1 X95.569 Y142.108 E8.38001
G1 X95.460 Y142.217 E8.38738
G1 X95.326 Y142.294 E8.39476
G1 X95.176 Y142.334 E8.40213
G1 X94.962 Y142.335 E8.41234
G1 X94.747 Y142.306 E8.42269
G1 X93.982 Y142.307 E8.45915
G1 X93.186 Y142.520 E8.49845
G1 X92.472 Y142.933 E8.53775
G1 X91.890 Y143.516 E8.57705
G1 X91.478 Y144.230 E8.61635
G1 X91.266 Y145.022 E8.65543
G1 X91.260 Y145.682 E8.68690
G1 X91.424 Y146.293 E8.71708
G1 X91.738 Y146.837 E8.74704
G1 X92.183 Y147.281 E8.77701
G1 X92.727 Y147.595 E8.80697
G1 X93.277 Y147.743 E8.83410
G1 X94.401 Y147.890 E8.88814
G1 X94.861 Y147.901 E8.91012
G1 X95.362 Y147.806 E8.93439
G1 X95.786 Y147.627 E8.95636
G1 X104.477 Y142.816 E9.42998
G1 X104.930 Y142.625 E9.45341
G1 X105.366 Y142.542 E9.47455
G1 X105.857 Y142.554 E9.49798
G1 X107.218 Y142.733 E9.56342
G1 X107.425 Y142.788 E9.57363
G1 X107.559 Y142.865 E9.58100
G1 X107.668 Y142.975 E9.58838
G1 X107.745 Y143.109 E9.59575
G1 X107.786 Y143.258 E9.60312
G1 X107.786 Y143.413 E9.61050
G1 X107.746 Y143.562 E9.61787
G1 X107.668 Y143.696 E9.62525
G1 X107.559 Y143.805 E9.63262
G1 X107.425 Y143.883 E9.63999
G1 X107.276 Y143.923 E9.64737
G1 X107.062 Y143.923 E9.65758
G1 X106.846 Y143.895 E9.66792
G1 X106.082 Y143.895 E9.70439
G1 X105.285 Y144.109 E9.74368
G1 X104.572 Y144.521 E9.78298
G1 X103.989 Y145.104 E9.82228
G1 X103.577 Y145.818 E9.86158
G1 X103.365 Y146.610 E9.90067
G1 X103.359 Y147.270 E9.93214
G1 X103.523 Y147.881 E9.96232
G1 X103.838 Y148.426 E9.99228
G1 X104.282 Y148.870 E10.02224
