; G-Code generated by Simplify3D(R) Version 4.1.2
; Jun 1, 2020 at 5:57:37 PM
; Settings Summary
;   processName,Process1
;   applyToModels,Santa Juana_Mano Derecha,Santa Juana_Mano Izquierda,Santa Juana_Cruz,Santa Juana_Cruz(2),Santa Juana_Cruz(3),Santa Juana_Cruz(4),Santa Juana_Cruz(5)
;   profileName,Marfake (modified)
;   profileVersion,2020-05-30 20:57:22
;   baseProfile,Default
;   printMaterial,PLA
;   printQuality,Medium
;   printExtruders,
;   extruderName,Primary Extruder
;   extruderToolheadNumber,0
;   extruderDiameter,0.4
;   extruderAutoWidth,1
;   extruderWidth,0.48
;   extrusionMultiplier,0.98
;   extruderUseRetract,1
;   extruderRetractionDistance,1
;   extruderExtraRestartDistance,0
;   extruderRetractionZLift,0.4
;   extruderRetractionSpeed,2400
;   extruderUseCoasting,0
;   extruderCoastingDistance,0.3
;   extruderUseWipe,1
;   extruderWipeDistance,1.2
;   primaryExtruder,0
;   layerHeight,0.2
;   topSolidLayers,3
;   bottomSolidLayers,3
;   perimeterOutlines,3
;   printPerimetersInsideOut,1
;   startPointOption,3
;   startPointOriginX,0
;   startPointOriginY,0
;   sequentialIslands,0
;   spiralVaseMode,0
;   firstLayerHeightPercentage,125
;   firstLayerWidthPercentage,95
;   firstLayerUnderspeed,0.5
;   useRaft,0
;   raftExtruder,0
;   raftTopLayers,1
;   raftBaseLayers,1
;   raftOffset,3
;   raftSeparationDistance,0.14
;   raftTopInfill,100
;   aboveRaftSpeedMultiplier,0.3
;   useSkirt,1
;   skirtExtruder,0
;   skirtLayers,1
;   skirtOutlines,1
;   skirtOffset,3
;   usePrimePillar,0
;   primePillarExtruder,999
;   primePillarWidth,12
;   primePillarLocation,7
;   primePillarSpeedMultiplier,1
;   useOozeShield,0
;   oozeShieldExtruder,999
;   oozeShieldOffset,2
;   oozeShieldOutlines,1
;   oozeShieldSidewallShape,1
;   oozeShieldSidewallAngle,30
;   oozeShieldSpeedMultiplier,1
;   infillExtruder,0
;   internalInfillPattern,Rectilinear
;   externalInfillPattern,Rectilinear
;   infillPercentage,25
;   outlineOverlapPercentage,25
;   infillExtrusionWidthPercentage,100
;   minInfillLength,2
;   infillLayerInterval,1
;   internalInfillAngles,45,-45
;   overlapInternalInfillAngles,0
;   externalInfillAngles,45,-45
;   generateSupport,1
;   supportExtruder,0
;   supportInfillPercentage,45
;   supportExtraInflation,0
;   supportBaseLayers,0
;   denseSupportExtruder,0
;   denseSupportLayers,0
;   denseSupportInfillPercentage,70
;   supportLayerInterval,1
;   supportHorizontalPartOffset,0.3
;   supportUpperSeparationLayers,1
;   supportLowerSeparationLayers,1
;   supportType,0
;   supportGridSpacing,4
;   maxOverhangAngle,89
;   supportAngles,0
;   temperatureName,Primary Extruder,Heated Bed
;   temperatureNumber,0,1
;   temperatureSetpointCount,1,1
;   temperatureSetpointLayers,1,1
;   temperatureSetpointTemperatures,205,50
;   temperatureStabilizeAtStartup,1,1
;   temperatureHeatedBed,0,1
;   fanLayers,1,2
;   fanSpeeds,0,100
;   blipFanToFullPower,0
;   adjustSpeedForCooling,1
;   minSpeedLayerTime,15
;   minCoolingSpeedSlowdown,15
;   increaseFanForCooling,0
;   minFanLayerTime,45
;   maxCoolingFanSpeed,100
;   increaseFanForBridging,0
;   bridgingFanSpeed,100
;   use5D,1
;   relativeEdistances,0
;   allowEaxisZeroing,1
;   independentExtruderAxes,0
;   includeM10123,0
;   stickySupport,1
;   applyToolheadOffsets,0
;   gcodeXoffset,0
;   gcodeYoffset,0
;   gcodeZoffset,0
;   overrideMachineDefinition,1
;   machineTypeOverride,0
;   strokeXoverride,300
;   strokeYoverride,200
;   strokeZoverride,320
;   originOffsetXoverride,0
;   originOffsetYoverride,0
;   originOffsetZoverride,0
;   homeXdirOverride,-1
;   homeYdirOverride,-1
;   homeZdirOverride,-1
;   flipXoverride,1
;   flipYoverride,-1
;   flipZoverride,1
;   toolheadOffsets,0,0|0,0|0,0|0,0|0,0|0,0
;   overrideFirmwareConfiguration,0
;   firmwareTypeOverride,RepRap (Marlin/Repetier/Sprinter)
;   GPXconfigOverride,r2
;   baudRateOverride,115200
;   overridePrinterModels,0
;   printerModelsOverride
;   startingGcode,G28 ; home all axes,G1 Z30 F3000,M106 S1 [Enciende ventilador de capa],M190 S[bed1_temperature],M109 S[extruder0_temperature],G29 S1,G92 E0,M106 S0 (Apaga Ventilador de capa ],G1 X0 Y0 Z0.2 F3000 ; go outside printing area,G1 X60.0 E9.0  F1000.0 ; intro line,G1 X100.0 E12.5  F1000.0 ; intro line,G92 E0
;   layerChangeGcode,
;   retractionGcode,
;   toolChangeGcode,
;   endingGcode,G28 X0,G90 ; Posicion Absoluta,M104 S0 ; turn off extruder,M140 S0 ; turn off bed,M84 ; disable motors,M107 ; turn off fan,
;   exportFileFormat,gcode
;   celebration,0
;   celebrationSong,Star Wars
;   postProcessing,
;   defaultSpeed,3600
;   outlineUnderspeed,0.45
;   solidInfillUnderspeed,0.6
;   supportUnderspeed,0.65
;   rapidXYspeed,6000
;   rapidZspeed,600
;   minBridgingArea,50
;   bridgingExtraInflation,1
;   bridgingExtrusionMultiplier,1
;   bridgingSpeedMultiplier,1
;   useFixedBridgingAngle,0
;   fixedBridgingAngle,0
;   applyBridgingToPerimeters,0
;   filamentDiameters,1.75|1.75|1.75|1.75|1.75|1.75
;   filamentPricesPerKg,16|16|16|16|16|16
;   filamentDensities,1.25|1.25|1.25|1.25|1.25|1.25
;   useMinPrintHeight,0
;   minPrintHeight,0
;   useMaxPrintHeight,0
;   maxPrintHeight,50
;   useDiaphragm,0
;   diaphragmLayerInterval,20
;   robustSlicing,1
;   mergeAllIntoSolid,0
;   onlyRetractWhenCrossingOutline,1
;   retractBetweenLayers,1
;   useRetractionMinTravel,1
;   retractionMinTravel,3
;   retractWhileWiping,1
;   onlyWipeOutlines,1
;   avoidCrossingOutline,1
;   maxMovementDetourFactor,5
;   toolChangeRetractionDistance,12
;   toolChangeExtraRestartDistance,-0.5
;   toolChangeRetractionSpeed,600
;   externalThinWallType,0
;   internalThinWallType,1
;   thinWallAllowedOverlapPercentage,10
;   singleExtrusionMinLength,1
;   singleExtrusionMinPrintingWidthPercentage,50
;   singleExtrusionMaxPrintingWidthPercentage,200
;   singleExtrusionEndpointExtension,0.2
;   horizontalSizeCompensation,0
G90
M82
M106 S0
G28 ; home all axes
G1 Z30 F3000
M106 S1 [Enciende ventilador de capa]
M190 S50
M109 S205
G29 S1
G92 E0
M106 S0 (Apaga Ventilador de capa ]
G1 X0 Y0 Z0.2 F3000 ; go outside printing area
G1 X60.0 E9.0  F1000.0 ; intro line
G1 X100.0 E12.5  F1000.0 ; intro line
G92 E0
; process Process1
; layer 1, Z = 0.250
T0
G92 E0.0000
G1 E-1.0000 F2400
; feature skirt
; tool H0.250 W0.456
G1 Z0.400 F600
G1 X64.173 Y29.652 F6000
G1 Z0.250 F600
G1 E0.0000 F2400
G92 E0.0000
G1 X64.495 Y28.538 E0.0539 F1800
G1 X65.502 Y27.430 E0.1234
G1 X66.578 Y27.003 E0.1772
G1 X67.075 Y26.892 E0.2008
G1 X68.224 Y26.819 E0.2543
G1 X68.271 Y26.817 E0.2565
G1 X72.888 Y26.659 E0.4711
G1 X72.927 Y26.658 E0.4729
G1 X74.372 Y26.643 E0.5400
G1 X74.875 Y26.718 E0.5636
G1 X75.983 Y27.066 E0.6176
G1 X77.072 Y28.104 E0.6875
G1 X77.471 Y29.197 E0.7415
G1 X77.570 Y29.708 E0.7657
G1 X78.273 Y54.003 E1.8946
G1 X78.905 Y74.047 E2.8261
G1 X78.956 Y75.015 E2.8711
G1 X80.003 Y74.995 E2.9197
G1 X88.771 Y74.699 E3.3272
G1 X88.838 Y74.698 E3.3303
G1 X91.541 Y74.718 E3.4558
G1 X91.851 Y74.750 E3.4703
G1 X93.031 Y74.990 E3.5263
G1 X94.260 Y75.987 E3.5998
G1 X94.736 Y77.083 E3.6553
G1 X95.380 Y76.415 E3.6984
G1 X96.428 Y76.015 E3.7505
G1 X96.929 Y75.910 E3.7743
G1 X98.668 Y75.826 E3.8552
G1 X98.704 Y75.824 E3.8568
G1 X104.737 Y75.663 E4.1372
G1 X109.322 Y75.499 E4.3503
G1 X109.487 Y75.486 E4.3579
G1 X109.487 Y74.829 E4.3884
G1 X108.188 Y33.956 E6.2878
G1 X108.034 Y30.170 E6.4639
G1 X108.096 Y29.652 E6.4881
G1 X108.418 Y28.538 E6.5419
G1 X109.425 Y27.430 E6.6115
G1 X110.502 Y27.003 E6.6653
G1 X110.998 Y26.892 E6.6889
G1 X112.148 Y26.819 E6.7424
G1 X112.194 Y26.817 E6.7446
G1 X116.811 Y26.659 E6.9591
G1 X116.850 Y26.658 E6.9609
G1 X118.295 Y26.643 E7.0281
G1 X118.798 Y26.718 E7.0517
G1 X119.907 Y27.066 E7.1057
G1 X120.995 Y28.104 E7.1755
G1 X121.395 Y29.196 E7.2295
G1 X121.493 Y29.708 E7.2537
G1 X122.193 Y53.895 E8.3777
G1 X122.828 Y74.047 E9.3142
G1 X122.880 Y75.015 E9.3591
G1 X123.926 Y74.995 E9.4078
G1 X132.695 Y74.699 E9.8153
G1 X132.761 Y74.698 E9.8184
G1 X135.464 Y74.718 E9.9439
G1 X135.774 Y74.750 E9.9584
G1 X136.954 Y74.990 E10.0143
G1 X138.184 Y75.987 E10.0878
G1 X138.659 Y77.083 E10.1434
G1 X139.304 Y76.415 E10.1865
G1 X140.351 Y76.015 E10.2386
G1 X140.852 Y75.910 E10.2624
G1 X142.592 Y75.826 E10.3432
G1 X142.627 Y75.824 E10.3449
G1 X148.661 Y75.663 E10.6252
G1 X153.245 Y75.499 E10.8383
G1 X153.410 Y75.486 E10.8460
G1 X153.410 Y74.829 E10.8765
G1 X152.112 Y33.956 E12.7759
G1 X151.957 Y30.170 E12.9519
G1 X152.020 Y29.652 E12.9761
G1 X152.342 Y28.538 E13.0300
G1 X153.349 Y27.430 E13.0996
G1 X154.425 Y27.003 E13.1533
G1 X154.921 Y26.892 E13.1770
G1 X156.071 Y26.819 E13.2305
G1 X156.118 Y26.817 E13.2326
G1 X160.734 Y26.659 E13.4472
G1 X160.773 Y26.658 E13.4490
G1 X162.218 Y26.643 E13.5161
G1 X162.721 Y26.718 E13.5398
G1 X163.830 Y27.066 E13.5937
G1 X164.918 Y28.104 E13.6636
G1 X165.318 Y29.196 E13.7176
G1 X165.416 Y29.708 E13.7418
G1 X166.116 Y53.895 E14.8657
G1 X166.752 Y74.047 E15.8022
G1 X166.803 Y75.015 E15.8472
G1 X167.850 Y74.995 E15.8958
G1 X176.618 Y74.699 E16.3033
G1 X176.684 Y74.698 E16.3064
G1 X179.387 Y74.718 E16.4320
G1 X179.697 Y74.750 E16.4464
G1 X180.877 Y74.990 E16.5024
G1 X182.107 Y75.987 E16.5759
G1 X182.582 Y77.083 E16.6314
G1 X183.227 Y76.415 E16.6745
G1 X184.275 Y76.015 E16.7266
G1 X184.776 Y75.910 E16.7504
G1 X186.515 Y75.826 E16.8313
G1 X186.550 Y75.824 E16.8329
G1 X192.584 Y75.663 E17.1133
G1 X197.169 Y75.499 E17.3264
G1 X197.333 Y75.486 E17.3340
G1 X197.333 Y74.829 E17.3645
G1 X196.035 Y33.956 E19.2640
G1 X195.880 Y30.170 E19.4400
G1 X195.943 Y29.652 E19.4642
G1 X196.265 Y28.538 E19.5181
G1 X197.272 Y27.430 E19.5876
G1 X198.348 Y27.003 E19.6414
G1 X198.844 Y26.892 E19.6650
G1 X199.994 Y26.819 E19.7185
G1 X200.041 Y26.817 E19.7207
G1 X204.658 Y26.659 E19.9353
G1 X204.696 Y26.658 E19.9371
G1 X206.142 Y26.643 E20.0042
G1 X206.645 Y26.718 E20.0278
G1 X207.753 Y27.066 E20.0818
G1 X208.841 Y28.104 E20.1517
G1 X209.241 Y29.196 E20.2057
G1 X209.339 Y29.708 E20.2299
G1 X210.043 Y54.003 E21.3588
G1 X210.675 Y74.047 E22.2903
G1 X210.726 Y75.015 E22.3353
G1 X211.773 Y74.995 E22.3839
G1 X220.541 Y74.699 E22.7914
G1 X220.608 Y74.698 E22.7945
G1 X223.311 Y74.718 E22.9200
G1 X223.620 Y74.750 E22.9345
G1 X224.801 Y74.990 E22.9905
G1 X226.030 Y75.987 E23.0640
G1 X226.507 Y77.087 E23.1196
G1 X226.634 Y77.589 E23.1437
G1 X226.738 Y78.765 E23.1986
G1 X226.741 Y78.810 E23.2007
G1 X226.876 Y81.045 E23.3046
G1 X226.879 Y81.110 E23.3077
G1 X226.900 Y82.205 E23.3585
G1 X226.900 Y82.259 E23.3611
G1 X226.868 Y84.611 E23.4703
G1 X226.776 Y85.127 E23.4947
G1 X226.411 Y86.164 E23.5457
G1 X225.464 Y87.164 E23.6097
G1 X224.459 Y87.580 E23.6602
G1 X223.976 Y87.697 E23.6833
G1 X222.227 Y87.847 E23.7648
G1 X222.183 Y87.850 E23.7669
G1 X221.023 Y87.917 E23.8208
G1 X220.983 Y87.919 E23.8227
G1 X211.155 Y88.247 E24.2794
G1 X211.345 Y94.914 E24.5892
G1 X211.346 Y94.958 E24.5913
G1 X211.349 Y97.247 E24.6976
G1 X211.267 Y97.757 E24.7216
G1 X210.921 Y98.809 E24.7730
G1 X209.974 Y99.837 E24.8380
G1 X208.959 Y100.265 E24.8891
G1 X208.469 Y100.387 E24.9126
G1 X207.762 Y100.449 E24.9455
G1 X207.721 Y100.452 E24.9474
G1 X205.687 Y100.578 E25.0421
G1 X205.631 Y100.581 E25.0447
G1 X203.487 Y100.640 E25.1443
G1 X203.430 Y100.641 E25.1470
G1 X201.281 Y100.624 E25.2468
G1 X200.763 Y100.535 E25.2712
G1 X199.709 Y100.171 E25.3230
G1 X198.692 Y99.201 E25.3883
G1 X198.279 Y98.169 E25.4399
G1 X198.165 Y97.662 E25.4641
G1 X198.009 Y95.021 E25.5870
G1 X198.007 Y94.983 E25.5887
G1 X197.778 Y88.661 E25.8825
G1 X188.310 Y88.919 E26.3225
G1 X188.261 Y88.919 E26.3247
G1 X185.176 Y88.910 E26.4681
G1 X184.794 Y88.864 E26.4859
G1 X183.639 Y88.580 E26.5412
G1 X182.448 Y87.529 E26.6149
G1 X182.088 Y86.587 E26.6618
G1 X181.541 Y87.164 E26.6987
G1 X180.535 Y87.580 E26.7492
G1 X180.053 Y87.697 E26.7723
G1 X178.303 Y87.847 E26.8539
G1 X178.260 Y87.850 E26.8559
G1 X177.100 Y87.917 E26.9099
G1 X177.060 Y87.919 E26.9117
G1 X167.232 Y88.247 E27.3685
G1 X167.422 Y94.914 E27.6783
G1 X167.422 Y94.958 E27.6803
G1 X167.426 Y97.247 E27.7866
G1 X167.344 Y97.757 E27.8106
G1 X166.998 Y98.809 E27.8620
G1 X166.050 Y99.837 E27.9270
G1 X165.036 Y100.265 E27.9781
G1 X164.546 Y100.387 E28.0016
G1 X163.839 Y100.449 E28.0345
G1 X163.798 Y100.452 E28.0365
G1 X161.763 Y100.578 E28.1311
G1 X161.708 Y100.581 E28.1337
G1 X159.564 Y100.640 E28.2333
G1 X159.507 Y100.641 E28.2360
G1 X157.357 Y100.624 E28.3358
G1 X156.839 Y100.535 E28.3602
G1 X155.786 Y100.171 E28.4120
G1 X154.768 Y99.201 E28.4773
G1 X154.355 Y98.169 E28.5289
G1 X154.242 Y97.662 E28.5531
G1 X154.085 Y95.021 E28.6760
G1 X154.084 Y94.983 E28.6777
G1 X153.855 Y88.661 E28.9716
G1 X144.387 Y88.919 E29.4115
G1 X144.338 Y88.919 E29.4138
G1 X141.252 Y88.910 E29.5571
G1 X140.871 Y88.864 E29.5749
G1 X139.715 Y88.580 E29.6302
G1 X138.525 Y87.529 E29.7039
G1 X138.164 Y86.587 E29.7508
G1 X137.618 Y87.164 E29.7877
G1 X136.612 Y87.580 E29.8383
G1 X136.130 Y87.697 E29.8613
G1 X134.380 Y87.847 E29.9429
G1 X134.337 Y87.850 E29.9449
G1 X133.177 Y87.917 E29.9989
G1 X133.137 Y87.919 E30.0007
G1 X123.309 Y88.247 E30.4575
G1 X123.498 Y94.914 E30.7673
G1 X123.499 Y94.958 E30.7693
G1 X123.502 Y97.247 E30.8756
G1 X123.421 Y97.757 E30.8996
G1 X123.074 Y98.809 E30.9511
G1 X122.127 Y99.837 E31.0160
G1 X121.113 Y100.265 E31.0671
G1 X120.623 Y100.387 E31.0906
G1 X119.916 Y100.449 E31.1236
G1 X119.874 Y100.452 E31.1255
G1 X117.840 Y100.578 E31.2202
G1 X117.785 Y100.581 E31.2227
G1 X115.641 Y100.640 E31.3224
G1 X115.583 Y100.641 E31.3250
G1 X113.434 Y100.624 E31.4248
G1 X112.916 Y100.535 E31.4493
G1 X111.863 Y100.171 E31.5010
G1 X110.845 Y99.201 E31.5663
G1 X110.432 Y98.169 E31.6180
G1 X110.319 Y97.662 E31.6421
G1 X110.162 Y95.021 E31.7650
G1 X110.160 Y94.983 E31.7667
G1 X109.932 Y88.661 E32.0606
G1 X100.463 Y88.919 E32.5005
G1 X100.415 Y88.919 E32.5028
G1 X97.329 Y88.910 E32.6461
G1 X96.947 Y88.864 E32.6640
G1 X95.792 Y88.580 E32.7192
G1 X94.602 Y87.529 E32.7930
G1 X94.241 Y86.587 E32.8398
G1 X93.694 Y87.164 E32.8767
G1 X92.689 Y87.580 E32.9273
G1 X92.207 Y87.697 E32.9503
G1 X90.457 Y87.847 E33.0319
G1 X90.413 Y87.850 E33.0339
G1 X89.253 Y87.917 E33.0879
G1 X89.213 Y87.919 E33.0898
G1 X79.385 Y88.247 E33.5465
G1 X79.575 Y94.914 E33.8563
G1 X79.576 Y94.958 E33.8583
G1 X79.579 Y97.247 E33.9646
G1 X79.497 Y97.757 E33.9887
G1 X79.151 Y98.809 E34.0401
G1 X78.204 Y99.837 E34.1050
G1 X77.189 Y100.265 E34.1562
G1 X76.699 Y100.387 E34.1796
G1 X76.678 Y100.389 E34.1806
G1 X77.072 Y100.765 E34.2059
G1 X77.471 Y101.857 E34.2599
G1 X77.570 Y102.368 E34.2841
G1 X78.270 Y126.555 E35.4080
G1 X78.905 Y146.708 E36.3445
G1 X78.956 Y147.675 E36.3895
G1 X80.003 Y147.656 E36.4381
G1 X88.771 Y147.359 E36.8456
G1 X88.838 Y147.358 E36.8487
G1 X91.541 Y147.378 E36.9743
G1 X91.851 Y147.411 E36.9887
G1 X93.031 Y147.650 E37.0447
G1 X94.260 Y148.647 E37.1182
G1 X94.737 Y149.747 E37.1739
G1 X94.864 Y150.250 E37.1980
G1 X94.968 Y151.426 E37.2528
G1 X94.971 Y151.470 E37.2549
G1 X95.106 Y153.705 E37.3589
G1 X95.109 Y153.771 E37.3619
G1 X95.130 Y154.865 E37.4128
G1 X95.130 Y154.920 E37.4153
G1 X95.098 Y157.272 E37.5245
G1 X95.006 Y157.787 E37.5489
G1 X94.641 Y158.824 E37.5999
G1 X93.694 Y159.824 E37.6639
G1 X92.689 Y160.240 E37.7144
G1 X92.207 Y160.358 E37.7375
G1 X90.457 Y160.507 E37.8191
G1 X90.413 Y160.510 E37.8211
G1 X89.253 Y160.578 E37.8751
G1 X89.213 Y160.580 E37.8769
G1 X79.385 Y160.907 E38.3337
G1 X79.575 Y167.574 E38.6435
G1 X79.576 Y167.618 E38.6455
G1 X79.579 Y169.907 E38.7518
G1 X79.497 Y170.418 E38.7758
G1 X79.151 Y171.469 E38.8273
G1 X78.204 Y172.497 E38.8922
G1 X77.189 Y172.926 E38.9433
G1 X76.699 Y173.047 E38.9668
G1 X75.992 Y173.109 E38.9998
G1 X75.951 Y173.113 E39.0017
G1 X73.917 Y173.239 E39.0963
G1 X73.861 Y173.241 E39.0989
G1 X71.717 Y173.301 E39.1985
G1 X71.660 Y173.301 E39.2012
G1 X69.511 Y173.285 E39.3010
G1 X68.993 Y173.196 E39.3255
G1 X67.939 Y172.832 E39.3772
G1 X66.922 Y171.862 E39.4425
G1 X66.509 Y170.830 E39.4941
G1 X66.395 Y170.322 E39.5183
G1 X66.239 Y167.681 E39.6412
G1 X66.237 Y167.644 E39.6429
G1 X66.008 Y161.322 E39.9368
G1 X56.540 Y161.579 E40.3767
G1 X56.491 Y161.580 E40.3790
G1 X53.406 Y161.571 E40.5223
