; generated by PrusaSlicer 2.4.0+win64 on 2022-01-18 at 20:44:54 UTC

; 

; external perimeters extrusion width = 0.45mm
; perimeters extrusion width = 0.45mm
; infill extrusion width = 0.45mm
; solid infill extrusion width = 0.45mm
; top infill extrusion width = 0.40mm
; support material extrusion width = 0.35mm
; first layer extrusion width = 0.70mm

M107
;TYPE:Custom
G28 ; home all axes
G1 Z20 F5000 ; lift nozzle
M104 S215 ; set extruder temp
M140 S50 ; set bed temp
M109 S215 ; wait extruder temp
M190 S50 ; set bed temp wait
G29 S1
G92 E0
G1 X0 Y0 Z0.2 F3000 ; go outside printing area
G1 X60.0 E9.0  F1000.0 ; intro line
G1 X100.0 E12.5  F1000.0 ; intro line
G92 E0

G21 ; set units to millimeters
G90 ; use absolute coordinates
M82 ; use absolute distances for extrusion
G92 E0
; Filament gcode
M107
;LAYER_CHANGE
;Z:0.35
;HEIGHT:0.35
G1 Z.35 F7200
G1 E-1.2 F3000
G92 E0
G1 Z.75 F7200
G1 X128.23 Y127.274
G1 Z.35
G1 E1.2 F3000
;TYPE:Skirt/Brim
;WIDTH:0.7
G1 F1800
G1 X130 Y126.75 E1.36449
G1 X195 Y126.75 E7.1567
G1 X196.551 Y127.144 E7.29927
G1 X197.726 Y128.23 E7.44185
G1 X198.25 Y130 E7.60633
G1 X198.25 Y195 E13.39855
G1 X197.856 Y196.551 E13.54112
G1 X196.77 Y197.726 E13.68369
G1 X195 Y198.25 E13.84818
G1 X130 Y198.25 E19.64039
G1 X128.449 Y197.856 E19.78297
G1 X127.274 Y196.77 E19.92554
G1 X126.75 Y195 E20.09002
G1 X126.75 Y130 E25.88224
G1 X127.144 Y128.449 E26.02481
G1 X128.189 Y127.319 E26.16204
G1 X128.645 Y127.818 F7200
G1 F1800
G1 X128.827 Y127.652 E26.184
G1 X130 Y127.375 E26.29136
G1 X195 Y127.375 E32.08357
G1 X196.381 Y127.767 E32.21147
G1 X197.348 Y128.827 E32.33937
G1 X197.625 Y130 E32.44673
G1 X197.625 Y195 E38.23894
G1 X197.233 Y196.381 E38.36684
G1 X196.173 Y197.348 E38.49474
G1 X195 Y197.625 E38.6021
G1 X130 Y197.625 E44.39431
G1 X128.619 Y197.233 E44.52221
G1 X127.652 Y196.173 E44.65011
G1 X127.375 Y195 E44.75747
G1 X127.375 Y130 E50.54968
G1 X127.767 Y128.619 E50.67758
G1 X128.601 Y127.858 E50.77817
G1 E49.57817 F3000
G92 E0
G1 Z.75 F7200
G1 X131.6 Y131.6
G1 Z.35
G1 E1.2 F3000
;TYPE:Perimeter
G1 F1800
G1 X193.4 Y131.6 E6.7071
G1 X193.4 Y193.4 E12.2142
G1 X131.6 Y193.4 E17.7213
G1 X131.6 Y131.66 E23.22305
G1 X130.975 Y131.66 F7200
G1 F1800
G1 X130.975 Y130.975 E23.28408
G1 X194.025 Y130.975 E28.90255
G1 X194.025 Y194.025 E34.52102
G1 X130.975 Y194.025 E40.13949
G1 X130.975 Y131.72 E45.69158
G1 X130.35 Y130.35 F7200
;TYPE:External perimeter
G1 F1800
G1 X194.65 Y130.35 E51.42141
G1 X194.65 Y194.65 E57.15125
G1 X130.35 Y194.65 E62.88109
G1 X130.35 Y130.41 E68.60558
G1 X130.736 Y130.454 F7200
G1 E67.40558 F3000
G92 E0
G1 Z.75 F7200
G1 X131.756 Y191.978
G1 Z.35
G1 E1.2 F3000
;TYPE:Solid infill
;WIDTH:0.701338
G1 F1800
G1 X132.741 Y192.963 E1.32436
G1 X133.626 Y192.963 E1.40345
G1 X132.037 Y191.374 E1.60414
G1 X132.037 Y190.488 E1.68323
G1 X134.512 Y192.963 E1.99577
G1 X135.398 Y192.963 E2.07485
G1 X132.037 Y189.602 E2.49924
G1 X132.037 Y188.717 E2.57833
G1 X136.283 Y192.963 E3.11456
G1 X137.169 Y192.963 E3.19364
G1 X132.037 Y187.831 E3.84172
G1 X132.037 Y186.946 E3.92081
G1 X138.054 Y192.963 E4.68073
G1 X138.94 Y192.963 E4.75982
G1 X132.037 Y186.06 E5.63159
G1 X132.037 Y185.174 E5.71068
G1 X139.826 Y192.963 E6.6943
G1 X140.711 Y192.963 E6.77338
G1 X132.037 Y184.289 E7.86885
G1 X132.037 Y183.403 E7.94793
G1 X141.597 Y192.963 E9.15524
G1 X142.482 Y192.963 E9.23433
G1 X132.037 Y182.518 E10.55349
G1 X132.037 Y181.632 E10.63257
G1 X143.368 Y192.963 E12.06358
G1 X144.254 Y192.963 E12.14266
G1 X132.037 Y180.746 E13.68551
G1 X132.037 Y179.861 E13.7646
G1 X145.139 Y192.963 E15.41929
G1 X146.025 Y192.963 E15.49838
G1 X132.037 Y178.975 E17.26492
G1 X132.037 Y178.089 E17.34401
G1 X146.911 Y192.963 E19.2224
G1 X147.796 Y192.963 E19.30148
G1 X132.037 Y177.204 E21.29172
G1 X132.037 Y176.318 E21.37081
G1 X148.682 Y192.963 E23.47289
G1 X149.567 Y192.963 E23.55197
G1 X132.037 Y175.433 E25.7659
G1 X132.037 Y174.547 E25.84499
G1 X150.453 Y192.963 E28.17076
G1 X151.339 Y192.963 E28.24985
G1 X132.037 Y173.661 E30.68747
G1 X132.037 Y172.776 E30.76655
G1 X152.224 Y192.963 E33.31602
G1 X153.11 Y192.963 E33.39511
G1 X132.037 Y171.89 E36.05642
G1 X132.037 Y171.004 E36.1355
G1 X153.996 Y192.963 E38.90866
G1 X154.881 Y192.963 E38.98775
G1 X132.037 Y170.119 E41.87275
G1 X132.037 Y169.233 E41.95184
G1 X155.767 Y192.963 E44.94869
G1 X156.652 Y192.963 E45.02778
G1 X132.037 Y168.348 E48.13648
G1 X132.037 Y167.462 E48.21556
G1 X157.538 Y192.963 E51.43611
G1 X158.424 Y192.963 E51.51519
G1 X132.037 Y166.576 E54.84758
G1 X132.037 Y165.691 E54.92667
G1 X159.309 Y192.963 E58.37091
G1 X160.195 Y192.963 E58.44999
G1 X132.037 Y164.805 E62.00608
G1 X132.037 Y163.92 E62.08516
G1 X161.08 Y192.963 E65.75309
G1 X161.966 Y192.963 E65.83218
G1 X132.037 Y163.034 E69.61196
G1 X132.037 Y162.148 E69.69104
G1 X162.852 Y192.963 E73.58266
G1 X163.737 Y192.963 E73.66175
G1 X132.037 Y161.263 E77.66522
G1 X132.037 Y160.377 E77.74431
G1 X164.623 Y192.963 E81.85962
G1 X165.509 Y192.963 E81.93871
G1 X132.037 Y159.491 E86.16587
G1 X132.037 Y158.606 E86.24495
G1 X166.394 Y192.963 E90.58396
G1 X167.28 Y192.963 E90.66305
G1 X132.037 Y157.72 E95.1139
G1 X132.037 Y156.835 E95.19299
G1 X168.165 Y192.963 E99.75569
G1 X169.051 Y192.963 E99.83478
G1 X132.037 Y155.949 E104.50932
G1 X132.037 Y155.063 E104.58841
G1 X169.937 Y192.963 E109.3748
G1 X170.822 Y192.963 E109.45389
G1 X132.037 Y154.178 E114.35213
G1 X132.037 Y153.292 E114.43121
G1 X171.708 Y192.963 E119.4413
G1 X172.594 Y192.963 E119.52039
G1 X132.037 Y152.406 E124.64232
G1 X132.037 Y151.521 E124.7214
G1 X173.479 Y192.963 E129.95518
G1 X174.365 Y192.963 E130.03427
G1 X132.037 Y150.635 E135.37989
G1 X132.037 Y149.75 E135.45898
G1 X175.25 Y192.963 E140.91645
G1 X176.136 Y192.963 E140.99554
G1 X132.037 Y148.864 E146.56485
G1 X132.037 Y147.978 E146.64394
G1 X177.022 Y192.963 E152.3251
G1 X177.907 Y192.963 E152.40419
G1 X132.037 Y147.093 E158.1972
G1 X132.037 Y146.207 E158.27629
G1 X178.793 Y192.963 E164.18114
G1 X179.678 Y192.963 E164.26023
G1 X132.037 Y145.322 E170.27693
G1 X132.037 Y144.436 E170.35602
G1 X180.564 Y192.963 E176.48456
G1 X181.45 Y192.963 E176.56365
G1 X132.037 Y143.55 E182.80405
G1 X132.037 Y142.665 E182.88313
G1 X182.335 Y192.963 E189.23537
G1 X183.221 Y192.963 E189.31446
G1 X132.037 Y141.779 E195.77855
G1 X132.037 Y140.893 E195.85763
G1 X184.107 Y192.963 E202.43357
G1 X184.992 Y192.963 E202.51266
G1 X132.037 Y140.008 E209.20043
G1 X132.037 Y139.122 E209.27952
G1 X185.878 Y192.963 E216.07915
G1 X186.763 Y192.963 E216.15823
G1 X132.037 Y138.237 E223.06971
G1 X132.037 Y137.351 E223.14879
G1 X187.649 Y192.963 E230.17211
G1 X188.535 Y192.963 E230.2512
G1 X132.037 Y136.465 E237.38636
G1 X132.037 Y135.58 E237.46545
G1 X189.42 Y192.963 E244.71246
G1 X190.306 Y192.963 E244.79155
G1 X132.037 Y134.694 E252.15041
G1 X132.037 Y133.808 E252.22949
G1 X191.192 Y192.963 E259.7002
G1 X192.077 Y192.963 E259.77929
G1 X132.037 Y132.923 E267.36184
G1 X132.037 Y132.037 E267.44092
G1 X192.963 Y192.963 E275.13532
G1 X192.963 Y192.077 E275.2144
G1 X132.923 Y132.037 E282.79697
G1 X133.808 Y132.037 E282.87605
G1 X192.963 Y191.192 E290.34677
G1 X192.963 Y190.306 E290.42586
G1 X134.694 Y132.037 E297.78473
G1 X135.58 Y132.037 E297.86382
G1 X192.963 Y189.42 E305.11084
G1 X192.963 Y188.535 E305.18993
G1 X136.465 Y132.037 E312.32511
G1 X137.351 Y132.037 E312.40419
G1 X192.963 Y187.649 E319.42753
G1 X192.963 Y186.764 E319.50661
G1 X138.236 Y132.037 E326.4181
G1 X139.122 Y132.037 E326.49719
G1 X192.963 Y185.878 E333.29683
G1 X192.963 Y184.992 E333.37591
G1 X140.008 Y132.037 E340.06371
G1 X140.893 Y132.037 E340.1428
G1 X192.963 Y184.107 E346.71874
G1 X192.963 Y183.221 E346.79783
G1 X141.779 Y132.037 E353.26193
G1 X142.665 Y132.037 E353.34102
G1 X192.963 Y182.335 E359.69327
G1 X192.963 Y181.45 E359.77236
G1 X143.55 Y132.037 E366.01277
G1 X144.436 Y132.037 E366.09185
G1 X192.963 Y180.564 E372.22042
G1 X192.963 Y179.679 E372.2995
G1 X145.321 Y132.037 E378.31622
G1 X146.207 Y132.037 E378.39531
G1 X192.963 Y178.793 E384.30018
G1 X192.963 Y177.907 E384.37926
G1 X147.093 Y132.037 E390.17229
G1 X147.978 Y132.037 E390.25137
G1 X192.963 Y177.022 E395.93255
G1 X192.963 Y176.136 E396.01164
G1 X148.864 Y132.037 E401.58097
G1 X149.75 Y132.037 E401.66005
G1 X192.963 Y175.25 E407.11754
G1 X192.963 Y174.365 E407.19663
G1 X150.635 Y132.037 E412.54226
G1 X151.521 Y132.037 E412.62135
G1 X192.963 Y173.479 E417.85514
G1 X192.963 Y172.594 E417.93423
G1 X152.406 Y132.037 E423.05617
G1 X153.292 Y132.037 E423.13526
G1 X192.963 Y171.708 E428.14536
G1 X192.963 Y170.822 E428.22445
G1 X154.178 Y132.037 E433.1227
G1 X155.063 Y132.037 E433.20179
G1 X192.963 Y169.937 E437.98819
G1 X192.963 Y169.051 E438.06728
G1 X155.949 Y132.037 E442.74184
G1 X156.834 Y132.037 E442.82093
G1 X192.963 Y168.166 E447.38364
G1 X192.963 Y167.28 E447.46273
G1 X157.72 Y132.037 E451.91359
G1 X158.606 Y132.037 E451.99268
G1 X192.963 Y166.394 E456.3317
G1 X192.963 Y165.509 E456.41079
G1 X159.491 Y132.037 E460.63796
G1 X160.377 Y132.037 E460.71705
G1 X192.963 Y164.623 E464.83238
G1 X192.963 Y163.737 E464.91146
G1 X161.263 Y132.037 E468.91495
G1 X162.148 Y132.037 E468.99403
G1 X192.963 Y162.852 E472.88567
G1 X192.963 Y161.966 E472.96476
G1 X163.034 Y132.037 E476.74455
G1 X163.919 Y132.037 E476.82363
G1 X192.963 Y161.081 E480.49157
G1 X192.963 Y160.195 E480.57066
G1 X164.805 Y132.037 E484.12676
G1 X165.691 Y132.037 E484.20585
G1 X192.963 Y159.309 E487.6501
G1 X192.963 Y158.424 E487.72918
G1 X166.576 Y132.037 E491.06159
G1 X167.462 Y132.037 E491.14067
G1 X192.963 Y157.538 E494.36123
G1 X192.963 Y156.653 E494.44032
G1 X168.347 Y132.037 E497.54903
G1 X169.233 Y132.037 E497.62812
G1 X192.963 Y155.767 E500.62498
G1 X192.963 Y154.881 E500.70407
G1 X170.119 Y132.037 E503.58909
G1 X171.004 Y132.037 E503.66817
G1 X192.963 Y153.996 E506.44135
G1 X192.963 Y153.11 E506.52043
G1 X171.89 Y132.037 E509.18176
G1 X172.776 Y132.037 E509.26085
G1 X192.963 Y152.224 E511.81033
G1 X192.963 Y151.339 E511.88941
G1 X173.661 Y132.037 E514.32705
G1 X174.547 Y132.037 E514.40613
G1 X192.963 Y150.453 E516.73192
G1 X192.963 Y149.568 E516.81101
G1 X175.432 Y132.037 E519.02495
G1 X176.318 Y132.037 E519.10404
G1 X192.963 Y148.682 E521.20613
G1 X192.963 Y147.796 E521.28522
G1 X177.204 Y132.037 E523.27546
G1 X178.089 Y132.037 E523.35455
G1 X192.963 Y146.911 E525.23295
G1 X192.963 Y146.025 E525.31204
G1 X178.975 Y132.037 E527.0786
G1 X179.861 Y132.037 E527.15768
G1 X192.963 Y145.139 E528.81239
G1 X192.963 Y144.254 E528.89148
G1 X180.746 Y132.037 E530.43434
G1 X181.632 Y132.037 E530.51343
G1 X192.963 Y143.368 E531.94444
G1 X192.963 Y142.483 E532.02353
G1 X182.517 Y132.037 E533.3427
G1 X183.403 Y132.037 E533.42179
G1 X192.963 Y141.597 E534.62911
G1 X192.963 Y140.711 E534.7082
G1 X184.289 Y132.037 E535.80368
G1 X185.174 Y132.037 E535.88276
G1 X192.963 Y139.826 E536.86639
G1 X192.963 Y138.94 E536.94548
G1 X186.06 Y132.037 E537.81727
G1 X186.945 Y132.037 E537.89635
G1 X192.963 Y138.055 E538.65629
G1 X192.963 Y137.169 E538.73538
G1 X187.831 Y132.037 E539.38347
G1 X188.717 Y132.037 E539.46256
G1 X192.963 Y136.283 E539.9988
G1 X192.963 Y135.398 E540.07789
G1 X189.602 Y132.037 E540.50229
G1 X190.488 Y132.037 E540.58138
G1 X192.963 Y134.512 E540.89393
G1 X192.963 Y133.626 E540.97302
G1 X191.374 Y132.037 E541.17372
G1 X192.259 Y132.037 E541.25281
G1 X193.244 Y133.022 E541.37719
;LAYER_CHANGE
;Z:0.55
;HEIGHT:0.2
G1 Z.55 F7200
G1 X131.839 Y131.039
;TYPE:Perimeter
;WIDTH:0.45
G1 F3900
G1 X193.961 Y131.039 E543.43788
G1 X193.961 Y193.961 E545.5251
G1 X131.039 Y193.961 E547.61233
G1 X131.039 Y131.039 E549.69956
G1 X131.779 Y131.039 E549.72411
G1 X131.032 Y130.632 F7200
G1 F3900
G1 X194.368 Y130.632 E551.82507
G1 X194.368 Y194.368 E553.93931
G1 X130.632 Y194.368 E556.05354
G1 X130.632 Y130.632 E558.16778
G1 X130.972 Y130.632 E558.17906
G1 X130.225 Y130.35 F7200
;TYPE:External perimeter
G1 F1950
G1 X130.225 Y130.225 E558.1832
G1 X194.775 Y130.225 E560.32444
G1 X194.775 Y194.775 E562.46569
G1 X130.225 Y194.775 E564.60693
G1 X130.225 Y130.41 E566.74203
G1 X130.313 Y130.262 F7200
G1 X131.141 Y131.964
;TYPE:Solid infill
;WIDTH:0.45005
G1 F1200
G1 X131.781 Y131.324 E566.77205
G1 X132.357 Y131.324 E566.79116
G1 X131.324 Y132.357 E566.8396
G1 X131.324 Y132.932 E566.8587
G1 X132.932 Y131.324 E566.93415
G1 X133.508 Y131.324 E566.95325
G1 X131.324 Y133.508 E567.05572
G1 X131.324 Y134.084 E567.07482
G1 X134.084 Y131.324 E567.2043
G1 X134.66 Y131.324 E567.2234
G1 X131.324 Y134.66 E567.3799
G1 X131.324 Y135.235 E567.399
G1 X135.235 Y131.324 E567.58251
G1 X135.811 Y131.324 E567.60161
G1 X131.324 Y135.811 E567.81214
G1 X131.324 Y136.387 E567.83124
G1 X136.387 Y131.324 E568.06877
G1 X136.963 Y131.324 E568.08788
G1 X131.324 Y136.963 E568.35243
G1 X131.324 Y137.538 E568.37153
G1 X137.538 Y131.324 E568.66309
G1 X138.114 Y131.324 E568.68219
G1 X131.324 Y138.114 E569.00077
G1 X131.324 Y138.69 E569.01987
G1 X138.69 Y131.324 E569.36547
G1 X139.266 Y131.324 E569.38457
G1 X131.324 Y139.266 E569.75717
G1 X131.324 Y139.842 E569.77628
G1 X139.842 Y131.324 E570.1759
G1 X140.417 Y131.324 E570.195
G1 X131.324 Y140.417 E570.62163
G1 X131.324 Y140.993 E570.64073
G1 X140.993 Y131.324 E571.09438
G1 X141.569 Y131.324 E571.11348
G1 X131.324 Y141.569 E571.59414
G1 X131.324 Y142.145 E571.61325
G1 X142.145 Y131.324 E572.12092
G1 X142.72 Y131.324 E572.14002
G1 X131.324 Y142.72 E572.67471
G1 X131.324 Y143.296 E572.69381
G1 X143.296 Y131.324 E573.25552
G1 X143.872 Y131.324 E573.27462
G1 X131.324 Y143.872 E573.86333
G1 X131.324 Y144.448 E573.88244
G1 X144.448 Y131.324 E574.49817
G1 X145.023 Y131.324 E574.51727
G1 X131.324 Y145.023 E575.16001
G1 X131.324 Y145.599 E575.17911
G1 X145.599 Y131.324 E575.84887
G1 X146.175 Y131.324 E575.86797
G1 X131.324 Y146.175 E576.56475
G1 X131.324 Y146.751 E576.58385
G1 X146.751 Y131.324 E577.30763
G1 X147.327 Y131.324 E577.32674
G1 X131.324 Y147.327 E578.07754
G1 X131.324 Y147.902 E578.09664
G1 X147.902 Y131.324 E578.87445
G1 X148.478 Y131.324 E578.89355
G1 X131.324 Y148.478 E579.69838
G1 X131.324 Y149.054 E579.71748
G1 X149.054 Y131.324 E580.54932
G1 X149.63 Y131.324 E580.56843
G1 X131.324 Y149.63 E581.42728
G1 X131.324 Y150.205 E581.44638
G1 X150.205 Y131.324 E582.33225
G1 X150.781 Y131.324 E582.35135
G1 X131.324 Y150.781 E583.26424
G1 X131.324 Y151.357 E583.28334
G1 X151.357 Y131.324 E584.22323
G1 X151.933 Y131.324 E584.24234
G1 X131.324 Y151.933 E585.20925
G1 X131.324 Y152.508 E585.22835
G1 X152.508 Y131.324 E586.22227
G1 X153.084 Y131.324 E586.24137
G1 X131.324 Y153.084 E587.26231
G1 X131.324 Y153.66 E587.28141
G1 X153.66 Y131.324 E588.32937
G1 X154.236 Y131.324 E588.34847
G1 X131.324 Y154.236 E589.42343
G1 X131.324 Y154.812 E589.44253
G1 X154.812 Y131.324 E590.54451
G1 X155.387 Y131.324 E590.56362
G1 X131.324 Y155.387 E591.69261
G1 X131.324 Y155.963 E591.71171
G1 X155.963 Y131.324 E592.86772
G1 X156.539 Y131.324 E592.88682
G1 X131.324 Y156.539 E594.06984
G1 X131.324 Y157.115 E594.08894
G1 X157.115 Y131.324 E595.29898
G1 X157.69 Y131.324 E595.31808
G1 X131.324 Y157.69 E596.55513
G1 X131.324 Y158.266 E596.57423
G1 X158.266 Y131.324 E597.83829
G1 X158.842 Y131.324 E597.8574
G1 X131.324 Y158.842 E599.14847
G1 X131.324 Y159.418 E599.16757
G1 X159.418 Y131.324 E600.48566
G1 X159.993 Y131.324 E600.50477
G1 X131.324 Y159.993 E601.84987
G1 X131.324 Y160.569 E601.86897
G1 X160.569 Y131.324 E603.24109
G1 X161.145 Y131.324 E603.26019
G1 X131.324 Y161.145 E604.65932
G1 X131.324 Y161.721 E604.67842
G1 X161.721 Y131.324 E606.10457
G1 X162.297 Y131.324 E606.12367
G1 X131.324 Y162.297 E607.57683
G1 X131.324 Y162.872 E607.59593
G1 X162.872 Y131.324 E609.07611
G1 X163.448 Y131.324 E609.09521
G1 X131.324 Y163.448 E610.6024
G1 X131.324 Y164.024 E610.6215
G1 X164.024 Y131.324 E612.1557
G1 X164.6 Y131.324 E612.1748
G1 X131.324 Y164.6 E613.73602
G1 X131.324 Y165.175 E613.75512
G1 X165.175 Y131.324 E615.34335
G1 X165.751 Y131.324 E615.36245
G1 X131.324 Y165.751 E616.97769
G1 X131.324 Y166.327 E616.99679
G1 X166.327 Y131.324 E618.63905
G1 X166.903 Y131.324 E618.65815
G1 X131.324 Y166.903 E620.32742
G1 X131.324 Y167.478 E620.34652
G1 X167.478 Y131.324 E622.04281
