; G-Code generated by Simplify3D(R) Version 4.1.2
; Jul 24, 2020 at 1:29:04 AM
; Settings Summary
;   processName,Process1
;   applyToModels,nivelador Z
;   profileName,Hbot XL
;   profileVersion,2020-07-20 20:46:26
;   baseProfile,Default
;   printMaterial,PLA
;   printQuality,Medium
;   printExtruders,
;   extruderName,Primary Extruder
;   extruderToolheadNumber,0
;   extruderDiameter,0.4
;   extruderAutoWidth,1
;   extruderWidth,0.48
;   extrusionMultiplier,0.98
;   extruderUseRetract,1
;   extruderRetractionDistance,1.2
;   extruderExtraRestartDistance,0
;   extruderRetractionZLift,0.4
;   extruderRetractionSpeed,2400
;   extruderUseCoasting,0
;   extruderCoastingDistance,0.3
;   extruderUseWipe,1
;   extruderWipeDistance,1
;   primaryExtruder,0
;   layerHeight,0.2
;   topSolidLayers,3
;   bottomSolidLayers,3
;   perimeterOutlines,3
;   printPerimetersInsideOut,1
;   startPointOption,3
;   startPointOriginX,0
;   startPointOriginY,0
;   sequentialIslands,0
;   spiralVaseMode,0
;   firstLayerHeightPercentage,125
;   firstLayerWidthPercentage,95
;   firstLayerUnderspeed,0.5
;   useRaft,0
;   raftExtruder,0
;   raftTopLayers,1
;   raftBaseLayers,1
;   raftOffset,3
;   raftSeparationDistance,0.14
;   raftTopInfill,100
;   aboveRaftSpeedMultiplier,0.3
;   useSkirt,1
;   skirtExtruder,0
;   skirtLayers,1
;   skirtOutlines,1
;   skirtOffset,3
;   usePrimePillar,0
;   primePillarExtruder,999
;   primePillarWidth,12
;   primePillarLocation,7
;   primePillarSpeedMultiplier,1
;   useOozeShield,0
;   oozeShieldExtruder,999
;   oozeShieldOffset,2
;   oozeShieldOutlines,1
;   oozeShieldSidewallShape,1
;   oozeShieldSidewallAngle,30
;   oozeShieldSpeedMultiplier,1
;   infillExtruder,0
;   internalInfillPattern,Rectilinear
;   externalInfillPattern,Rectilinear
;   infillPercentage,25
;   outlineOverlapPercentage,25
;   infillExtrusionWidthPercentage,100
;   minInfillLength,2
;   infillLayerInterval,1
;   internalInfillAngles,45,-45
;   overlapInternalInfillAngles,0
;   externalInfillAngles,45,-45
;   generateSupport,1
;   supportExtruder,0
;   supportInfillPercentage,45
;   supportExtraInflation,0
;   supportBaseLayers,0
;   denseSupportExtruder,0
;   denseSupportLayers,0
;   denseSupportInfillPercentage,70
;   supportLayerInterval,1
;   supportHorizontalPartOffset,0.3
;   supportUpperSeparationLayers,1
;   supportLowerSeparationLayers,1
;   supportType,0
;   supportGridSpacing,4
;   maxOverhangAngle,89
;   supportAngles,0
;   temperatureName,Primary Extruder,Heated Bed
;   temperatureNumber,0,1
;   temperatureSetpointCount,1,1
;   temperatureSetpointLayers,1,1
;   temperatureSetpointTemperatures,205,50
;   temperatureStabilizeAtStartup,1,1
;   temperatureHeatedBed,0,1
;   fanLayers,1,2
;   fanSpeeds,0,100
;   blipFanToFullPower,0
;   adjustSpeedForCooling,1
;   minSpeedLayerTime,15
;   minCoolingSpeedSlowdown,15
;   increaseFanForCooling,0
;   minFanLayerTime,45
;   maxCoolingFanSpeed,100
;   increaseFanForBridging,0
;   bridgingFanSpeed,100
;   use5D,1
;   relativeEdistances,0
;   allowEaxisZeroing,1
;   independentExtruderAxes,0
;   includeM10123,0
;   stickySupport,1
;   applyToolheadOffsets,0
;   gcodeXoffset,0
;   gcodeYoffset,0
;   gcodeZoffset,0
;   overrideMachineDefinition,1
;   machineTypeOverride,0
;   strokeXoverride,325
;   strokeYoverride,325
;   strokeZoverride,400
;   originOffsetXoverride,0
;   originOffsetYoverride,0
;   originOffsetZoverride,0
;   homeXdirOverride,-1
;   homeYdirOverride,-1
;   homeZdirOverride,-1
;   flipXoverride,1
;   flipYoverride,-1
;   flipZoverride,1
;   toolheadOffsets,0,0|0,0|0,0|0,0|0,0|0,0
;   overrideFirmwareConfiguration,0
;   firmwareTypeOverride,RepRap (Marlin/Repetier/Sprinter)
;   GPXconfigOverride,r2
;   baudRateOverride,115200
;   overridePrinterModels,0
;   printerModelsOverride
;   startingGcode,G28 ; home all axes,G1 Z30 F3000,M190 S[bed1_temperature],M109 S[extruder0_temperature],G29 S1,G92 E0,G1 X0 Y0 Z0.2 F3000 ; go outside printing area,G1 X60.0 E9.0  F1000.0 ; intro line,G1 X100.0 E12.5  F1000.0 ; intro line,G92 E0
;   layerChangeGcode,
;   retractionGcode,
;   toolChangeGcode,
;   endingGcode,G28 X0,G90 ; Posicion Absoluta,M104 S0 ; turn off extruder,M140 S0 ; turn off bed,M84 ; disable motors,M107 ; turn off fan,
;   exportFileFormat,gcode
;   celebration,0
;   celebrationSong,Star Wars
;   postProcessing,
;   defaultSpeed,3900
;   outlineUnderspeed,0.45
;   solidInfillUnderspeed,0.6
;   supportUnderspeed,0.65
;   rapidXYspeed,12000
;   rapidZspeed,720
;   minBridgingArea,50
;   bridgingExtraInflation,1
;   bridgingExtrusionMultiplier,1
;   bridgingSpeedMultiplier,1
;   useFixedBridgingAngle,0
;   fixedBridgingAngle,0
;   applyBridgingToPerimeters,0
;   filamentDiameters,1.75|1.75|1.75|1.75|1.75|1.75
;   filamentPricesPerKg,16|16|16|16|16|16
;   filamentDensities,1.25|1.25|1.25|1.25|1.25|1.25
;   useMinPrintHeight,0
;   minPrintHeight,0
;   useMaxPrintHeight,0
;   maxPrintHeight,50
;   useDiaphragm,0
;   diaphragmLayerInterval,20
;   robustSlicing,1
;   mergeAllIntoSolid,0
;   onlyRetractWhenCrossingOutline,1
;   retractBetweenLayers,1
;   useRetractionMinTravel,1
;   retractionMinTravel,3
;   retractWhileWiping,1
;   onlyWipeOutlines,1
;   avoidCrossingOutline,1
;   maxMovementDetourFactor,5
;   toolChangeRetractionDistance,12
;   toolChangeExtraRestartDistance,-0.5
;   toolChangeRetractionSpeed,600
;   externalThinWallType,0
;   internalThinWallType,1
;   thinWallAllowedOverlapPercentage,10
;   singleExtrusionMinLength,1
;   singleExtrusionMinPrintingWidthPercentage,50
;   singleExtrusionMaxPrintingWidthPercentage,200
;   singleExtrusionEndpointExtension,0.2
;   horizontalSizeCompensation,0
G90
M82
M106 S0
G28 ; home all axes
G1 Z30 F3000
M190 S50
M109 S205
G29 S1
G92 E0
G1 X0 Y0 Z0.2 F3000 ; go outside printing area
G1 X60.0 E9.0  F1000.0 ; intro line
G1 X100.0 E12.5  F1000.0 ; intro line
G92 E0
; process Process1
; layer 1, Z = 0.250
T0
G92 E0.0000
G1 E-1.2000 F2400
; feature skirt
; tool H0.250 W0.456
G1 Z0.400 F720
G1 X136.388 Y148.321 F12000
G1 Z0.250 F720
G1 E0.0000 F2400
G92 E0.0000
G1 X136.533 Y148.198 E0.0088 F1950
G1 X136.980 Y147.861 E0.0349
G1 X137.145 Y147.752 E0.0440
G1 X137.630 Y147.472 E0.0700
G1 X137.799 Y147.387 E0.0788
G1 X138.287 Y147.178 E0.1035
G1 X138.466 Y147.113 E0.1123
G1 X139.003 Y146.954 E0.1384
G1 X139.195 Y146.909 E0.1475
G1 X139.785 Y146.811 E0.1753
G1 X140.049 Y146.789 E0.1876
G1 X153.499 Y146.771 E0.8123
G1 X154.934 Y147.542 E0.8880
G1 X155.766 Y148.801 E0.9581
G1 X156.062 Y149.191 E0.9808
G1 X156.447 Y149.636 E1.0082
G1 X156.796 Y149.989 E1.0312
G1 X157.171 Y150.325 E1.0546
G1 X157.566 Y150.638 E1.0780
G1 X157.973 Y150.921 E1.1011
G1 X158.477 Y151.226 E1.1284
G1 X158.918 Y151.455 E1.1515
G1 X159.379 Y151.659 E1.1749
G1 X159.850 Y151.835 E1.1982
G1 X160.332 Y151.981 E1.2216
G1 X160.821 Y152.098 E1.2450
G1 X161.311 Y152.184 E1.2681
G1 X161.896 Y152.248 E1.2954
G1 X162.392 Y152.270 E1.3185
G1 X162.889 Y152.261 E1.3416
G1 X163.469 Y152.213 E1.3686
G1 X164.044 Y152.125 E1.3956
G1 X164.529 Y152.018 E1.4187
G1 X165.007 Y151.881 E1.4418
G1 X165.561 Y151.683 E1.4691
G1 X166.010 Y151.488 E1.4919
G1 X166.535 Y151.219 E1.5192
G1 X166.961 Y150.964 E1.5423
G1 X167.370 Y150.684 E1.5654
G1 X167.834 Y150.320 E1.5927
G1 X168.199 Y149.994 E1.6155
G1 X168.611 Y149.573 E1.6428
G1 X168.930 Y149.202 E1.6656
G1 X169.284 Y148.730 E1.6929
G1 X170.057 Y147.549 E1.7585
G1 X171.494 Y146.772 E1.8344
G1 X184.693 Y146.774 E2.4475
G1 X184.868 Y146.783 E2.4556
G1 X185.513 Y146.854 E2.4858
G1 X185.742 Y146.896 E2.4966
G1 X186.369 Y147.058 E2.5266
G1 X186.583 Y147.130 E2.5371
G1 X187.178 Y147.376 E2.5671
G1 X187.380 Y147.477 E2.5775
G1 X187.929 Y147.800 E2.6071
G1 X188.103 Y147.919 E2.6169
G1 X188.550 Y148.268 E2.6432
G1 X188.693 Y148.394 E2.6521
G1 X189.069 Y148.767 E2.6767
G1 X189.196 Y148.909 E2.6855
G1 X189.543 Y149.344 E2.7114
G1 X189.652 Y149.500 E2.7202
G1 X189.931 Y149.951 E2.7449
G1 X190.022 Y150.118 E2.7537
G1 X190.257 Y150.622 E2.7795
G1 X190.327 Y150.799 E2.7884
G1 X190.506 Y151.343 E2.8150
G1 X190.570 Y151.611 E2.8277
G1 X190.708 Y152.537 E2.8712
G1 X190.726 Y152.775 E2.8824
G1 X190.727 Y172.156 E3.7825
G1 X190.720 Y172.311 E3.7897
G1 X190.661 Y172.920 E3.8182
G1 X190.622 Y173.150 E3.8290
G1 X190.460 Y173.811 E3.8606
G1 X190.386 Y174.039 E3.8717
G1 X190.128 Y174.669 E3.9033
G1 X190.025 Y174.877 E3.9141
G1 X189.700 Y175.429 E3.9439
G1 X189.581 Y175.603 E3.9537
G1 X189.230 Y176.053 E3.9802
G1 X189.099 Y176.201 E3.9894
G1 X188.701 Y176.599 E4.0155
G1 X188.553 Y176.730 E4.0247
G1 X188.112 Y177.075 E4.0507
G1 X187.955 Y177.183 E4.0596
G1 X187.504 Y177.456 E4.0840
G1 X187.343 Y177.542 E4.0925
G1 X186.865 Y177.763 E4.1170
G1 X186.687 Y177.832 E4.1259
G1 X186.155 Y178.005 E4.1519
G1 X185.964 Y178.054 E4.1610
G1 X185.415 Y178.161 E4.1870
G1 X185.225 Y178.187 E4.1959
G1 X184.731 Y178.223 E4.2189
G1 X184.612 Y178.228 E4.2244
G1 X140.407 Y178.228 E6.2776
G1 X140.273 Y178.222 E6.2839
G1 X139.644 Y178.170 E6.3132
G1 X139.408 Y178.133 E6.3243
G1 X138.741 Y177.976 E6.3561
G1 X138.513 Y177.904 E6.3672
G1 X137.877 Y177.650 E6.3990
G1 X137.662 Y177.545 E6.4101
G1 X137.083 Y177.208 E6.4412
G1 X136.908 Y177.089 E6.4511
G1 X136.480 Y176.758 E6.4762
G1 X136.337 Y176.633 E6.4850
G1 X135.908 Y176.211 E6.5130
G1 X135.724 Y175.997 E6.5261
G1 X135.142 Y175.180 E6.5727
G1 X134.964 Y174.859 E6.5897
G1 X134.581 Y173.935 E6.6362
G1 X134.498 Y173.674 E6.6489
G1 X134.372 Y173.115 E6.6755
G1 X134.341 Y172.927 E6.6844
G1 X134.284 Y172.384 E6.7097
G1 X134.275 Y172.216 E6.7176
G1 X134.272 Y152.885 E7.6155
G1 X134.277 Y152.758 E7.6214
G1 X134.319 Y152.231 E7.6459
G1 X134.346 Y152.036 E7.6551
G1 X134.459 Y151.480 E7.6814
G1 X134.513 Y151.283 E7.6909
G1 X134.705 Y150.718 E7.7186
G1 X134.782 Y150.529 E7.7281
G1 X135.029 Y150.022 E7.7543
G1 X135.123 Y149.856 E7.7631
G1 X135.410 Y149.410 E7.7877
G1 X135.522 Y149.257 E7.7966
G1 X135.876 Y148.827 E7.8224
G1 X136.005 Y148.688 E7.8313
G1 X136.388 Y148.321 E7.8559
G92 E0.0000
G1 E-1.2000 F2400
; feature inner perimeter
G1 Z0.650 F720
G1 X138.700 Y150.893 F12000
G1 X138.685 Y150.907
G1 X139.291 Y151.589
G1 Z0.250 F720
G1 E0.0000 F2400
G92 E0.0000
G1 X139.475 Y151.451 E0.0106 F1414
G1 X139.673 Y151.336 E0.0213
G1 X139.862 Y151.255 E0.0309
G1 X140.082 Y151.190 E0.0415
G1 X140.311 Y151.151 E0.0523
G1 X140.530 Y151.140 E0.0625
G1 X152.076 Y151.140 E0.5988
G1 X152.200 Y151.327 E0.6092
G1 X152.667 Y151.944 E0.6451
G1 X153.240 Y152.605 E0.6857
G1 X153.783 Y153.154 E0.7216
G1 X154.356 Y153.667 E0.7573
G1 X154.959 Y154.145 E0.7931
G1 X155.592 Y154.586 E0.8289
G1 X156.340 Y155.038 E0.8695
G1 X157.026 Y155.394 E0.9054
G1 X157.729 Y155.706 E0.9411
G1 X158.450 Y155.974 E0.9769
G1 X159.186 Y156.198 E1.0126
G1 X159.934 Y156.377 E1.0483
G1 X160.695 Y156.511 E1.0842
G1 X161.563 Y156.606 E1.1248
G1 X162.335 Y156.639 E1.1607
G1 X163.108 Y156.626 E1.1965
G1 X163.981 Y156.554 E1.2372
G1 X164.847 Y156.421 E1.2780
G1 X165.601 Y156.254 E1.3138
G1 X166.344 Y156.042 E1.3497
G1 X167.167 Y155.748 E1.3903
G1 X167.877 Y155.440 E1.4263
G1 X168.655 Y155.041 E1.4669
G1 X169.318 Y154.644 E1.5027
G1 X169.955 Y154.208 E1.5386
G1 X170.642 Y153.669 E1.5792
G1 X171.219 Y153.152 E1.6152
G1 X171.831 Y152.527 E1.6558
G1 X172.336 Y151.940 E1.6917
G1 X172.861 Y151.241 E1.7324
G1 X172.927 Y151.140 E1.7380
G1 X184.542 Y151.142 E2.2775
G1 X184.841 Y151.175 E2.2914
G1 X185.089 Y151.239 E2.3033
G1 X185.329 Y151.338 E2.3154
G1 X185.556 Y151.472 E2.3276
G1 X185.733 Y151.610 E2.3380
G1 X185.879 Y151.755 E2.3476
G1 X186.023 Y151.936 E2.3584
G1 X186.132 Y152.111 E2.3679
G1 X186.230 Y152.321 E2.3787
G1 X186.295 Y152.519 E2.3884
G1 X186.338 Y152.725 E2.3981
G1 X186.358 Y152.948 E2.4085
G1 X186.359 Y172.024 E3.2946
G1 X186.332 Y172.304 E3.3076
G1 X186.266 Y172.574 E3.3205
G1 X186.161 Y172.831 E3.3334
G1 X186.028 Y173.056 E3.3456
G1 X185.892 Y173.231 E3.3559
G1 X185.731 Y173.392 E3.3664
G1 X185.550 Y173.533 E3.3771
G1 X185.372 Y173.641 E3.3868
G1 X185.183 Y173.728 E3.3964
G1 X184.965 Y173.799 E3.4071
G1 X184.740 Y173.843 E3.4177
G1 X184.510 Y173.860 E3.4284
G1 X140.521 Y173.860 E5.4716
G1 X140.209 Y173.834 E5.4862
G1 X139.942 Y173.771 E5.4989
G1 X139.686 Y173.669 E5.5117
G1 X139.440 Y173.525 E5.5250
G1 X139.283 Y173.404 E5.5342
G1 X139.118 Y173.241 E5.5449
G1 X138.987 Y173.079 E5.5546
G1 X138.875 Y172.901 E5.5644
G1 X138.783 Y172.711 E5.5742
G1 X138.714 Y172.512 E5.5840
G1 X138.668 Y172.309 E5.5936
G1 X138.643 Y172.071 E5.6048
G1 X138.640 Y152.992 E6.4909
G1 X138.660 Y152.742 E6.5026
G1 X138.705 Y152.522 E6.5130
G1 X138.785 Y152.287 E6.5245
G1 X138.884 Y152.083 E6.5351
G1 X138.995 Y151.910 E6.5446
G1 X139.143 Y151.731 E6.5554
G1 X139.291 Y151.589 E6.5650
G1 X138.995 Y151.241 F12000
G92 E0.0000
G1 X139.222 Y151.070 E0.0132 F1414
G1 X139.468 Y150.928 E0.0264
G1 X139.707 Y150.825 E0.0384
G1 X139.979 Y150.745 E0.0516
G1 X140.261 Y150.697 E0.0649
G1 X140.518 Y150.684 E0.0769
G1 X152.321 Y150.684 E0.6251
G1 X152.572 Y151.063 E0.6462
G1 X153.022 Y151.656 E0.6808
G1 X153.575 Y152.295 E0.7200
G1 X154.097 Y152.823 E0.7545
G1 X154.650 Y153.318 E0.7890
G1 X155.231 Y153.779 E0.8234
G1 X155.841 Y154.203 E0.8579
G1 X156.564 Y154.640 E0.8972
G1 X157.223 Y154.982 E0.9317
G1 X157.901 Y155.283 E0.9662
G1 X158.596 Y155.542 E1.0006
G1 X159.306 Y155.758 E1.0350
G1 X160.027 Y155.931 E1.0695
G1 X160.760 Y156.059 E1.1040
G1 X161.598 Y156.151 E1.1432
G1 X162.341 Y156.183 E1.1778
G1 X163.085 Y156.170 E1.2123
G1 X163.927 Y156.101 E1.2516
G1 X164.763 Y155.972 E1.2909
G1 X165.489 Y155.812 E1.3254
G1 X166.204 Y155.608 E1.3599
G1 X166.999 Y155.323 E1.3991
G1 X167.682 Y155.027 E1.4337
G1 X168.434 Y154.642 E1.4730
G1 X169.072 Y154.260 E1.5075
G1 X169.685 Y153.841 E1.5420
G1 X170.349 Y153.319 E1.5812
G1 X170.904 Y152.822 E1.6158
G1 X171.495 Y152.219 E1.6550
G1 X171.980 Y151.654 E1.6896
G1 X172.488 Y150.979 E1.7289
G1 X172.681 Y150.684 E1.7452
G1 X184.567 Y150.686 E2.2973
G1 X184.923 Y150.725 E2.3140
G1 X185.234 Y150.805 E2.3289
G1 X185.533 Y150.929 E2.3439
G1 X185.813 Y151.094 E2.3590
G1 X186.035 Y151.267 E2.3721
G1 X186.219 Y151.450 E2.3841
G1 X186.397 Y151.674 E2.3974
G1 X186.534 Y151.894 E2.4095
G1 X186.654 Y152.153 E2.4227
G1 X186.736 Y152.401 E2.4348
G1 X186.789 Y152.658 E2.4470
G1 X186.814 Y152.927 E2.4596
G1 X186.815 Y172.046 E3.3476
G1 X186.783 Y172.381 E3.3632
G1 X186.701 Y172.715 E3.3792
G1 X186.570 Y173.034 E3.3952
G1 X186.406 Y173.313 E3.4103
G1 X186.234 Y173.534 E3.4233
G1 X186.034 Y173.734 E3.4364
G1 X185.810 Y173.909 E3.4496
G1 X185.587 Y174.044 E3.4617
G1 X185.350 Y174.153 E3.4739
G1 X185.080 Y174.241 E3.4871
G1 X184.801 Y174.295 E3.5002
G1 X184.527 Y174.316 E3.5130
G1 X140.502 Y174.316 E5.5578
G1 X140.138 Y174.286 E5.5748
G1 X139.804 Y174.207 E5.5908
G1 X139.486 Y174.080 E5.6067
G1 X139.184 Y173.904 E5.6229
G1 X138.982 Y173.748 E5.6347
G1 X138.779 Y173.548 E5.6480
G1 X138.615 Y173.344 E5.6601
G1 X138.475 Y173.122 E5.6723
G1 X138.361 Y172.886 E5.6845
G1 X138.275 Y172.638 E5.6967
G1 X138.217 Y172.383 E5.7088
G1 X138.187 Y172.095 E5.7223
G1 X138.184 Y152.974 E6.6104
G1 X138.208 Y152.678 E6.6242
G1 X138.264 Y152.402 E6.6373
G1 X138.362 Y152.113 E6.6515
G1 X138.486 Y151.859 E6.6646
G1 X138.626 Y151.641 E6.6767
G1 X138.808 Y151.420 E6.6899
G1 X138.995 Y151.241 E6.7020
; feature outer perimeter
G1 X138.700 Y150.893 F12000
G92 E0.0000
G1 X138.970 Y150.689 E0.0157 F878
G1 X139.264 Y150.519 E0.0315
G1 X139.552 Y150.396 E0.0460
G1 X139.876 Y150.299 E0.0618
G1 X140.211 Y150.243 E0.0775
G1 X140.506 Y150.228 E0.0913
G1 X152.567 Y150.228 E0.6514
G1 X152.944 Y150.799 E0.6832
G1 X153.376 Y151.369 E0.7165
G1 X153.910 Y151.985 E0.7543
G1 X154.412 Y152.493 E0.7875
G1 X154.944 Y152.969 E0.8206
G1 X155.503 Y153.412 E0.8538
G1 X156.089 Y153.821 E0.8870
G1 X156.787 Y154.242 E0.9248
G1 X157.421 Y154.571 E0.9580
G1 X158.073 Y154.861 E0.9912
G1 X158.742 Y155.110 E1.0243
G1 X159.425 Y155.318 E1.0575
G1 X160.120 Y155.484 E1.0906
G1 X160.824 Y155.608 E1.1239
G1 X161.633 Y155.696 E1.1616
G1 X162.347 Y155.727 E1.1949
G1 X163.062 Y155.715 E1.2281
G1 X163.874 Y155.647 E1.2659
G1 X164.680 Y155.524 E1.3038
