; G-Code generated by Simplify3D(R) Version 4.1.2
; Jul 24, 2020 at 1:27:32 AM
; Settings Summary
;   processName,Process1
;   applyToModels,xyzCalibration_cube
;   profileName,Hbot XL
;   profileVersion,2020-07-20 20:46:26
;   baseProfile,Default
;   printMaterial,PLA
;   printQuality,Medium
;   printExtruders,
;   extruderName,Primary Extruder
;   extruderToolheadNumber,0
;   extruderDiameter,0.4
;   extruderAutoWidth,1
;   extruderWidth,0.48
;   extrusionMultiplier,0.98
;   extruderUseRetract,1
;   extruderRetractionDistance,1.2
;   extruderExtraRestartDistance,0
;   extruderRetractionZLift,0.4
;   extruderRetractionSpeed,2400
;   extruderUseCoasting,0
;   extruderCoastingDistance,0.3
;   extruderUseWipe,1
;   extruderWipeDistance,1
;   primaryExtruder,0
;   layerHeight,0.2
;   topSolidLayers,3
;   bottomSolidLayers,3
;   perimeterOutlines,3
;   printPerimetersInsideOut,1
;   startPointOption,3
;   startPointOriginX,0
;   startPointOriginY,0
;   sequentialIslands,0
;   spiralVaseMode,0
;   firstLayerHeightPercentage,125
;   firstLayerWidthPercentage,95
;   firstLayerUnderspeed,0.5
;   useRaft,0
;   raftExtruder,0
;   raftTopLayers,1
;   raftBaseLayers,1
;   raftOffset,3
;   raftSeparationDistance,0.14
;   raftTopInfill,100
;   aboveRaftSpeedMultiplier,0.3
;   useSkirt,1
;   skirtExtruder,0
;   skirtLayers,1
;   skirtOutlines,1
;   skirtOffset,3
;   usePrimePillar,0
;   primePillarExtruder,999
;   primePillarWidth,12
;   primePillarLocation,7
;   primePillarSpeedMultiplier,1
;   useOozeShield,0
;   oozeShieldExtruder,999
;   oozeShieldOffset,2
;   oozeShieldOutlines,1
;   oozeShieldSidewallShape,1
;   oozeShieldSidewallAngle,30
;   oozeShieldSpeedMultiplier,1
;   infillExtruder,0
;   internalInfillPattern,Rectilinear
;   externalInfillPattern,Rectilinear
;   infillPercentage,25
;   outlineOverlapPercentage,25
;   infillExtrusionWidthPercentage,100
;   minInfillLength,2
;   infillLayerInterval,1
;   internalInfillAngles,45,-45
;   overlapInternalInfillAngles,0
;   externalInfillAngles,45,-45
;   generateSupport,1
;   supportExtruder,0
;   supportInfillPercentage,45
;   supportExtraInflation,0
;   supportBaseLayers,0
;   denseSupportExtruder,0
;   denseSupportLayers,0
;   denseSupportInfillPercentage,70
;   supportLayerInterval,1
;   supportHorizontalPartOffset,0.3
;   supportUpperSeparationLayers,1
;   supportLowerSeparationLayers,1
;   supportType,0
;   supportGridSpacing,4
;   maxOverhangAngle,89
;   supportAngles,0
;   temperatureName,Primary Extruder,Heated Bed
;   temperatureNumber,0,1
;   temperatureSetpointCount,1,1
;   temperatureSetpointLayers,1,1
;   temperatureSetpointTemperatures,205,50
;   temperatureStabilizeAtStartup,1,1
;   temperatureHeatedBed,0,1
;   fanLayers,1,2
;   fanSpeeds,0,100
;   blipFanToFullPower,0
;   adjustSpeedForCooling,1
;   minSpeedLayerTime,15
;   minCoolingSpeedSlowdown,15
;   increaseFanForCooling,0
;   minFanLayerTime,45
;   maxCoolingFanSpeed,100
;   increaseFanForBridging,0
;   bridgingFanSpeed,100
;   use5D,1
;   relativeEdistances,0
;   allowEaxisZeroing,1
;   independentExtruderAxes,0
;   includeM10123,0
;   stickySupport,1
;   applyToolheadOffsets,0
;   gcodeXoffset,0
;   gcodeYoffset,0
;   gcodeZoffset,0
;   overrideMachineDefinition,1
;   machineTypeOverride,0
;   strokeXoverride,325
;   strokeYoverride,325
;   strokeZoverride,400
;   originOffsetXoverride,0
;   originOffsetYoverride,0
;   originOffsetZoverride,0
;   homeXdirOverride,-1
;   homeYdirOverride,-1
;   homeZdirOverride,-1
;   flipXoverride,1
;   flipYoverride,-1
;   flipZoverride,1
;   toolheadOffsets,0,0|0,0|0,0|0,0|0,0|0,0
;   overrideFirmwareConfiguration,0
;   firmwareTypeOverride,RepRap (Marlin/Repetier/Sprinter)
;   GPXconfigOverride,r2
;   baudRateOverride,115200
;   overridePrinterModels,0
;   printerModelsOverride
;   startingGcode,G28 ; home all axes,G1 Z30 F3000,M190 S[bed1_temperature],M109 S[extruder0_temperature],G29 S1,G92 E0,G1 X0 Y0 Z0.2 F3000 ; go outside printing area,G1 X60.0 E9.0  F1000.0 ; intro line,G1 X100.0 E12.5  F1000.0 ; intro line,G92 E0
;   layerChangeGcode,
;   retractionGcode,
;   toolChangeGcode,
;   endingGcode,G28 X0,G90 ; Posicion Absoluta,M104 S0 ; turn off extruder,M140 S0 ; turn off bed,M84 ; disable motors,M107 ; turn off fan,
;   exportFileFormat,gcode
;   celebration,0
;   celebrationSong,Star Wars
;   postProcessing,
;   defaultSpeed,3900
;   outlineUnderspeed,0.45
;   solidInfillUnderspeed,0.6
;   supportUnderspeed,0.65
;   rapidXYspeed,12000
;   rapidZspeed,720
;   minBridgingArea,50
;   bridgingExtraInflation,1
;   bridgingExtrusionMultiplier,1
;   bridgingSpeedMultiplier,1
;   useFixedBridgingAngle,0
;   fixedBridgingAngle,0
;   applyBridgingToPerimeters,0
;   filamentDiameters,1.75|1.75|1.75|1.75|1.75|1.75
;   filamentPricesPerKg,16|16|16|16|16|16
;   filamentDensities,1.25|1.25|1.25|1.25|1.25|1.25
;   useMinPrintHeight,0
;   minPrintHeight,0
;   useMaxPrintHeight,0
;   maxPrintHeight,50
;   useDiaphragm,0
;   diaphragmLayerInterval,20
;   robustSlicing,1
;   mergeAllIntoSolid,0
;   onlyRetractWhenCrossingOutline,1
;   retractBetweenLayers,1
;   useRetractionMinTravel,1
;   retractionMinTravel,3
;   retractWhileWiping,1
;   onlyWipeOutlines,1
;   avoidCrossingOutline,1
;   maxMovementDetourFactor,5
;   toolChangeRetractionDistance,12
;   toolChangeExtraRestartDistance,-0.5
;   toolChangeRetractionSpeed,600
;   externalThinWallType,0
;   internalThinWallType,1
;   thinWallAllowedOverlapPercentage,10
;   singleExtrusionMinLength,1
;   singleExtrusionMinPrintingWidthPercentage,50
;   singleExtrusionMaxPrintingWidthPercentage,200
;   singleExtrusionEndpointExtension,0.2
;   horizontalSizeCompensation,0
G90
M82
M106 S0
G28 ; home all axes
G1 Z30 F3000
M190 S50
M109 S205
G29 S1
G92 E0
G1 X0 Y0 Z0.2 F3000 ; go outside printing area
G1 X60.0 E9.0  F1000.0 ; intro line
G1 X100.0 E12.5  F1000.0 ; intro line
G92 E0
; process Process1
; layer 1, Z = 0.250
T0
G92 E0.0000
G1 E-1.2000 F2400
; feature skirt
; tool H0.250 W0.456
G1 Z0.400 F720
G1 X149.272 Y151.163 F12000
G1 Z0.250 F720
G1 E0.0000 F2400
G92 E0.0000
G1 X151.163 Y149.272 E0.1242 F1950
G1 X173.837 Y149.272 E1.1774
G1 X175.728 Y151.163 E1.3016
G1 X175.728 Y173.837 E2.3547
G1 X173.837 Y175.728 E2.4790
G1 X151.163 Y175.728 E3.5321
G1 X149.272 Y173.837 E3.6563
G1 X149.272 Y151.163 E4.7095
G92 E0.0000
G1 E-1.2000 F2400
; feature inner perimeter
G1 Z0.650 F720
G1 X152.728 Y152.728 F12000
G1 X152.728 Y153.123
G1 X153.640 Y153.640
G1 Z0.250 F720
G1 E0.0000 F2400
G92 E0.0000
G1 X171.360 Y153.640 E0.8231 F1414
G1 X171.360 Y171.360 E1.6461
G1 X153.640 Y171.360 E2.4692
G1 X153.640 Y153.640 E3.2922
G1 X153.184 Y153.184 F12000
G92 E0.0000
G1 X171.816 Y153.184 E0.8654 F1414
G1 X171.816 Y171.816 E1.7308
G1 X153.184 Y171.816 E2.5962
G1 X153.184 Y153.184 E3.4617
; feature outer perimeter
G1 X152.728 Y152.728 F12000
G92 E0.0000
G1 X172.272 Y152.728 E0.9078 F878
G1 X172.272 Y172.272 E1.8156
G1 X152.728 Y172.272 E2.7233
G1 X152.728 Y152.728 E3.6311
G1 X153.728 Y152.728 F878
; feature solid layer
G1 X170.749 Y153.982 F12000
G92 E0.0000
G1 X171.018 Y154.251 E0.0177 F1170
G1 X171.018 Y154.896 E0.0476
G1 X170.104 Y153.982 E0.1077
G1 X169.459 Y153.982 E0.1376
G1 X171.018 Y155.541 E0.2400
G1 X171.018 Y156.186 E0.2700
G1 X168.814 Y153.982 E0.4147
G1 X168.169 Y153.982 E0.4447
G1 X171.018 Y156.831 E0.6318
G1 X171.018 Y157.475 E0.6617
G1 X167.525 Y153.982 E0.8912
G1 X166.880 Y153.982 E0.9212
G1 X171.018 Y158.120 E1.1930
G1 X171.018 Y158.765 E1.2230
G1 X166.235 Y153.982 E1.5372
G1 X165.590 Y153.982 E1.5671
G1 X171.018 Y159.410 E1.9237
G1 X171.018 Y160.055 E1.9536
G1 X164.945 Y153.982 E2.3525
G1 X164.300 Y153.982 E2.3825
G1 X171.018 Y160.700 E2.8238
G1 X171.018 Y161.345 E2.8537
G1 X163.655 Y153.982 E3.3374
G1 X163.010 Y153.982 E3.3673
G1 X171.018 Y161.990 E3.8933
G1 X171.018 Y162.635 E3.9233
G1 X162.365 Y153.982 E4.4916
G1 X161.721 Y153.982 E4.5216
G1 X171.018 Y163.279 E5.1323
G1 X171.018 Y163.924 E5.1623
G1 X161.076 Y153.982 E5.8153
G1 X160.431 Y153.982 E5.8453
G1 X171.018 Y164.569 E6.5407
G1 X171.018 Y165.214 E6.5707
G1 X159.786 Y153.982 E7.3085
G1 X159.141 Y153.982 E7.3384
G1 X171.018 Y165.859 E8.1186
G1 X171.018 Y166.504 E8.1486
G1 X158.496 Y153.982 E8.9711
G1 X157.851 Y153.982 E9.0010
G1 X171.018 Y167.149 E9.8659
G1 X171.018 Y167.794 E9.8959
G1 X157.206 Y153.982 E10.8031
G1 X156.562 Y153.982 E10.8331
G1 X171.018 Y168.438 E11.7827
G1 X171.018 Y169.083 E11.8126
G1 X155.917 Y153.982 E12.8046
G1 X155.272 Y153.982 E12.8345
G1 X171.018 Y169.728 E13.8689
G1 X171.018 Y170.373 E13.8988
G1 X154.627 Y153.982 E14.9755
G1 X153.982 Y153.982 E15.0054
G1 X171.018 Y171.018 E16.1245
G1 X170.373 Y171.018 E16.1544
G1 X153.982 Y154.627 E17.2311
G1 X153.982 Y155.272 E17.2611
G1 X169.728 Y171.018 E18.2954
G1 X169.083 Y171.018 E18.3254
G1 X153.982 Y155.917 E19.3173
G1 X153.982 Y156.562 E19.3473
G1 X168.438 Y171.018 E20.2969
G1 X167.794 Y171.018 E20.3268
G1 X153.982 Y157.206 E21.2341
G1 X153.982 Y157.851 E21.2640
G1 X167.149 Y171.018 E22.1289
G1 X166.504 Y171.018 E22.1589
G1 X153.982 Y158.496 E22.9814
G1 X153.982 Y159.141 E23.0113
G1 X165.859 Y171.018 E23.7915
G1 X165.214 Y171.018 E23.8215
G1 X153.982 Y159.786 E24.5593
G1 X153.982 Y160.431 E24.5892
G1 X164.569 Y171.018 E25.2847
G1 X163.924 Y171.018 E25.3146
G1 X153.982 Y161.076 E25.9677
G1 X153.982 Y161.721 E25.9976
G1 X163.279 Y171.018 E26.6084
G1 X162.635 Y171.018 E26.6383
G1 X153.982 Y162.365 E27.2067
G1 X153.982 Y163.010 E27.2366
G1 X161.990 Y171.018 E27.7626
G1 X161.345 Y171.018 E27.7926
G1 X153.982 Y163.655 E28.2762
G1 X153.982 Y164.300 E28.3062
G1 X160.700 Y171.018 E28.7475
G1 X160.055 Y171.018 E28.7774
G1 X153.982 Y164.945 E29.1763
G1 X153.982 Y165.590 E29.2063
G1 X159.410 Y171.018 E29.5629
G1 X158.765 Y171.018 E29.5928
G1 X153.982 Y166.235 E29.9070
G1 X153.982 Y166.880 E29.9370
G1 X158.120 Y171.018 E30.2088
G1 X157.476 Y171.018 E30.2387
G1 X153.982 Y167.524 E30.4682
G1 X153.982 Y168.169 E30.4982
G1 X156.831 Y171.018 E30.6853
G1 X156.186 Y171.018 E30.7153
G1 X153.982 Y168.814 E30.8600
G1 X153.982 Y169.459 E30.8900
G1 X155.541 Y171.018 E30.9924
G1 X154.896 Y171.018 E31.0223
G1 X153.982 Y170.104 E31.0823
G1 X153.982 Y170.749 E31.1123
G1 X154.251 Y171.018 E31.1300
G92 E0.0000
G1 E-1.2000 F2400
; layer 2, Z = 0.450
M106 S255
; feature inner perimeter
; tool H0.200 W0.480
G1 Z0.650 F720
G1 X153.700 Y153.700 F12000
G1 Z0.450 F720
G1 E0.0000 F2400
G92 E0.0000
G1 X171.300 Y153.700 E0.6884 F2828
G1 X171.300 Y171.300 E1.3768
G1 X153.700 Y171.300 E2.0652
G1 X153.700 Y153.700 E2.7536
G1 X153.220 Y153.220 F12000
G92 E0.0000
G1 X171.780 Y153.220 E0.7260 F2828
G1 X171.780 Y171.780 E1.4519
G1 X153.220 Y171.780 E2.1779
G1 X153.220 Y153.220 E2.9038
; feature outer perimeter
G1 X152.740 Y152.740 F12000
G92 E0.0000
G1 X172.260 Y152.740 E0.7635 F1755
G1 X172.260 Y172.260 E1.5270
G1 X152.740 Y172.260 E2.2905
G1 X152.740 Y152.740 E3.0540
G1 X153.740 Y152.740 F1755
; feature solid layer
G1 X154.060 Y154.648 F12000
G92 E0.0000
G1 X154.648 Y154.060 E0.0325 F2340
G1 X155.327 Y154.060 E0.0591
G1 X154.060 Y155.327 E0.1292
G1 X154.060 Y156.006 E0.1557
G1 X156.006 Y154.060 E0.2634
G1 X156.685 Y154.060 E0.2899
G1 X154.060 Y156.685 E0.4351
G1 X154.060 Y157.364 E0.4617
G1 X157.364 Y154.060 E0.6444
G1 X158.042 Y154.060 E0.6710
G1 X154.060 Y158.042 E0.8912
G1 X154.060 Y158.721 E0.9178
G1 X158.721 Y154.060 E1.1756
G1 X159.400 Y154.060 E1.2022
G1 X154.060 Y159.400 E1.4976
G1 X154.060 Y160.079 E1.5241
G1 X160.079 Y154.060 E1.8571
G1 X160.758 Y154.060 E1.8836
G1 X154.060 Y160.758 E2.2541
G1 X154.060 Y161.437 E2.2807
G1 X161.437 Y154.060 E2.6887
G1 X162.115 Y154.060 E2.7152
G1 X154.060 Y162.115 E3.1608
G1 X154.060 Y162.794 E3.1874
G1 X162.794 Y154.060 E3.6705
G1 X163.473 Y154.060 E3.6971
G1 X154.060 Y163.473 E4.2177
G1 X154.060 Y164.152 E4.2443
G1 X164.152 Y154.060 E4.8025
G1 X164.831 Y154.060 E4.8291
G1 X154.060 Y164.831 E5.4249
G1 X154.060 Y165.509 E5.4514
G1 X165.509 Y154.060 E6.0847
G1 X166.188 Y154.060 E6.1113
G1 X154.060 Y166.188 E6.7822
G1 X154.060 Y166.867 E6.8087
G1 X166.867 Y154.060 E7.5172
G1 X167.546 Y154.060 E7.5437
G1 X154.060 Y167.546 E8.2897
G1 X154.060 Y168.225 E8.3162
G1 X168.225 Y154.060 E9.0998
G1 X168.904 Y154.060 E9.1263
G1 X154.060 Y168.904 E9.9474
G1 X154.060 Y169.582 E9.9740
G1 X169.582 Y154.060 E10.8326
G1 X170.261 Y154.060 E10.8591
G1 X154.060 Y170.261 E11.7553
G1 X154.060 Y170.940 E11.7819
G1 X170.940 Y154.060 E12.7156
G1 X170.940 Y154.739 E12.7421
G1 X154.739 Y170.940 E13.6383
G1 X155.418 Y170.940 E13.6649
G1 X170.940 Y155.418 E14.5235
G1 X170.940 Y156.097 E14.5500
G1 X156.097 Y170.940 E15.3711
G1 X156.775 Y170.940 E15.3977
G1 X170.940 Y156.775 E16.1812
G1 X170.940 Y157.454 E16.2077
G1 X157.454 Y170.940 E16.9537
G1 X158.133 Y170.940 E16.9803
G1 X170.940 Y158.133 E17.6887
G1 X170.940 Y158.812 E17.7152
G1 X158.812 Y170.940 E18.3861
G1 X159.491 Y170.940 E18.4127
G1 X170.940 Y159.491 E19.0460
G1 X170.940 Y160.169 E19.0725
G1 X160.169 Y170.940 E19.6683
G1 X160.848 Y170.940 E19.6949
G1 X170.940 Y160.848 E20.2531
G1 X170.940 Y161.527 E20.2797
G1 X161.527 Y170.940 E20.8003
G1 X162.206 Y170.940 E20.8269
G1 X170.940 Y162.206 E21.3100
G1 X170.940 Y162.885 E21.3366
G1 X162.885 Y170.940 E21.7822
G1 X163.564 Y170.940 E21.8087
G1 X170.940 Y163.564 E22.2167
G1 X170.940 Y164.242 E22.2433
G1 X164.242 Y170.940 E22.6138
G1 X164.921 Y170.940 E22.6403
G1 X170.940 Y164.921 E22.9733
G1 X170.940 Y165.600 E22.9998
G1 X165.600 Y170.940 E23.2952
G1 X166.279 Y170.940 E23.3217
G1 X170.940 Y166.279 E23.5796
G1 X170.940 Y166.958 E23.6061
G1 X166.958 Y170.940 E23.8264
G1 X167.636 Y170.940 E23.8530
G1 X170.940 Y167.636 E24.0357
G1 X170.940 Y168.315 E24.0622
G1 X168.315 Y170.940 E24.2074
G1 X168.994 Y170.940 E24.2340
G1 X170.940 Y168.994 E24.3416
G1 X170.940 Y169.673 E24.3682
G1 X169.673 Y170.940 E24.4383
G1 X170.352 Y170.940 E24.4648
G1 X170.940 Y170.352 E24.4974
G92 E0.0000
G1 E-1.2000 F2400
; layer 3, Z = 0.650
; feature inner perimeter
G1 Z0.850 F720
G1 X153.700 Y153.700 F12000
G1 Z0.650 F720
G1 E0.0000 F2400
G92 E0.0000
G1 X171.300 Y153.700 E0.6884 F2828
G1 X171.300 Y171.300 E1.3768
G1 X153.700 Y171.300 E2.0652
G1 X153.700 Y153.700 E2.7536
G1 X153.220 Y153.220 F12000
G92 E0.0000
G1 X171.780 Y153.220 E0.7260 F2828
G1 X171.780 Y171.780 E1.4519
G1 X153.220 Y171.780 E2.1779
G1 X153.220 Y153.220 E2.9038
; feature outer perimeter
G1 X152.740 Y152.740 F12000
G92 E0.0000
G1 X172.260 Y152.740 E0.7635 F1755
G1 X172.260 Y172.260 E1.5270
G1 X152.740 Y172.260 E2.2905
G1 X152.740 Y152.740 E3.0540
G1 X153.740 Y152.740 F1755
; feature solid layer
G1 X170.352 Y154.060 F12000
G92 E0.0000
G1 X170.940 Y154.648 E0.0325 F2340
G1 X170.940 Y155.327 E0.0591
G1 X169.673 Y154.060 E0.1292
G1 X168.994 Y154.060 E0.1557
G1 X170.940 Y156.006 E0.2634
G1 X170.940 Y156.685 E0.2899
G1 X168.315 Y154.060 E0.4351
G1 X167.636 Y154.060 E0.4617
G1 X170.940 Y157.364 E0.6444
G1 X170.940 Y158.042 E0.6709
G1 X166.958 Y154.060 E0.8912
G1 X166.279 Y154.060 E0.9178
G1 X170.940 Y158.721 E1.1756
G1 X170.940 Y159.400 E1.2022
G1 X165.600 Y154.060 E1.4976
G1 X164.921 Y154.060 E1.5241
G1 X170.940 Y160.079 E1.8570
G1 X170.940 Y160.758 E1.8836
G1 X164.242 Y154.060 E2.2541
G1 X163.564 Y154.060 E2.2806
G1 X170.940 Y161.436 E2.6887
G1 X170.940 Y162.115 E2.7152
G1 X162.885 Y154.060 E3.1608
G1 X162.206 Y154.060 E3.1873
G1 X170.940 Y162.794 E3.6705
G1 X170.940 Y163.473 E3.6970
G1 X161.527 Y154.060 E4.2177
G1 X160.848 Y154.060 E4.2443
G1 X170.940 Y164.152 E4.8025
G1 X170.940 Y164.831 E4.8290
G1 X160.169 Y154.060 E5.4248
G1 X159.491 Y154.060 E5.4514
G1 X170.940 Y165.509 E6.0847
G1 X170.940 Y166.188 E6.1113
G1 X158.812 Y154.060 E6.7821
G1 X158.133 Y154.060 E6.8087
G1 X170.940 Y166.867 E7.5171
G1 X170.940 Y167.546 E7.5437
G1 X157.454 Y154.060 E8.2896
G1 X156.775 Y154.060 E8.3162
G1 X170.940 Y168.225 E9.0997
G1 X170.940 Y168.904 E9.1263
G1 X156.096 Y154.060 E9.9473
G1 X155.418 Y154.060 E9.9739
G1 X170.940 Y169.582 E10.8325
G1 X170.940 Y170.261 E10.8591
G1 X154.739 Y154.060 E11.7552
G1 X154.060 Y154.060 E11.7818
G1 X170.940 Y170.940 E12.7155
G1 X170.261 Y170.940 E12.7421
