; G-Code originally generated by Simplify3D(R) Version 4.1.2
;M80 ; power supply on
G90
M83
G28 ; home all axes
M106 S0
M140 S50 ; custom bed temp
M104 S150                              ; Precaliento nozzle
M190 S50 ; custom bed temp
M572 D0 S0.0                           ; Clear pressure advance.
M220 S100                              ; Set speed factor back to 100% in case it was changed
M221 S100                              ; Set extrusion factor back to 100% in case it was changed
M290 R0 S0                             ; Clear any baby-stepping
M106 S0                                ; Turn part cooling blower off if it is on
M703                                   ; Execute loaded filament's config.g
G90                                    ; absolute positioning
M104 S150                              ; Precaliento nozzle
M109 S150                              ; wait for extruder temp
G1 Z10 F6000                           ; Bajo rapido para hacer el probe
G30                                    ;Establezco altura Z para evitar error Z-datum y que cargue correctamente el offset del probe
;G32                                   ;Por si quiero calibrar (normalmente desactivado)
;G29 S1                                ;Cargo la malla
G1 X0 Y-190 Z80 F6000                  ; Me pongo en posicion para limpiar el filamento
M104 S205        ; set extruder temp
M109 S205        ; wait for extruder temp
G92 E0                                 ;zero the extruded length 
;G1 F200 E30                            ; Saca un poco de filamento
G92 E0                                 ;zero the extruded length again
;M291 S3 R"Remove Filament from nozzle" P"Then press OK"
;G4 S4                                  ; Pausa de 8 segundos (por si no quiero el menu anterior)
M400                                   ; Finish all moves and clear the buffer
M98 P"0:/sys/purga.g"                     ; Fichero de purga por el borde
M82
; process Color1-6-5
; layer 1, Z = 0.200
M201 X5000 Y5000 ; custom raise acceleration limits
M204 P600 ; custom acceleration - A
M205 X10 Y10 ; custom jerk - A
T0
G92 E0.0000
G1 E-1.2 F2100 ; custom retraction
; feature inner perimeter
; tool H0.200 W0.576
G1 Z0.400 F1200
G1 X-41.635999999999996 Y-46.638 F6000
G1 Z0.200 F1200
G1 E0 F2100 ; custom un-retraction/prime
G92 E0.0000
G1 X41.635999999999996 Y-46.638 E3.5895 F1395
G1 X41.635999999999996 Y-16.21 E4.9011
G1 X9.362000000000002 Y13.850000000000001 E6.8022
G1 X6.4339999999999975 Y13.850000000000001 E6.9284
G1 X6.4339999999999975 Y16.578000000000003 E7.0460
G1 X-24.636 Y45.516999999999996 E8.8762
G1 X-24.636 Y30.804000000000002 E9.5104
G1 X-41.635999999999996 Y30.804000000000002 E10.2432
G1 X-41.635999999999996 Y-46.638 E13.5813
; feature outer perimeter
G1 X-42.212 Y-47.214 F6000
G92 E0.0000
G1 X42.212 Y-47.214 E3.6391 F930
G1 X42.212 Y-15.959000000000003 E4.9863
G1 X9.588999999999999 Y14.426000000000002 E6.9081
G1 X7.009999999999998 Y14.426000000000002 E7.0192
G1 X7.009999999999998 Y16.828000000000003 E7.1228
G1 X-25.212 Y46.84 E9.0208
G1 X-25.212 Y31.379999999999995 E9.6873
G1 X-42.212 Y31.379999999999995 E10.4200
G1 X-42.212 Y-47.214 E13.8078
; feature solid layer
G1 X-41.29 Y30.393 F6000
G92 E0.0000
G1 X-41.225 Y30.458 E0.0040 F1488
G1 X-40.411 Y30.458 E0.0391
G1 X-41.29 Y29.578999999999994 E0.0927
G1 X-41.29 Y28.763999999999996 E0.1278
G1 X-39.596000000000004 Y30.458 E0.2311
G1 X-38.781 Y30.458 E0.2662
G1 X-41.29 Y27.948999999999998 E0.4192
G1 X-41.29 Y27.135000000000005 E0.4543
G1 X-37.967 Y30.458 E0.6569
G1 X-37.152 Y30.458 E0.6920
G1 X-41.29 Y26.319999999999993 E0.9442
G1 X-41.29 Y25.506 E0.9794
G1 X-36.338 Y30.458 E1.2813
G1 X-35.522999999999996 Y30.458 E1.3164
G1 X-41.29 Y24.691000000000003 E1.6680
G1 X-41.29 Y23.876999999999995 E1.7031
G1 X-34.709 Y30.458 E2.1043
G1 X-33.894 Y30.458 E2.1394
G1 X-41.29 Y23.061999999999998 E2.5903
G1 X-41.29 Y22.247 E2.6254
G1 X-33.079 Y30.458 E3.1260
G1 X-32.265 Y30.458 E3.1611
G1 X-41.29 Y21.433000000000007 E3.7113
G1 X-41.29 Y20.617999999999995 E3.7464
G1 X-31.45 Y30.458 E4.3462
G1 X-30.636 Y30.458 E4.3813
G1 X-41.29 Y19.804000000000002 E5.0309
G1 X-41.29 Y18.989000000000004 E5.0660
G1 X-29.821 Y30.458 E5.7651
G1 X-29.006 Y30.458 E5.8003
G1 X-41.29 Y18.174000000000007 E6.5491
G1 X-41.29 Y17.36 E6.5842
G1 X-28.192 Y30.458 E7.3827
G1 X-27.377 Y30.458 E7.4178
G1 X-41.29 Y16.545 E8.2659
G1 X-41.29 Y15.730999999999995 E8.3011
G1 X-26.563 Y30.458 E9.1989
G1 X-25.748 Y30.458 E9.2340
G1 X-41.29 Y14.915999999999997 E10.1814
G1 X-41.29 Y14.102000000000004 E10.2165
G1 X-24.934 Y30.458 E11.2136
G1 X-24.29 Y30.458 E11.2414
G1 X-24.29 Y31.102000000000004 E11.2691
G1 X-17.238 Y38.153999999999996 E11.6990
G1 X-16.816000000000003 Y37.760999999999996 E11.7238
G1 X-41.29 Y13.286999999999999 E13.2158
G1 X-41.29 Y12.472000000000001 E13.2509
G1 X-16.395000000000003 Y37.367999999999995 E14.7685
G1 X-15.972999999999999 Y36.974999999999994 E14.7934
G1 X-41.29 Y11.658000000000001 E16.3367
G1 X-41.29 Y10.843000000000004 E16.3718
G1 X-15.551000000000002 Y36.581999999999994 E17.9409
G1 X-15.128999999999998 Y36.19 E17.9658
G1 X-41.29 Y10.029000000000003 E19.5605
G1 X-41.29 Y9.213999999999999 E19.5956
G1 X-14.707999999999998 Y35.797 E21.2161
G1 X-14.286000000000001 Y35.403999999999996 E21.2410
G1 X-41.29 Y8.399000000000001 E22.8872
G1 X-41.29 Y7.585000000000001 E22.9223
G1 X-13.863999999999997 Y35.010999999999996 E24.5942
G1 X-13.442 Y34.617999999999995 E24.6190
G1 X-41.29 Y6.770000000000003 E26.3166
G1 X-41.29 Y5.956000000000003 E26.3518
G1 X-13.021 Y34.224999999999994 E28.0751
G1 X-12.598999999999997 Y33.833 E28.0999
G1 X-41.29 Y5.140999999999998 E29.8490
G1 X-41.29 Y4.3260000000000005 E29.8841
G1 X-12.177 Y33.44 E31.6588
G1 X-11.755000000000003 Y33.047 E31.6837
G1 X-41.29 Y3.5120000000000005 E33.4841
G1 X-41.29 Y2.6970000000000027 E33.5192
G1 X-11.334000000000003 Y32.653999999999996 E35.3454
G1 X-10.911999999999999 Y32.260999999999996 E35.3702
G1 X-41.29 Y1.8830000000000027 E37.2221
G1 X-41.29 Y1.0679999999999978 E37.2572
G1 X-10.490000000000002 Y31.867999999999995 E39.1348
G1 X-10.067999999999998 Y31.476 E39.1597
G1 X-41.29 Y0.2539999999999978 E41.0630
G1 X-41.29 Y-0.5609999999999999 E41.0981
G1 X-9.646 Y31.083 E43.0271
G1 X-9.225000000000001 Y30.689999999999998 E43.0519
G1 X-41.29 Y-1.3759999999999977 E45.0066
G1 X-41.29 Y-2.1899999999999977 E45.0418
G1 X-8.802999999999997 Y30.296999999999997 E47.0222
G1 X-8.381 Y29.903999999999996 E47.0470
G1 X-41.29 Y-3.0050000000000026 E49.0532
G1 X-41.29 Y-3.8190000000000026 E49.0883
G1 X-7.959000000000003 Y29.512 E51.1201
G1 X-7.537999999999997 Y29.119 E51.1450
G1 X-41.29 Y-4.634 E53.2025
G1 X-41.29 Y-5.448999999999998 E53.2377
G1 X-7.116 Y28.726 E55.3209
G1 X-6.694000000000003 Y28.333 E55.3458
G1 X-41.29 Y-6.262999999999998 E57.4547
G1 X-41.29 Y-7.078000000000003 E57.4899
G1 X-6.2719999999999985 Y27.939999999999998 E59.6245
G1 X-5.850999999999999 Y27.546999999999997 E59.6494
G1 X-41.29 Y-7.892000000000003 E61.8098
G1 X-41.29 Y-8.707 E61.8449
G1 X-5.429000000000002 Y27.155 E64.0310
G1 X-5.006999999999998 Y26.762 E64.0559
G1 X-41.29 Y-9.521999999999998 E66.2677
G1 X-41.29 Y-10.335999999999999 E66.3028
G1 X-4.585000000000001 Y26.369 E68.5403
G1 X-4.1640000000000015 Y25.976 E68.5652
G1 X-41.29 Y-11.151000000000003 E70.8284
G1 X-41.29 Y-11.965000000000003 E70.8635
G1 X-3.7419999999999973 Y25.583 E73.1525
G1 X-3.3200000000000003 Y25.189999999999998 E73.1773
G1 X-41.29 Y-12.780000000000001 E75.4920
G1 X-41.29 Y-13.594000000000001 E75.5271
G1 X-2.8980000000000032 Y24.798000000000002 E77.8675
G1 X-2.4769999999999968 Y24.405 E77.8923
G1 X-41.29 Y-14.408999999999999 E80.2584
G1 X-41.29 Y-15.223999999999997 E80.2935
G1 X-2.0549999999999997 Y24.012 E82.6853
G1 X-1.6330000000000027 Y23.619 E82.7101
G1 X-41.29 Y-16.037999999999997 E85.1276
G1 X-41.29 Y-16.853 E85.1628
G1 X-1.2109999999999985 Y23.226 E87.6060
G1 X-0.7899999999999991 Y22.833 E87.6308
G1 X-41.29 Y-17.667 E90.0997
G1 X-41.29 Y-18.482 E90.1349
G1 X-0.3680000000000021 Y22.441000000000003 E92.6295
G1 X0.054000000000002046 Y22.048000000000002 E92.6543
G1 X-41.29 Y-19.297 E95.1747
G1 X-41.29 Y-20.111 E95.2098
G1 X0.4759999999999991 Y21.655 E97.7558
G1 X0.8969999999999985 Y21.262 E97.7807
G1 X-41.29 Y-20.926 E100.3525
G1 X-41.29 Y-21.74 E100.3876
G1 X1.3190000000000026 Y20.869 E102.9850
G1 X1.7409999999999997 Y20.476 E103.0099
G1 X-41.29 Y-22.555 E105.6331
G1 X-41.29 Y-23.369 E105.6682
G1 X2.1629999999999967 Y20.084000000000003 E108.3171
G1 X2.584000000000003 Y19.691000000000003 E108.3419
G1 X-41.29 Y-24.184 E111.0165
G1 X-41.29 Y-24.999 E111.0516
G1 X3.0060000000000002 Y19.298000000000002 E113.7520
G1 X3.4279999999999973 Y18.905 E113.7768
G1 X-41.29 Y-25.813 E116.5028
G1 X-41.29 Y-26.628 E116.5379
G1 X3.8500000000000014 Y18.512 E119.2897
G1 X4.271000000000001 Y18.119 E119.3145
G1 X-41.29 Y-27.442 E122.0920
G1 X-41.29 Y-28.257 E122.1271
G1 X4.692999999999998 Y17.727000000000004 E124.9302
G1 X5.115000000000002 Y17.334000000000003 E124.9551
G1 X-41.29 Y-29.072 E127.7840
G1 X-41.29 Y-29.886 E127.8191
G1 X5.536999999999999 Y16.941000000000003 E130.6736
G1 X5.959000000000003 Y16.548000000000002 E130.6985
G1 X-41.29 Y-30.701 E133.5788
G1 X-41.29 Y-31.515 E133.6139
G1 X6.088000000000001 Y15.863 E136.5021
G1 X6.088000000000001 Y15.049000000000007 E136.5372
G1 X-41.29 Y-32.33 E139.4254
G1 X-41.29 Y-33.144999999999996 E139.4605
G1 X6.088000000000001 Y14.233999999999995 E142.3487
G1 X6.088000000000001 Y13.505000000000003 E142.3802
G1 X6.1739999999999995 Y13.505000000000003 E142.3838
G1 X-41.29 Y-33.959 E145.2772
G1 X-41.29 Y-34.774 E145.3123
G1 X6.9879999999999995 Y13.505000000000003 E148.2554
G1 X7.802999999999997 Y13.505000000000003 E148.2905
G1 X-41.29 Y-35.588 E151.2832
G1 X-41.29 Y-36.403 E151.3183
G1 X8.616999999999997 Y13.505000000000003 E154.3607
G1 X9.225999999999999 Y13.505000000000003 E154.3869
G1 X9.332999999999998 Y13.405999999999999 E154.3932
G1 X-41.29 Y-37.217 E157.4792
G1 X-41.29 Y-38.032 E157.5143
G1 X9.753999999999998 Y13.012999999999998 E160.6260
G1 X10.176000000000002 Y12.619999999999997 E160.6508
G1 X-41.29 Y-38.847 E163.7882
G1 X-41.29 Y-39.661 E163.8233
G1 X10.597999999999999 Y12.226999999999997 E166.9864
G1 X11.020000000000003 Y11.834000000000003 E167.0113
G1 X-41.29 Y-40.476 E170.2001
G1 X-41.29 Y-41.29 E170.2352
G1 X11.441000000000003 Y11.441000000000003 E173.4497
G1 X11.863 Y11.049 E173.4746
G1 X-41.29 Y-42.105000000000004 E176.7148
G1 X-41.29 Y-42.92 E176.7499
G1 X12.284999999999997 Y10.655999999999999 E180.0158
G1 X12.707 Y10.262999999999998 E180.0407
G1 X-41.29 Y-43.734 E183.3323
G1 X-41.29 Y-44.549 E183.3674
G1 X13.128 Y9.869999999999997 E186.6848
G1 X13.549999999999997 Y9.476999999999997 E186.7097
G1 X-41.29 Y-45.363 E190.0527
G1 X-41.29 Y-46.178 E190.0878
G1 X13.972000000000001 Y9.084000000000003 E193.4566
G1 X14.394000000000005 Y8.692 E193.4815
G1 X-40.59 Y-46.292 E196.8333
G1 X-39.775999999999996 Y-46.292 E196.8684
G1 X14.814999999999998 Y8.299 E200.1963
G1 X15.236999999999995 Y7.905999999999999 E200.2211
G1 X-38.961 Y-46.292 E203.5250
G1 X-38.147 Y-46.292 E203.5601
G1 X15.659000000000006 Y7.512999999999998 E206.8401
G1 X16.081000000000003 Y7.119999999999997 E206.8650
G1 X-37.332 Y-46.292 E210.1210
G1 X-36.516999999999996 Y-46.292 E210.1561
G1 X16.501999999999995 Y6.726999999999997 E213.3882
G1 X16.924000000000007 Y6.335000000000001 E213.4130
G1 X-35.703 Y-46.292 E216.6212
G1 X-34.888 Y-46.292 E216.6563
G1 X17.346000000000004 Y5.942 E219.8405
G1 X17.768 Y5.5489999999999995 E219.8653
G1 X-34.074 Y-46.292 E223.0255
G1 X-33.259 Y-46.292 E223.0607
G1 X18.188999999999993 Y5.155999999999999 E226.1969
G1 X18.611000000000004 Y4.762999999999998 E226.2218
G1 X-32.444 Y-46.292 E229.3341
G1 X-31.63 Y-46.292 E229.3692
G1 X19.033 Y4.369999999999997 E232.4576
G1 X19.455 Y3.9780000000000015 E232.4825
G1 X-30.815 Y-46.292 E235.5469
G1 X-30.001 Y-46.292 E235.5821
G1 X19.876999999999995 Y3.585000000000001 E238.6226
G1 X20.298000000000002 Y3.192 E238.6474
G1 X-29.186 Y-46.292 E241.6640
G1 X-28.371 Y-46.292 E241.6991
G1 X20.72 Y2.7989999999999995 E244.6917
G1 X21.141999999999996 Y2.405999999999999 E244.7165
G1 X-27.557 Y-46.292 E247.6852
G1 X-26.742 Y-46.292 E247.7203
G1 X21.563999999999993 Y2.012999999999998 E250.6650
G1 X21.985 Y1.6210000000000022 E250.6899
G1 X-25.928 Y-46.292 E253.6106
G1 X-25.113 Y-46.292 E253.6458
G1 X22.406999999999996 Y1.2280000000000015 E256.5426
G1 X22.828999999999994 Y0.8350000000000009 E256.5674
G1 X-24.299 Y-46.292 E259.4403
G1 X-23.484 Y-46.292 E259.4754
G1 X23.251000000000005 Y0.44200000000000017 E262.3243
G1 X23.671999999999997 Y0.04899999999999949 E262.3492
G1 X-22.669 Y-46.292 E265.1742
G1 X-21.855 Y-46.292 E265.2093
G1 X24.093999999999994 Y-0.3440000000000012 E268.0103
G1 X24.516000000000005 Y-0.7359999999999971 E268.0352
G1 X-21.04 Y-46.292 E270.8123
G1 X-20.226 Y-46.292 E270.8474
G1 X24.938000000000002 Y-1.1289999999999978 E273.6005
G1 X25.358999999999995 Y-1.5219999999999985 E273.6254
G1 X-19.411 Y-46.292 E276.3546
G1 X-18.596 Y-46.292 E276.3897
G1 X25.781000000000006 Y-1.9149999999999991 E279.0949
G1 X26.203000000000003 Y-2.308 E279.1198
G1 X-17.781999999999996 Y-46.292 E281.8011
G1 X-16.967 Y-46.292 E281.8362
G1 X26.625 Y-2.7010000000000005 E284.4935
G1 X27.046000000000006 Y-3.0930000000000035 E284.5184
G1 X-16.153 Y-46.292 E287.1518
G1 X-15.338000000000001 Y-46.292 E287.1869
G1 X27.468000000000004 Y-3.485999999999997 E289.7964
G1 X27.89 Y-3.878999999999998 E289.8212
G1 X-14.523000000000003 Y-46.292 E292.4067
G1 X-13.709000000000003 Y-46.292 E292.4418
G1 X28.311999999999998 Y-4.2719999999999985 E295.0034
G1 X28.733000000000004 Y-4.664999999999999 E295.0282
G1 X-12.893999999999998 Y-46.292 E297.5659
G1 X-12.079999999999998 Y-46.292 E297.6010
G1 X29.155 Y-5.057000000000002 E300.1147
G1 X29.576999999999998 Y-5.450000000000003 E300.1395
G1 X-11.265 Y-46.292 E302.6292
G1 X-10.451 Y-46.292 E302.6643
G1 X29.998999999999995 Y-5.8430000000000035 E305.1301
G1 X30.42 Y-6.235999999999997 E305.1550
G1 X-9.636000000000003 Y-46.292 E307.5968
G1 X-8.820999999999998 Y-46.292 E307.6319
G1 X30.842 Y-6.628999999999998 E310.0498
G1 X31.263999999999996 Y-7.0219999999999985 E310.0746
G1 X-8.006999999999998 Y-46.292 E312.4686
G1 X-7.192 Y-46.292 E312.5037
G1 X31.686000000000007 Y-7.4140000000000015 E314.8737
G1 X32.107 Y-7.807000000000002 E314.8985
G1 X-6.378 Y-46.292 E317.2446
G1 X-5.563000000000002 Y-46.292 E317.2797
G1 X32.528999999999996 Y-8.200000000000003 E319.6018
G1 X32.95099999999999 Y-8.593000000000004 E319.6266
G1 X-4.7479999999999976 Y-46.292 E321.9248
G1 X-3.9339999999999975 Y-46.292 E321.9599
G1 X33.373000000000005 Y-8.985999999999997 E324.2341
G1 X33.795 Y-9.378999999999998 E324.2589
G1 X-3.1189999999999998 Y-46.292 E326.5092
G1 X-2.3049999999999997 Y-46.292 E326.5443
G1 X34.215999999999994 Y-9.771 E328.7706
G1 X34.638000000000005 Y-10.164000000000001 E328.7955
G1 X-1.490000000000002 Y-46.292 E330.9978
G1 X-0.6760000000000019 Y-46.292 E331.0330
G1 X35.06 Y-10.557000000000002 E333.2114
G1 X35.482 Y-10.950000000000003 E333.2362
G1 X0.1390000000000029 Y-46.292 E335.3907
G1 X0.9540000000000006 Y-46.292 E335.4258
G1 X35.903000000000006 Y-11.343000000000004 E337.5563
G1 X36.325 Y-11.735999999999997 E337.5812
G1 X1.7680000000000007 Y-46.292 E339.6877
G1 X2.5829999999999984 Y-46.292 E339.7229
G1 X36.747 Y-12.128 E341.8055
G1 X37.169 Y-12.521 E341.8303
G1 X3.3969999999999985 Y-46.292 E343.8890
G1 X4.212000000000003 Y-46.292 E343.9241
G1 X37.59 Y-12.914000000000001 E345.9589
G1 X38.012 Y-13.307000000000002 E345.9837
G1 X5.027000000000001 Y-46.292 E347.9945
G1 X5.841000000000001 Y-46.292 E348.0296
G1 X38.434 Y-13.700000000000003 E350.0165
G1 X38.855999999999995 Y-14.093000000000004 E350.0413
G1 X6.655999999999999 Y-46.292 E352.0042
G1 X7.469999999999999 Y-46.292 E352.0393
G1 X39.277 Y-14.485 E353.9783
G1 X39.699 Y-14.878 E354.0031
G1 X8.284999999999997 Y-46.292 E355.9181
G1 X9.100000000000001 Y-46.292 E355.9532
G1 X40.120999999999995 Y-15.271 E357.8443
G1 X40.543000000000006 Y-15.664000000000001 E357.8691
G1 X9.914000000000001 Y-46.292 E359.7362
G1 X10.729 Y-46.292 E359.7713
G1 X40.964 Y-16.057000000000002 E361.6145
G1 X41.290000000000006 Y-16.36 E361.6337
G1 X41.290000000000006 Y-16.545 E361.6417
G1 X11.543 Y-46.292 E363.4551
G1 X12.357999999999997 Y-46.292 E363.4902
G1 X41.290000000000006 Y-17.36 E365.2539
G1 X41.290000000000006 Y-18.174 E365.2890
G1 X13.171999999999997 Y-46.292 E367.0031
G1 X13.987000000000002 Y-46.292 E367.0382
G1 X41.290000000000006 Y-18.989 E368.7026
G1 X41.290000000000006 Y-19.804 E368.7377
G1 X14.802000000000007 Y-46.292 E370.3525
G1 X15.616 Y-46.292 E370.3876
G1 X41.290000000000006 Y-20.618 E371.9527
G1 X41.290000000000006 Y-21.433 E371.9878
G1 X16.430999999999997 Y-46.292 E373.5032
G1 X17.245000000000005 Y-46.292 E373.5383
G1 X41.290000000000006 Y-22.247 E375.0041
G1 X41.290000000000006 Y-23.062 E375.0392
G1 X18.060000000000002 Y-46.292 E376.4554
G1 X18.875 Y-46.292 E376.4905
G1 X41.290000000000006 Y-23.877 E377.8569
G1 X41.290000000000006 Y-24.691 E377.8920
G1 X19.688999999999993 Y-46.292 E379.2089
G1 X20.504000000000005 Y-46.292 E379.2440
G1 X41.290000000000006 Y-25.506 E380.5111
G1 X41.290000000000006 Y-26.32 E380.5462
G1 X21.317999999999998 Y-46.292 E381.7637
G1 X22.132999999999996 Y-46.292 E381.7988
G1 X41.290000000000006 Y-27.135 E382.9667
G1 X41.290000000000006 Y-27.95 E383.0018
G1 X22.947999999999993 Y-46.292 E384.1200
G1 X23.762 Y-46.292 E384.1551
G1 X41.290000000000006 Y-28.764 E385.2236
G1 X41.290000000000006 Y-29.579 E385.2587
G1 X24.576999999999998 Y-46.292 E386.2776
G1 X25.391000000000005 Y-46.292 E386.3127
G1 X41.290000000000006 Y-30.393 E387.2819
G1 X41.290000000000006 Y-31.208 E387.3170
G1 X26.206000000000003 Y-46.292 E388.2366
G1 X27.019999999999996 Y-46.292 E388.2717
G1 X41.290000000000006 Y-32.022 E389.1416
G1 X41.290000000000006 Y-32.837 E389.1767
G1 X27.834999999999994 Y-46.292 E389.9969
G1 X28.650000000000006 Y-46.292 E390.0320
G1 X41.290000000000006 Y-33.652 E390.8026
G1 X41.290000000000006 Y-34.466 E390.8377
G1 X29.464 Y-46.292 E391.5587
G1 X30.278999999999996 Y-46.292 E391.5938
G1 X41.290000000000006 Y-35.281 E392.2650
G1 X41.290000000000006 Y-36.095 E392.3001
G1 X31.093000000000004 Y-46.292 E392.9218
G1 X31.908 Y-46.292 E392.9569
G1 X41.290000000000006 Y-36.91 E393.5288
G1 X41.290000000000006 Y-37.725 E393.5639
G1 X32.723 Y-46.292 E394.0862
G1 X33.537000000000006 Y-46.292 E394.1213
G1 X41.290000000000006 Y-38.539 E394.5940
G1 X41.290000000000006 Y-39.354 E394.6291
G1 X34.352000000000004 Y-46.292 E395.0521
G1 X35.166 Y-46.292 E395.0872
G1 X41.290000000000006 Y-40.168 E395.4605
G1 X41.290000000000006 Y-40.983000000000004 E395.4956
G1 X35.980999999999995 Y-46.292 E395.8193
G1 X36.795 Y-46.292 E395.8544
G1 X41.290000000000006 Y-41.797 E396.1284
G1 X41.290000000000006 Y-42.612 E396.1635
G1 X37.61 Y-46.292 E396.3879
G1 X38.425 Y-46.292 E396.4230
G1 X41.290000000000006 Y-43.427 E396.5977
G1 X41.290000000000006 Y-44.241 E396.6328
G1 X39.239000000000004 Y-46.292 E396.7578
G1 X40.054 Y-46.292 E396.7929
G1 X41.290000000000006 Y-45.056 E396.8683
G1 X41.290000000000006 Y-45.87 E396.9034
G1 X40.867999999999995 Y-46.292 E396.9292
G1 X-24.29 Y31.915999999999997 F6000
G92 E0.0000
G1 X-17.659999999999997 Y38.547 E0.4042 F1488
G1 X-18.082 Y38.93899999999999 E0.4290
G1 X-24.29 Y32.730999999999995 E0.8075
G1 X-24.29 Y33.545 E0.8426
G1 X-18.503 Y39.331999999999994 E1.1954
G1 X-18.925 Y39.724999999999994 E1.2203
G1 X-24.29 Y34.36 E1.5473
G1 X-24.29 Y35.17400000000001 E1.5824
G1 X-19.347 Y40.117999999999995 E1.8838
G1 X-19.769 Y40.510999999999996 E1.9086
G1 X-24.29 Y35.989000000000004 E2.1843
G1 X-24.29 Y36.804 E2.2194
G1 X-20.19 Y40.903999999999996 E2.4693
G1 X-20.612 Y41.29600000000001 E2.4942
G1 X-24.29 Y37.617999999999995 E2.7184
G1 X-24.29 Y38.43300000000001 E2.7535
G1 X-21.034 Y41.68899999999999 E2.9520
G1 X-21.456 Y42.081999999999994 E2.9769
G1 X-24.29 Y39.247 E3.1497
G1 X-24.29 Y40.062 E3.1848
G1 X-21.877 Y42.474999999999994 E3.3319
G1 X-22.299 Y42.867999999999995 E3.3567
G1 X-24.29 Y40.876999999999995 E3.4781
G1 X-24.29 Y41.691 E3.5132
G1 X-22.721 Y43.260999999999996 E3.6089
G1 X-23.143 Y43.653000000000006 E3.6337
G1 X-24.29 Y42.506 E3.7037
G1 X-24.29 Y43.31999999999999 E3.7388
G1 X-23.564 Y44.04600000000001 E3.7830
G1 X-23.986 Y44.43899999999999 E3.8079
G1 X-24.29 Y44.135000000000005 E3.8264
G92 E0.0000
G1 E-1.2 F2100 ; custom retraction
; layer 2, Z = 0.400
M106 S255 ; custom fan 100% from layer 2
; feature inner perimeter
; tool H0.200 W0.480
G1 Z0.800 F1200
G1 X-24.78 Y45.846999999999994 F6000
G1 Z0.400 F1200
G1 E0 F2100 ; custom un-retraction/prime
G92 E0.0000
G1 X-24.78 Y30.947999999999993 E0.5352 F6000 ; custom feedrate - full
G1 X-41.78 Y30.947999999999993 E1.1459
G1 X-41.78 Y-46.782 E3.9380
G1 X41.78 Y-46.782 E6.9395
G1 X41.78 Y-16.147 E8.0400
G1 X9.418999999999997 Y13.994 E9.6285
G1 X6.578000000000003 Y13.994 E9.7306
G1 X6.578000000000003 Y16.64 E9.8256
G1 X-24.78 Y45.846999999999994 E11.3650
; feature outer perimeter
G1 X-25.26 Y46.95 F6000
G92 E0.0000
G1 X-25.26 Y31.427999999999997 E0.5576 F3000 ; custom feedrate - half
G1 X-42.26 Y31.427999999999997 E1.1682
G1 X-42.26 Y-47.262 E3.9949
G1 X42.260000000000005 Y-47.262 E7.0309
G1 X42.260000000000005 Y-15.938000000000002 E8.1561
G1 X9.607999999999997 Y14.474000000000004 E9.7589
G1 X7.058 Y14.474000000000004 E9.8505
G1 X7.058 Y16.849000000000004 E9.9358
G1 X-25.26 Y46.95 E11.5223
G92 E0.0000
G1 E-1.2 F2100 ; custom retraction
; layer 3, Z = 0.600
;fan3
; feature inner perimeter
G1 Z0.800 F1200
G1 X-24.78 Y45.846999999999994 F6000
G1 Z0.600 F1200
G1 E0 F2100 ; custom un-retraction/prime
G92 E0.0000
G1 X-24.78 Y30.947999999999993 E0.5352 F6000 ; custom feedrate - full
G1 X-41.78 Y30.947999999999993 E1.1459
G1 X-41.78 Y-25.603 E3.1772
G1 X-41.355000000000004 Y-25.603 E3.1925
G1 X-41.355000000000004 Y-29.548 E3.3342
G1 X-41.78 Y-29.548 E3.3495
G1 X-41.78 Y-46.782 E3.9685
G1 X20.180999999999997 Y-46.782 E6.1942
G1 X20.180999999999997 Y-46.386 E6.2084
G1 X22.013999999999996 Y-46.386 E6.2743
G1 X22.013999999999996 Y-46.782 E6.2885
G1 X41.78 Y-46.782 E6.9985
G1 X41.78 Y-16.147 E8.0989
G1 X9.418999999999997 Y13.994 E9.6875
G1 X6.578000000000003 Y13.994 E9.7896
G1 X6.578000000000003 Y16.64 E9.8846
G1 X-24.78 Y45.846999999999994 E11.4239
; feature outer perimeter
G1 X-25.26 Y46.95 F6000
G92 E0.0000
G1 X-25.26 Y31.427999999999997 E0.5576 F3000 ; custom feedrate - half
G1 X-42.26 Y31.427999999999997 E1.1682
G1 X-42.26 Y-26.083 E3.2341
G1 X-41.835 Y-26.083 E3.2494
G1 X-41.835 Y-26.95 E3.2805
G1 X-42.26 Y-26.95 E3.2958
G1 X-42.26 Y-28.173 E3.3397
G1 X-41.835 Y-28.173 E3.3550
G1 X-41.835 Y-29.068 E3.3871
G1 X-42.26 Y-29.068 E3.4024
G1 X-42.26 Y-47.262 E4.0559
G1 X20.661 Y-47.262 E6.3161
G1 X20.661 Y-46.866 E6.3303
G1 X21.534000000000006 Y-46.866 E6.3617
G1 X21.534000000000006 Y-47.262 E6.3759
G1 X42.260000000000005 Y-47.262 E7.1204
G1 X42.260000000000005 Y-15.938000000000002 E8.2456
G1 X9.607999999999997 Y14.474000000000004 E9.8484
G1 X7.058 Y14.474000000000004 E9.9400
G1 X7.058 Y16.849000000000004 E10.0253
G1 X-25.26 Y46.95 E11.6118
G92 E0.0000
G1 E-1.2 F2100 ; custom retraction
; feature gap fill
G1 Z1.000 F1200
G1 X-25.26 Y31.427999999999997 F6000
G1 X-28.682 Y31.427999999999997
G1 X-41.647999999999996 Y-27.393
G1 Z0.600 F1200
G1 E0 F2100 ; custom un-retraction/prime
G92 E0.0000
G1 X-41.972 Y-27.717 E0.0165 F6000 ; custom feedrate - full
G92 E0.0000
G1 E-1.2 F2100 ; custom retraction
; layer 4, Z = 0.800
; feature inner perimeter
G1 Z1.000 F1200
G1 X-41.921 Y-28.173 F6000
G1 X-41.835 Y-28.173
G1 X-41.835 Y-28.952
G1 X-41.78 Y-29.447
G1 Z0.800 F1200
G1 E0 F2100 ; custom un-retraction/prime
G92 E0.0000
G1 X-41.78 Y-46.782 E0.6227 F6000 ; custom feedrate - full
G1 X20.180999999999997 Y-46.782 E2.8484
G1 X20.180999999999997 Y-46.386 E2.8626
G1 X22.013999999999996 Y-46.386 E2.9284
G1 X22.013999999999996 Y-46.782 E2.9426
G1 X41.78 Y-46.782 E3.6527
G1 X41.78 Y-16.147 E4.7531
G1 X9.418999999999997 Y13.994 E6.3417
G1 X6.578000000000003 Y13.994 E6.4437
G1 X6.578000000000003 Y16.64 E6.5388
G1 X-24.78 Y45.846999999999994 E8.0781
G1 X-24.78 Y30.947999999999993 E8.6133
G1 X-41.78 Y30.947999999999993 E9.2239
G1 X-41.78 Y-25.704 E11.2589
G1 X-41.355000000000004 Y-25.704 E11.2742
G1 X-41.355000000000004 Y-29.447 E11.4087
G1 X-41.78 Y-29.447 E11.4239
; feature outer perimeter
G1 X-41.835 Y-28.967 F6000
G92 E0.0000
G1 X-42.26 Y-28.967 E0.0153 F3000 ; custom feedrate - half
G1 X-42.26 Y-47.262 E0.6724
G1 X20.661 Y-47.262 E2.9326
G1 X20.661 Y-46.866 E2.9468
G1 X21.534000000000006 Y-46.866 E2.9782
G1 X21.534000000000006 Y-47.262 E2.9924
G1 X42.260000000000005 Y-47.262 E3.7369
G1 X42.260000000000005 Y-15.938000000000002 E4.8621
G1 X9.607999999999997 Y14.474000000000004 E6.4649
G1 X7.058 Y14.474000000000004 E6.5565
G1 X7.058 Y16.849000000000004 E6.6418
G1 X-25.26 Y46.95 E8.2283
G1 X-25.26 Y31.427999999999997 E8.7859
G1 X-42.26 Y31.427999999999997 E9.3965
G1 X-42.26 Y-26.184 E11.4660
G1 X-41.835 Y-26.184 E11.4813
G1 X-41.835 Y-27.049 E11.5123
G1 X-42.26 Y-27.049 E11.5276
G1 X-42.26 Y-28.076 E11.5645
G1 X-41.835 Y-28.076 E11.5798
G1 X-41.835 Y-28.967 E11.6118
; feature gap fill
G1 X-41.647999999999996 Y-27.592 F6000
G92 E0.0000
G1 X-41.903 Y-27.337 E0.0130 F6000 ; custom feedrate - full
G92 E0.0000
G1 E-1.2 F2100 ; custom retraction
; layer 5, Z = 1.000
;fan5
; feature inner perimeter
G1 Z1.200 F1200
G1 X-41.88 Y-27.049 F6000
G1 X-41.835 Y-27.049
G1 X-41.835 Y-26.489
G1 X-41.78 Y-25.805
G1 Z1.000 F1200
G1 E0 F2100 ; custom un-retraction/prime
G92 E0.0000
G1 X-41.355000000000004 Y-25.805 E0.0153 F6000 ; custom feedrate - full
G1 X-41.355000000000004 Y-29.347 E0.1425
G1 X-41.78 Y-29.347 E0.1578
G1 X-41.78 Y-46.782 E0.7841
G1 X20.180999999999997 Y-46.782 E3.0097
G1 X20.180999999999997 Y-46.386 E3.0240
G1 X22.013999999999996 Y-46.386 E3.0898
G1 X22.013999999999996 Y-46.782 E3.1040
G1 X41.78 Y-46.782 E3.8140
G1 X41.78 Y-16.147 E4.9145
G1 X9.418999999999997 Y13.994 E6.5030
G1 X6.578000000000003 Y13.994 E6.6051
G1 X6.578000000000003 Y16.64 E6.7001
G1 X-24.78 Y45.846999999999994 E8.2395
G1 X-24.78 Y30.947999999999993 E8.7747
G1 X-41.78 Y30.947999999999993 E9.3853
G1 X-41.78 Y-25.805 E11.4239
; feature outer perimeter
G1 X-41.835 Y-26.285 F6000
G92 E0.0000
G1 X-41.835 Y-27.147 E0.0310 F3000 ; custom feedrate - half
G1 X-42.26 Y-27.147 E0.0462
G1 X-42.26 Y-27.98 E0.0761
G1 X-41.835 Y-27.98 E0.0914
G1 X-41.835 Y-28.867 E0.1233
G1 X-42.26 Y-28.867 E0.1386
G1 X-42.26 Y-47.262 E0.7993
G1 X20.661 Y-47.262 E3.0595
G1 X20.661 Y-46.866 E3.0737
G1 X21.534000000000006 Y-46.866 E3.1051
G1 X21.534000000000006 Y-47.262 E3.1193
G1 X42.260000000000005 Y-47.262 E3.8638
G1 X42.260000000000005 Y-15.938000000000002 E4.9890
G1 X9.607999999999997 Y14.474000000000004 E6.5918
G1 X7.058 Y14.474000000000004 E6.6834
G1 X7.058 Y16.849000000000004 E6.7687
G1 X-25.26 Y46.95 E8.3552
G1 X-25.26 Y31.427999999999997 E8.9128
G1 X-42.26 Y31.427999999999997 E9.5234
G1 X-42.26 Y-26.285 E11.5965
G1 X-41.835 Y-26.285 E11.6118
; feature gap fill
G1 X-41.691 Y-27.435 F6000
G92 E0.0000
G1 X-41.947 Y-27.692 E0.0130 F6000 ; custom feedrate - full
G92 E0.0000
G1 E-1.2 F2100 ; custom retraction
; layer 6, Z = 1.200
; feature inner perimeter
G1 Z1.400 F1200
G1 X-41.916 Y-27.98 F6000
G1 X-41.835 Y-27.98
G1 X-41.835 Y-28.734
G1 X-41.78 Y-29.247
G1 Z1.200 F1200
G1 E0 F2100 ; custom un-retraction/prime
G92 E0.0000
G1 X-41.78 Y-46.782 E0.6299 F6000 ; custom feedrate - full
G1 X20.180999999999997 Y-46.782 E2.8556
G1 X20.180999999999997 Y-46.386 E2.8698
G1 X22.013999999999996 Y-46.386 E2.9356
G1 X22.013999999999996 Y-46.782 E2.9499
G1 X41.78 Y-46.782 E3.6599
G1 X41.78 Y-16.147 E4.7603
G1 X9.418999999999997 Y13.994 E6.3489
G1 X6.578000000000003 Y13.994 E6.4509
G1 X6.578000000000003 Y16.64 E6.5460
G1 X-24.78 Y45.846999999999994 E8.0853
G1 X-24.78 Y30.947999999999993 E8.6205
G1 X-41.78 Y30.947999999999993 E9.2311
G1 X-41.78 Y-25.905 E11.2734
G1 X-41.355000000000004 Y-25.905 E11.2886
G1 X-41.355000000000004 Y-29.247 E11.4087
G1 X-41.78 Y-29.247 E11.4239
; feature outer perimeter
G1 X-41.835 Y-28.767 F6000
G92 E0.0000
G1 X-42.26 Y-28.767 E0.0153 F3000 ; custom feedrate - half
G1 X-42.26 Y-47.262 E0.6796
G1 X20.661 Y-47.262 E2.9398
G1 X20.661 Y-46.866 E2.9540
G1 X21.534000000000006 Y-46.866 E2.9854
G1 X21.534000000000006 Y-47.262 E2.9996
G1 X42.260000000000005 Y-47.262 E3.7441
G1 X42.260000000000005 Y-15.938000000000002 E4.8693
G1 X9.607999999999997 Y14.474000000000004 E6.4722
G1 X7.058 Y14.474000000000004 E6.5637
G1 X7.058 Y16.849000000000004 E6.6490
G1 X-25.26 Y46.95 E8.2355
G1 X-25.26 Y31.427999999999997 E8.7931
G1 X-42.26 Y31.427999999999997 E9.4037
G1 X-42.26 Y-26.385 E11.4804
G1 X-41.835 Y-26.385 E11.4957
G1 X-41.835 Y-27.246 E11.5266
G1 X-42.26 Y-27.246 E11.5419
G1 X-42.26 Y-27.883 E11.5648
G1 X-41.835 Y-27.883 E11.5800
G1 X-41.835 Y-28.767 E11.6118
; feature gap fill
G1 X-41.647999999999996 Y-27.592 F6000
G92 E0.0000
G1 X-41.706 Y-27.534 E0.0030 F6000 ; custom feedrate - full
G92 E0.0000
G1 E-1.2 F2100 ; custom retraction
; layer 7, Z = 1.400
; feature inner perimeter
G1 Z1.600 F1200
G1 X-41.78 Y-26.006 F6000
G1 Z1.400 F1200
G1 E0 F2100 ; custom un-retraction/prime
G92 E0.0000
G1 X-41.355000000000004 Y-26.006 E0.0153 F6000 ; custom feedrate - full
G1 X-41.355000000000004 Y-29.146 E0.1281
G1 X-41.78 Y-29.146 E0.1433
G1 X-41.78 Y-46.782 E0.7768
G1 X20.180999999999997 Y-46.782 E3.0025
G1 X20.180999999999997 Y-46.386 E3.0167
G1 X22.013999999999996 Y-46.386 E3.0826
G1 X22.013999999999996 Y-46.782 E3.0968
G1 X41.78 Y-46.782 E3.8068
G1 X41.78 Y-16.147 E4.9072
G1 X9.418999999999997 Y13.994 E6.4958
G1 X6.578000000000003 Y13.994 E6.5979
G1 X6.578000000000003 Y16.64 E6.6929
G1 X-24.78 Y45.846999999999994 E8.2322
G1 X-24.78 Y30.947999999999993 E8.7674
G1 X-41.78 Y30.947999999999993 E9.3781
G1 X-41.78 Y-26.006 E11.4239
; feature outer perimeter
G1 X-41.835 Y-26.486 F6000
G92 E0.0000
G1 X-41.835 Y-27.344 E0.0308 F3000 ; custom feedrate - half
G1 X-42.26 Y-27.344 E0.0461
G1 X-42.26 Y-27.786 E0.0620
G1 X-41.835 Y-27.786 E0.0772
G1 X-41.835 Y-28.666 E0.1088
G1 X-42.26 Y-28.666 E0.1241
G1 X-42.26 Y-47.262 E0.7921
G1 X20.661 Y-47.262 E3.0523
G1 X20.661 Y-46.866 E3.0665
G1 X21.534000000000006 Y-46.866 E3.0978
G1 X21.534000000000006 Y-47.262 E3.1120
G1 X42.260000000000005 Y-47.262 E3.8566
G1 X42.260000000000005 Y-15.938000000000002 E4.9817
G1 X9.607999999999997 Y14.474000000000004 E6.5846
G1 X7.058 Y14.474000000000004 E6.6762
G1 X7.058 Y16.849000000000004 E6.7615
G1 X-25.26 Y46.95 E8.3479
G1 X-25.26 Y31.427999999999997 E8.9055
G1 X-42.26 Y31.427999999999997 E9.5162
G1 X-42.26 Y-26.486 E11.5965
G1 X-41.835 Y-26.486 E11.6118
G92 E0.0000
G1 E-1.2 F2100 ; custom retraction
; layer 8, Z = 1.600
; feature inner perimeter
G1 Z1.800 F1200
G1 X-41.78 Y-26.107 F6000
G1 Z1.600 F1200
G1 E0 F2100 ; custom un-retraction/prime
G92 E0.0000
G1 X-41.355000000000004 Y-26.107 E0.0153 F6000 ; custom feedrate - full
G1 X-41.355000000000004 Y-29.046 E0.1208
G1 X-41.78 Y-29.046 E0.1361
G1 X-41.78 Y-46.782 E0.7732
G1 X20.180999999999997 Y-46.782 E2.9989
G1 X20.180999999999997 Y-46.386 E3.0131
G1 X22.013999999999996 Y-46.386 E3.0789
G1 X22.013999999999996 Y-46.782 E3.0932
G1 X41.78 Y-46.782 E3.8032
G1 X41.78 Y-16.147 E4.9036
G1 X9.418999999999997 Y13.994 E6.4922
G1 X6.578000000000003 Y13.994 E6.5942
G1 X6.578000000000003 Y16.64 E6.6893
G1 X-24.78 Y45.846999999999994 E8.2286
G1 X-24.78 Y30.947999999999993 E8.7638
G1 X-41.78 Y30.947999999999993 E9.3745
G1 X-41.78 Y-26.107 E11.4239
; feature outer perimeter
G1 X-41.835 Y-26.587 F6000
G92 E0.0000
G1 X-41.835 Y-27.443 E0.0307 F3000 ; custom feedrate - half
G1 X-42.26 Y-27.443 E0.0460
G1 X-42.26 Y-27.689 E0.0549
G1 X-41.835 Y-27.689 E0.0701
G1 X-41.835 Y-28.566 E0.1016
G1 X-42.26 Y-28.566 E0.1169
G1 X-42.26 Y-47.262 E0.7885
G1 X20.661 Y-47.262 E3.0486
G1 X20.661 Y-46.866 E3.0629
G1 X21.534000000000006 Y-46.866 E3.0942
G1 X21.534000000000006 Y-47.262 E3.1084
G1 X42.260000000000005 Y-47.262 E3.8529
G1 X42.260000000000005 Y-15.938000000000002 E4.9781
G1 X9.607999999999997 Y14.474000000000004 E6.5810
G1 X7.058 Y14.474000000000004 E6.6726
G1 X7.058 Y16.849000000000004 E6.7579
G1 X-25.26 Y46.95 E8.3443
G1 X-25.26 Y31.427999999999997 E8.9019
G1 X-42.26 Y31.427999999999997 E9.5126
G1 X-42.26 Y-26.587 E11.5965
G1 X-41.835 Y-26.587 E11.6118
G92 E0.0000
G1 E-1.2 F2100 ; custom retraction
; layer 9, Z = 1.800
; feature inner perimeter
G1 Z2.000 F1200
G1 X-41.78 Y-26.208 F6000
G1 Z1.800 F1200
G1 E0 F2100 ; custom un-retraction/prime
G92 E0.0000
G1 X-41.355000000000004 Y-26.208 E0.0153 F6000 ; custom feedrate - full
G1 X-41.355000000000004 Y-28.945 E0.1136
G1 X-41.78 Y-28.945 E0.1289
G1 X-41.78 Y-46.782 E0.7696
G1 X20.180999999999997 Y-46.782 E2.9953
G1 X20.180999999999997 Y-46.386 E3.0095
G1 X22.013999999999996 Y-46.386 E3.0753
G1 X22.013999999999996 Y-46.782 E3.0895
G1 X41.78 Y-46.782 E3.7996
G1 X41.78 Y-16.147 E4.9000
G1 X9.418999999999997 Y13.994 E6.4886
G1 X6.578000000000003 Y13.994 E6.5906
G1 X6.578000000000003 Y16.64 E6.6857
G1 X-24.78 Y45.846999999999994 E8.2250
G1 X-24.78 Y30.947999999999993 E8.7602
G1 X-41.78 Y30.947999999999993 E9.3708
G1 X-41.78 Y-26.208 E11.4239
; feature outer perimeter
G1 X-41.835 Y-26.688 F6000
G92 E0.0000
G1 X-41.835 Y-27.541 E0.0307 F3000 ; custom feedrate - half
G1 X-42.26 Y-27.541 E0.0459
G1 X-42.26 Y-27.593 E0.0478
G1 X-41.835 Y-27.593 E0.0630
G1 X-41.835 Y-28.465 E0.0944
G1 X-42.26 Y-28.465 E0.1097
G1 X-42.26 Y-47.262 E0.7848
G1 X20.661 Y-47.262 E3.0450
G1 X20.661 Y-46.866 E3.0592
G1 X21.534000000000006 Y-46.866 E3.0906
G1 X21.534000000000006 Y-47.262 E3.1048
G1 X42.260000000000005 Y-47.262 E3.8493
G1 X42.260000000000005 Y-15.938000000000002 E4.9745
G1 X9.607999999999997 Y14.474000000000004 E6.5774
G1 X7.058 Y14.474000000000004 E6.6689
G1 X7.058 Y16.849000000000004 E6.7543
G1 X-25.26 Y46.95 E8.3407
G1 X-25.26 Y31.427999999999997 E8.8983
G1 X-42.26 Y31.427999999999997 E9.5089
G1 X-42.26 Y-26.688 E11.5965
G1 X-41.835 Y-26.688 E11.6118
G92 E0.0000
G1 E-1.2 F2100 ; custom retraction
; layer 10, Z = 2.000
; feature inner perimeter
G1 Z2.200 F1200
G1 X-41.78 Y-26.308 F6000
G1 Z2.000 F1200
G1 E0 F2100 ; custom un-retraction/prime
G92 E0.0000
G1 X-41.355000000000004 Y-26.308 E0.0153 F6000 ; custom feedrate - full
G1 X-41.355000000000004 Y-28.845 E0.1064
G1 X-41.78 Y-28.845 E0.1217
G1 X-41.78 Y-46.782 E0.7660
G1 X20.180999999999997 Y-46.782 E2.9917
G1 X20.180999999999997 Y-46.386 E3.0059
G1 X22.013999999999996 Y-46.386 E3.0717
G1 X22.013999999999996 Y-46.782 E3.0859
G1 X41.78 Y-46.782 E3.7960
G1 X41.78 Y-16.147 E4.8964
G1 X9.418999999999997 Y13.994 E6.4850
G1 X6.578000000000003 Y13.994 E6.5870
G1 X6.578000000000003 Y16.64 E6.6820
G1 X-24.78 Y45.846999999999994 E8.2214
G1 X-24.78 Y30.947999999999993 E8.7566
G1 X-41.78 Y30.947999999999993 E9.3672
G1 X-41.78 Y-26.308 E11.4239
; feature outer perimeter
G1 X-41.835 Y-26.788 F6000
G92 E0.0000
G1 X-41.835 Y-28.365 E0.0566 F3000 ; custom feedrate - half
G1 X-42.26 Y-28.365 E0.0719
G1 X-42.26 Y-47.262 E0.7507
G1 X20.661 Y-47.262 E3.0109
G1 X20.661 Y-46.866 E3.0251
G1 X21.534000000000006 Y-46.866 E3.0564
G1 X21.534000000000006 Y-47.262 E3.0707
G1 X42.260000000000005 Y-47.262 E3.8152
G1 X42.260000000000005 Y-15.938000000000002 E4.9403
G1 X9.607999999999997 Y14.474000000000004 E6.5432
G1 X7.058 Y14.474000000000004 E6.6348
G1 X7.058 Y16.849000000000004 E6.7201
G1 X-25.26 Y46.95 E8.3065
G1 X-25.26 Y31.427999999999997 E8.8641
G1 X-42.26 Y31.427999999999997 E9.4748
G1 X-42.26 Y-26.788 E11.5660
G1 X-41.835 Y-26.788 E11.5812
G92 E0.0000
G1 E-1.2 F2100 ; custom retraction
; layer 11, Z = 2.200
; feature inner perimeter
G1 Z2.400 F1200
G1 X-41.78 Y-26.409 F6000
G1 Z2.200 F1200
G1 E0 F2100 ; custom un-retraction/prime
G92 E0.0000
G1 X-41.355000000000004 Y-26.409 E0.0153 F6000 ; custom feedrate - full
G1 X-41.355000000000004 Y-28.745 E0.0992
G1 X-41.78 Y-28.745 E0.1144
G1 X-41.78 Y-46.782 E0.7623
G1 X20.135999999999996 Y-46.782 E2.9864
G1 X20.135999999999996 Y-46.386 E3.0007
G1 X22.048000000000002 Y-46.386 E3.0693
G1 X22.048000000000002 Y-46.782 E3.0836
G1 X41.78 Y-46.782 E3.7923
G1 X41.78 Y-16.147 E4.8928
G1 X9.418999999999997 Y13.994 E6.4813
G1 X6.578000000000003 Y13.994 E6.5834
G1 X6.578000000000003 Y16.64 E6.6784
G1 X-24.78 Y45.846999999999994 E8.2177
G1 X-24.78 Y30.947999999999993 E8.7529
G1 X-41.78 Y30.947999999999993 E9.3636
G1 X-41.78 Y-26.409 E11.4239
; feature outer perimeter
G1 X-41.835 Y-26.889 F6000
G92 E0.0000
G1 X-41.835 Y-28.265 E0.0494 F3000 ; custom feedrate - half
G1 X-42.26 Y-28.265 E0.0647
G1 X-42.26 Y-47.262 E0.7471
G1 X20.616 Y-47.262 E3.0057
G1 X20.616 Y-46.866 E3.0199
G1 X21.567999999999998 Y-46.866 E3.0541
G1 X21.567999999999998 Y-47.262 E3.0683
G1 X42.260000000000005 Y-47.262 E3.8116
G1 X42.260000000000005 Y-15.938000000000002 E4.9367
G1 X9.607999999999997 Y14.474000000000004 E6.5396
G1 X7.058 Y14.474000000000004 E6.6312
G1 X7.058 Y16.849000000000004 E6.7165
G1 X-25.26 Y46.95 E8.3029
G1 X-25.26 Y31.427999999999997 E8.8605
G1 X-42.26 Y31.427999999999997 E9.4712
G1 X-42.26 Y-26.889 E11.5660
G1 X-41.835 Y-26.889 E11.5812
G92 E0.0000
G1 E-1.2 F2100 ; custom retraction
; layer 12, Z = 2.400
; feature inner perimeter
G1 Z2.600 F1200
G1 X-41.78 Y-26.51 F6000
G1 Z2.400 F1200
G1 E0 F2100 ; custom un-retraction/prime
G92 E0.0000
G1 X-41.355000000000004 Y-26.51 E0.0153 F6000 ; custom feedrate - full
G1 X-41.355000000000004 Y-28.644 E0.0919
G1 X-41.78 Y-28.644 E0.1072
G1 X-41.78 Y-46.782 E0.7587
G1 X20.045 Y-46.782 E2.9795
G1 X20.045 Y-46.386 E2.9938
G1 X22.141000000000005 Y-46.386 E3.0690
G1 X22.141000000000005 Y-46.782 E3.0833
G1 X41.78 Y-46.782 E3.7887
G1 X41.78 Y-16.147 E4.8891
G1 X9.418999999999997 Y13.994 E6.4777
G1 X6.578000000000003 Y13.994 E6.5798
G1 X6.578000000000003 Y16.64 E6.6748
G1 X-24.78 Y45.846999999999994 E8.2141
G1 X-24.78 Y30.947999999999993 E8.7493
G1 X-41.78 Y30.947999999999993 E9.3600
G1 X-41.78 Y-26.51 E11.4239
; feature outer perimeter
G1 X-41.835 Y-26.99 F6000
G92 E0.0000
G1 X-41.835 Y-28.164 E0.0422 F3000 ; custom feedrate - half
G1 X-42.26 Y-28.164 E0.0575
G1 X-42.26 Y-47.262 E0.7435
G1 X20.525000000000006 Y-47.262 E2.9988
G1 X20.525000000000006 Y-46.866 E3.0130
G1 X21.661 Y-46.866 E3.0538
G1 X21.661 Y-47.262 E3.0680
G1 X42.260000000000005 Y-47.262 E3.8079
G1 X42.260000000000005 Y-15.938000000000002 E4.9331
G1 X9.607999999999997 Y14.474000000000004 E6.5360
G1 X7.058 Y14.474000000000004 E6.6276
G1 X7.058 Y16.849000000000004 E6.7129
G1 X-25.26 Y46.95 E8.2993
G1 X-25.26 Y31.427999999999997 E8.8569
G1 X-42.26 Y31.427999999999997 E9.4675
G1 X-42.26 Y-26.99 E11.5660
G1 X-41.835 Y-26.99 E11.5812
G92 E0.0000
G1 E-1.2 F2100 ; custom retraction
; layer 13, Z = 2.600
; feature inner perimeter
G1 Z2.800 F1200
G1 X-41.78 Y-26.611 F6000
G1 Z2.600 F1200
G1 E0 F2100 ; custom un-retraction/prime
G92 E0.0000
G1 X-41.355000000000004 Y-26.611 E0.0153 F6000 ; custom feedrate - full
G1 X-41.355000000000004 Y-28.544 E0.0847
G1 X-41.78 Y-28.544 E0.1000
G1 X-41.78 Y-46.782 E0.7551
G1 X19.953000000000003 Y-46.782 E2.9726
G1 X19.953000000000003 Y-46.386 E2.9868
G1 X22.233999999999995 Y-46.386 E3.0688
G1 X22.233999999999995 Y-46.782 E3.0830
G1 X41.78 Y-46.782 E3.7851
G1 X41.78 Y-16.147 E4.8855
G1 X9.418999999999997 Y13.994 E6.4741
G1 X6.578000000000003 Y13.994 E6.5761
G1 X6.578000000000003 Y16.64 E6.6712
G1 X-24.78 Y45.846999999999994 E8.2105
G1 X-24.78 Y30.947999999999993 E8.7457
G1 X-41.78 Y30.947999999999993 E9.3564
G1 X-41.78 Y-26.611 E11.4239
; feature outer perimeter
G1 X-41.835 Y-27.091 F6000
G92 E0.0000
G1 X-41.835 Y-28.064 E0.0350 F3000 ; custom feedrate - half
G1 X-42.26 Y-28.064 E0.0502
G1 X-42.26 Y-47.262 E0.7398
G1 X20.433000000000007 Y-47.262 E2.9918
G1 X20.433000000000007 Y-46.866 E3.0061
G1 X21.754000000000005 Y-46.866 E3.0535
G1 X21.754000000000005 Y-47.262 E3.0677
G1 X42.260000000000005 Y-47.262 E3.8043
G1 X42.260000000000005 Y-15.938000000000002 E4.9295
G1 X9.607999999999997 Y14.474000000000004 E6.5324
G1 X7.058 Y14.474000000000004 E6.6239
G1 X7.058 Y16.849000000000004 E6.7092
G1 X-25.26 Y46.95 E8.2957
G1 X-25.26 Y31.427999999999997 E8.8533
G1 X-42.26 Y31.427999999999997 E9.4639
G1 X-42.26 Y-27.091 E11.5660
G1 X-41.835 Y-27.091 E11.5812
G92 E0.0000
G1 E-1.2 F2100 ; custom retraction
; layer 14, Z = 2.800
; feature inner perimeter
G1 Z3.000 F1200
G1 X-41.78 Y-26.582 F6000
G1 Z2.800 F1200
G1 E0 F2100 ; custom un-retraction/prime
G92 E0.0000
G1 X-41.355000000000004 Y-26.582 E0.0153 F6000 ; custom feedrate - full
G1 X-41.355000000000004 Y-28.557 E0.0862
G1 X-41.78 Y-28.557 E0.1015
G1 X-41.78 Y-46.782 E0.7561
G1 X19.861000000000004 Y-46.782 E2.9704
G1 X19.861000000000004 Y-46.386 E2.9846
G1 X22.325999999999993 Y-46.386 E3.0731
G1 X22.325999999999993 Y-46.782 E3.0873
G1 X41.78 Y-46.782 E3.7861
G1 X41.78 Y-16.147 E4.8866
G1 X9.418999999999997 Y13.994 E6.4751
G1 X6.578000000000003 Y13.994 E6.5772
G1 X6.578000000000003 Y16.64 E6.6722
G1 X-24.78 Y45.846999999999994 E8.2115
G1 X-24.78 Y30.947999999999993 E8.7467
G1 X-41.78 Y30.947999999999993 E9.3574
G1 X-41.78 Y-26.582 E11.4239
; feature outer perimeter
G1 X-41.835 Y-27.062 F6000
G92 E0.0000
G1 X-41.835 Y-28.077 E0.0365 F3000 ; custom feedrate - half
G1 X-42.26 Y-28.077 E0.0517
G1 X-42.26 Y-47.262 E0.7409
G1 X20.340999999999994 Y-47.262 E2.9896
G1 X20.340999999999994 Y-46.866 E3.0038
G1 X21.846000000000004 Y-46.866 E3.0578
G1 X21.846000000000004 Y-47.262 E3.0721
G1 X42.260000000000005 Y-47.262 E3.8053
G1 X42.260000000000005 Y-15.938000000000002 E4.9305
G1 X9.607999999999997 Y14.474000000000004 E6.5334
G1 X7.058 Y14.474000000000004 E6.6250
G1 X7.058 Y16.849000000000004 E6.7103
G1 X-25.26 Y46.95 E8.2967
G1 X-25.26 Y31.427999999999997 E8.8543
G1 X-42.26 Y31.427999999999997 E9.4650
G1 X-42.26 Y-27.062 E11.5660
G1 X-41.835 Y-27.062 E11.5812
G92 E0.0000
G1 E-1.2 F2100 ; custom retraction
; layer 15, Z = 3.000
; feature inner perimeter
G1 Z3.200 F1200
G1 X-41.78 Y-26.479 F6000
G1 Z3.000 F1200
G1 E0 F2100 ; custom un-retraction/prime
G92 E0.0000
G1 X-41.355000000000004 Y-26.479 E0.0153 F6000 ; custom feedrate - full
G1 X-41.355000000000004 Y-28.661 E0.0936
G1 X-41.78 Y-28.661 E0.1089
G1 X-41.78 Y-46.782 E0.7598
G1 X19.769999999999996 Y-46.782 E2.9708
G1 X19.769999999999996 Y-46.386 E2.9850
G1 X22.418999999999997 Y-46.386 E3.0801
G1 X22.418999999999997 Y-46.782 E3.0944
G1 X41.78 Y-46.782 E3.7898
G1 X41.78 Y-16.147 E4.8903
G1 X9.418999999999997 Y13.994 E6.4788
G1 X6.578000000000003 Y13.994 E6.5809
G1 X6.578000000000003 Y16.64 E6.6759
G1 X-24.78 Y45.846999999999994 E8.2152
G1 X-24.78 Y30.947999999999993 E8.7504
G1 X-41.78 Y30.947999999999993 E9.3611
G1 X-41.78 Y-26.479 E11.4239
; feature outer perimeter
G1 X-41.835 Y-26.959 F6000
G92 E0.0000
G1 X-41.835 Y-28.181 E0.0439 F3000 ; custom feedrate - half
G1 X-42.26 Y-28.181 E0.0592
G1 X-42.26 Y-47.262 E0.7446
G1 X20.25 Y-47.262 E2.9900
G1 X20.25 Y-46.866 E3.0042
G1 X21.938999999999993 Y-46.866 E3.0649
G1 X21.938999999999993 Y-47.262 E3.0791
G1 X42.260000000000005 Y-47.262 E3.8090
G1 X42.260000000000005 Y-15.938000000000002 E4.9342
G1 X9.607999999999997 Y14.474000000000004 E6.5371
G1 X7.058 Y14.474000000000004 E6.6287
G1 X7.058 Y16.849000000000004 E6.7140
G1 X-25.26 Y46.95 E8.3004
G1 X-25.26 Y31.427999999999997 E8.8580
G1 X-42.26 Y31.427999999999997 E9.4687
G1 X-42.26 Y-26.959 E11.5660
G1 X-41.835 Y-26.959 E11.5812
G92 E0.0000
G1 E-1.2 F2100 ; custom retraction
; layer 16, Z = 3.200
; feature inner perimeter
G1 Z3.400 F1200
G1 X-41.78 Y-26.376 F6000
G1 Z3.200 F1200
G1 E0 F2100 ; custom un-retraction/prime
G92 E0.0000
G1 X-41.355000000000004 Y-26.376 E0.0153 F6000 ; custom feedrate - full
G1 X-41.355000000000004 Y-28.764 E0.1011
G1 X-41.78 Y-28.764 E0.1163
G1 X-41.78 Y-46.782 E0.7635
G1 X19.677999999999997 Y-46.782 E2.9712
G1 X19.677999999999997 Y-46.386 E2.9854
G1 X22.512 Y-46.386 E3.0872
G1 X22.512 Y-46.782 E3.1014
G1 X41.78 Y-46.782 E3.7935
G1 X41.78 Y-16.147 E4.8939
G1 X9.418999999999997 Y13.994 E6.4825
G1 X6.578000000000003 Y13.994 E6.5846
G1 X6.578000000000003 Y16.64 E6.6796
G1 X-24.78 Y45.846999999999994 E8.2189
G1 X-24.78 Y30.947999999999993 E8.7541
G1 X-41.78 Y30.947999999999993 E9.3648
G1 X-41.78 Y-26.376 E11.4239
; feature outer perimeter
G1 X-41.835 Y-26.856 F6000
G92 E0.0000
G1 X-41.835 Y-28.284 E0.0513 F3000 ; custom feedrate - half
G1 X-42.26 Y-28.284 E0.0666
G1 X-42.26 Y-47.262 E0.7483
G1 X20.158 Y-47.262 E2.9904
G1 X20.158 Y-46.866 E3.0046
G1 X21.052000000000007 Y-46.866 E3.0367
G1 X21.052000000000007 Y-47.262 E3.0509
G1 X21.144999999999996 Y-47.262 E3.0543
G1 X21.144999999999996 Y-46.866 E3.0685
G1 X22.031999999999996 Y-46.866 E3.1003
G1 X22.031999999999996 Y-47.262 E3.1146
G1 X42.260000000000005 Y-47.262 E3.8412
G1 X42.260000000000005 Y-15.938000000000002 E4.9663
G1 X9.607999999999997 Y14.474000000000004 E6.5692
G1 X7.058 Y14.474000000000004 E6.6608
G1 X7.058 Y16.849000000000004 E6.7461
G1 X-25.26 Y46.95 E8.3325
G1 X-25.26 Y31.427999999999997 E8.8901
G1 X-42.26 Y31.427999999999997 E9.5008
G1 X-42.26 Y-26.856 E11.5944
G1 X-41.835 Y-26.856 E11.6097
G92 E0.0000
G1 E-1.2 F2100 ; custom retraction
; layer 17, Z = 3.400
; feature inner perimeter
G1 Z3.600 F1200
G1 X-41.78 Y-26.274 F6000
G1 Z3.400 F1200
G1 E0 F2100 ; custom un-retraction/prime
G92 E0.0000
G1 X-41.355000000000004 Y-26.274 E0.0153 F6000 ; custom feedrate - full
G1 X-41.355000000000004 Y-28.868 E0.1085
G1 X-41.78 Y-28.868 E0.1237
G1 X-41.78 Y-46.782 E0.7672
G1 X19.586 Y-46.782 E2.9716
G1 X19.586 Y-46.386 E2.9858
G1 X22.604 Y-46.386 E3.0942
G1 X22.604 Y-46.782 E3.1084
G1 X41.78 Y-46.782 E3.7972
G1 X41.78 Y-16.147 E4.8976
G1 X9.418999999999997 Y13.994 E6.4862
G1 X6.578000000000003 Y13.994 E6.5883
G1 X6.578000000000003 Y16.64 E6.6833
G1 X-24.78 Y45.846999999999994 E8.2226
G1 X-24.78 Y30.947999999999993 E8.7578
G1 X-41.78 Y30.947999999999993 E9.3685
G1 X-41.78 Y-26.274 E11.4239
; feature outer perimeter
G1 X-41.835 Y-26.754 F6000
G92 E0.0000
G1 X-41.835 Y-28.388 E0.0587 F3000 ; custom feedrate - half
G1 X-42.26 Y-28.388 E0.0740
G1 X-42.26 Y-47.262 E0.7520
G1 X20.066000000000003 Y-47.262 E2.9908
G1 X20.066000000000003 Y-46.866 E3.0050
G1 X20.962000000000003 Y-46.866 E3.0372
G1 X20.962000000000003 Y-47.262 E3.0514
G1 X21.235 Y-47.262 E3.0612
G1 X21.235 Y-46.866 E3.0754
G1 X22.123999999999995 Y-46.866 E3.1074
G1 X22.123999999999995 Y-47.262 E3.1216
G1 X42.260000000000005 Y-47.262 E3.8449
G1 X42.260000000000005 Y-15.938000000000002 E4.9700
G1 X9.607999999999997 Y14.474000000000004 E6.5729
G1 X7.058 Y14.474000000000004 E6.6645
G1 X7.058 Y16.849000000000004 E6.7498
G1 X-25.26 Y46.95 E8.3362
G1 X-25.26 Y31.427999999999997 E8.8938
G1 X-42.26 Y31.427999999999997 E9.5045
G1 X-42.26 Y-26.754 E11.5944
G1 X-41.835 Y-26.754 E11.6097
G92 E0.0000
G1 E-1.2 F2100 ; custom retraction
; layer 18, Z = 3.600
; feature inner perimeter
G1 Z3.800 F1200
G1 X-41.78 Y-26.171 F6000
G1 Z3.600 F1200
G1 E0 F2100 ; custom un-retraction/prime
G92 E0.0000
G1 X-41.355000000000004 Y-26.171 E0.0153 F6000 ; custom feedrate - full
G1 X-41.355000000000004 Y-28.972 E0.1159
G1 X-41.78 Y-28.972 E0.1311
G1 X-41.78 Y-46.782 E0.7709
G1 X19.495000000000005 Y-46.782 E2.9720
G1 X19.495000000000005 Y-46.386 E2.9862
G1 X22.697000000000003 Y-46.386 E3.1012
G1 X22.697000000000003 Y-46.782 E3.1154
G1 X41.78 Y-46.782 E3.8009
G1 X41.78 Y-16.147 E4.9013
G1 X9.418999999999997 Y13.994 E6.4899
G1 X6.578000000000003 Y13.994 E6.5919
G1 X6.578000000000003 Y16.64 E6.6870
G1 X-24.78 Y45.846999999999994 E8.2263
G1 X-24.78 Y30.947999999999993 E8.7615
G1 X-41.78 Y30.947999999999993 E9.3722
G1 X-41.78 Y-26.171 E11.4239
; feature outer perimeter
G1 X-41.835 Y-26.651 F6000
G92 E0.0000
G1 X-41.835 Y-27.517 E0.0311 F3000 ; custom feedrate - half
G1 X-42.26 Y-27.517 E0.0464
G1 X-42.26 Y-27.64 E0.0508
G1 X-41.835 Y-27.64 E0.0661
G1 X-41.835 Y-28.492 E0.0967
G1 X-42.26 Y-28.492 E0.1119
G1 X-42.26 Y-47.262 E0.7862
G1 X19.974999999999994 Y-47.262 E3.0217
G1 X19.974999999999994 Y-46.866 E3.0359
G1 X20.872 Y-46.866 E3.0682
G1 X20.872 Y-47.262 E3.0824
G1 X21.325999999999993 Y-47.262 E3.0987
G1 X21.325999999999993 Y-46.866 E3.1129
G1 X22.217 Y-46.866 E3.1449
G1 X22.217 Y-47.262 E3.1591
G1 X42.260000000000005 Y-47.262 E3.8791
G1 X42.260000000000005 Y-15.938000000000002 E5.0043
G1 X9.607999999999997 Y14.474000000000004 E6.6071
G1 X7.058 Y14.474000000000004 E6.6987
G1 X7.058 Y16.849000000000004 E6.7840
G1 X-25.26 Y46.95 E8.3705
G1 X-25.26 Y31.427999999999997 E8.9280
G1 X-42.26 Y31.427999999999997 E9.5387
G1 X-42.26 Y-26.651 E11.6249
G1 X-41.835 Y-26.651 E11.6402
G92 E0.0000
G1 E-1.2 F2100 ; custom retraction
; layer 19, Z = 3.800
; feature inner perimeter
G1 Z4.000 F1200
G1 X-41.78 Y-26.068 F6000
G1 Z3.800 F1200
G1 E0 F2100 ; custom un-retraction/prime
G92 E0.0000
G1 X-41.355000000000004 Y-26.068 E0.0153 F6000 ; custom feedrate - full
G1 X-41.355000000000004 Y-29.075 E0.1233
G1 X-41.78 Y-29.075 E0.1386
G1 X-41.78 Y-46.782 E0.7746
G1 X19.403000000000006 Y-46.782 E2.9724
G1 X19.403000000000006 Y-46.386 E2.9866
G1 X22.790000000000006 Y-46.386 E3.1082
G1 X22.790000000000006 Y-46.782 E3.1224
G1 X41.78 Y-46.782 E3.8046
G1 X41.78 Y-16.147 E4.9050
G1 X9.418999999999997 Y13.994 E6.4936
G1 X6.578000000000003 Y13.994 E6.5956
G1 X6.578000000000003 Y16.64 E6.6907
G1 X-24.78 Y45.846999999999994 E8.2300
G1 X-24.78 Y30.947999999999993 E8.7652
G1 X-41.78 Y30.947999999999993 E9.3759
G1 X-41.78 Y-26.068 E11.4239
; feature outer perimeter
G1 X-41.835 Y-26.548 F6000
G92 E0.0000
G1 X-41.835 Y-27.418 E0.0313 F3000 ; custom feedrate - half
G1 X-42.26 Y-27.418 E0.0465
G1 X-42.26 Y-27.74 E0.0581
G1 X-41.835 Y-27.74 E0.0734
G1 X-41.835 Y-28.595 E0.1041
G1 X-42.26 Y-28.595 E0.1193
G1 X-42.26 Y-47.262 E0.7899
G1 X19.882999999999996 Y-47.262 E3.0221
G1 X19.882999999999996 Y-46.866 E3.0363
G1 X20.781999999999996 Y-46.866 E3.0686
G1 X20.781999999999996 Y-47.262 E3.0828
G1 X21.417 Y-47.262 E3.1056
G1 X21.417 Y-46.866 E3.1199
G1 X22.310000000000002 Y-46.866 E3.1519
G1 X22.310000000000002 Y-47.262 E3.1662
G1 X42.260000000000005 Y-47.262 E3.8828
G1 X42.260000000000005 Y-15.938000000000002 E5.0080
G1 X9.607999999999997 Y14.474000000000004 E6.6108
G1 X7.058 Y14.474000000000004 E6.7024
G1 X7.058 Y16.849000000000004 E6.7877
G1 X-25.26 Y46.95 E8.3742
G1 X-25.26 Y31.427999999999997 E8.9317
G1 X-42.26 Y31.427999999999997 E9.5424
G1 X-42.26 Y-26.548 E11.6249
G1 X-41.835 Y-26.548 E11.6402
; feature gap fill
G1 X21.069999999999993 Y-46.812 F6000
G92 E0.0000
G1 X21.129000000000005 Y-46.754 E0.0030 F6000 ; custom feedrate - full
G92 E0.0000
G1 E-1.2 F2100 ; custom retraction
; layer 20, Z = 4.000
; feature inner perimeter
G1 Z4.200 F1200
G1 X22.882000000000005 Y-46.782 F6000
G1 Z4.000 F1200
G1 E0 F2100 ; custom un-retraction/prime
G92 E0.0000
G1 X41.78 Y-46.782 E0.6788 F6000 ; custom feedrate - full
G1 X41.78 Y-16.147 E1.7792
G1 X9.418999999999997 Y13.994 E3.3678
G1 X6.578000000000003 Y13.994 E3.4699
G1 X6.578000000000003 Y16.64 E3.5649
G1 X-24.78 Y45.846999999999994 E5.1042
G1 X-24.78 Y30.947999999999993 E5.6394
G1 X-41.78 Y30.947999999999993 E6.2501
G1 X-41.78 Y-25.965 E8.2945
G1 X-41.355000000000004 Y-25.965 E8.3097
G1 X-41.355000000000004 Y-29.179 E8.4252
G1 X-41.78 Y-29.179 E8.4404
G1 X-41.78 Y-46.782 E9.0728
G1 X19.311000000000007 Y-46.782 E11.2672
G1 X19.311000000000007 Y-46.386 E11.2814
G1 X22.882000000000005 Y-46.386 E11.4097
G1 X22.882000000000005 Y-46.782 E11.4239
; feature outer perimeter
G1 X22.402 Y-46.866 F6000
G92 E0.0000
G1 X22.402 Y-47.262 E0.0142 F3000 ; custom feedrate - half
G1 X42.260000000000005 Y-47.262 E0.7275
G1 X42.260000000000005 Y-15.938000000000002 E1.8527
G1 X9.607999999999997 Y14.474000000000004 E3.4556
G1 X7.058 Y14.474000000000004 E3.5471
G1 X7.058 Y16.849000000000004 E3.6324
G1 X-25.26 Y46.95 E5.2189
G1 X-25.26 Y31.427999999999997 E5.7765
G1 X-42.26 Y31.427999999999997 E6.3871
G1 X-42.26 Y-26.445 E8.4660
G1 X-41.835 Y-26.445 E8.4813
G1 X-41.835 Y-27.319 E8.5126
G1 X-42.26 Y-27.319 E8.5279
G1 X-42.26 Y-27.84 E8.5466
G1 X-41.835 Y-27.84 E8.5619
G1 X-41.835 Y-28.699 E8.5927
G1 X-42.26 Y-28.699 E8.6080
G1 X-42.26 Y-47.262 E9.2748
G1 X19.790999999999997 Y-47.262 E11.5038
G1 X19.790999999999997 Y-46.866 E11.5180
G1 X20.691999999999993 Y-46.866 E11.5503
G1 X20.691999999999993 Y-47.262 E11.5645
G1 X21.507000000000005 Y-47.262 E11.5938
G1 X21.507000000000005 Y-46.866 E11.6081
G1 X22.402 Y-46.866 E11.6402
; feature gap fill
G1 X21.507000000000005 Y-46.866 F6000
G1 X21.507000000000005 Y-46.945
G1 X21.179000000000002 Y-46.974000000000004
G92 E0.0000
G1 X20.980000000000004 Y-46.775 E0.0101 F6000 ; custom feedrate - full
G92 E0.0000
G1 E-1.2 F2100 ; custom retraction
; layer 21, Z = 4.200
; feature inner perimeter
G1 Z4.400 F1200
G1 X19.22 Y-46.782 F6000
G1 Z4.200 F1200
G1 E0 F2100 ; custom un-retraction/prime
G92 E0.0000
G1 X19.22 Y-46.386 E0.0142 F6000 ; custom feedrate - full
G1 X22.974999999999994 Y-46.386 E0.1491
G1 X22.974999999999994 Y-46.782 E0.1633
G1 X41.78 Y-46.782 E0.8388
G1 X41.78 Y-16.147 E1.9393
G1 X9.418999999999997 Y13.994 E3.5278
G1 X6.578000000000003 Y13.994 E3.6299
G1 X6.578000000000003 Y16.64 E3.7249
G1 X-24.78 Y45.846999999999994 E5.2642
G1 X-24.78 Y30.947999999999993 E5.7994
G1 X-41.78 Y30.947999999999993 E6.4101
G1 X-41.78 Y-25.862 E8.4508
G1 X-41.355000000000004 Y-25.862 E8.4660
G1 X-41.355000000000004 Y-29.282 E8.5889
G1 X-41.78 Y-29.282 E8.6042
G1 X-41.78 Y-46.782 E9.2328
G1 X19.22 Y-46.782 E11.4239
; feature outer perimeter
G1 X19.700000000000003 Y-46.866 F6000
G92 E0.0000
G1 X20.602000000000004 Y-46.866 E0.0324 F3000 ; custom feedrate - half
G1 X20.602000000000004 Y-47.262 E0.0466
G1 X21.598 Y-47.262 E0.0824
G1 X21.598 Y-46.866 E0.0966
G1 X22.495000000000005 Y-46.866 E0.1289
G1 X22.495000000000005 Y-47.262 E0.1431
G1 X42.260000000000005 Y-47.262 E0.8530
G1 X42.260000000000005 Y-15.938000000000002 E1.9782
G1 X9.607999999999997 Y14.474000000000004 E3.5811
G1 X7.058 Y14.474000000000004 E3.6727
G1 X7.058 Y16.849000000000004 E3.7580
G1 X-25.26 Y46.95 E5.3444
G1 X-25.26 Y31.427999999999997 E5.9020
G1 X-42.26 Y31.427999999999997 E6.5127
G1 X-42.26 Y-26.342 E8.5878
G1 X-41.835 Y-26.342 E8.6031
G1 X-41.835 Y-27.22 E8.6346
G1 X-42.26 Y-27.22 E8.6499
G1 X-42.26 Y-27.941 E8.6758
G1 X-41.835 Y-27.941 E8.6910
G1 X-41.835 Y-28.802 E8.7220
G1 X-42.26 Y-28.802 E8.7373
G1 X-42.26 Y-47.262 E9.4003
G1 X19.700000000000003 Y-47.262 E11.6260
G1 X19.700000000000003 Y-46.866 E11.6402
; feature gap fill
G1 X20.602000000000004 Y-46.866 F6000
G1 X20.602000000000004 Y-46.947
G1 X20.908 Y-46.974000000000004
G92 E0.0000
G1 X21.203000000000003 Y-46.679 E0.0150 F6000 ; custom feedrate - full
G1 X-41.763 Y-27.508 F6000
G92 E0.0000
G1 X-41.908 Y-27.653 E0.0073 F6000 ; custom feedrate - full
G92 E0.0000
G1 E-1.2 F2100 ; custom retraction
; layer 22, Z = 4.400
; feature inner perimeter
G1 Z4.600 F1200
G1 X-41.887 Y-27.941 F6000
G1 X-41.835 Y-27.941
G1 X-41.835 Y-28.64
G1 X-41.78 Y-29.386
G1 Z4.400 F1200
G1 E0 F2100 ; custom un-retraction/prime
G92 E0.0000
G1 X-41.78 Y-46.782 E0.6249 F6000 ; custom feedrate - full
G1 X19.128 Y-46.782 E2.8128
G1 X19.128 Y-46.386 E2.8270
G1 X23.067999999999998 Y-46.386 E2.9685
G1 X23.067999999999998 Y-46.782 E2.9827
G1 X41.78 Y-46.782 E3.6549
G1 X41.78 Y-16.147 E4.7553
G1 X9.418999999999997 Y13.994 E6.3439
G1 X6.578000000000003 Y13.994 E6.4459
G1 X6.578000000000003 Y16.64 E6.5410
G1 X-24.78 Y45.846999999999994 E8.0803
G1 X-24.78 Y30.947999999999993 E8.6155
G1 X-41.78 Y30.947999999999993 E9.2261
G1 X-41.78 Y-25.759 E11.2631
G1 X-41.355000000000004 Y-25.759 E11.2784
G1 X-41.355000000000004 Y-29.386 E11.4087
G1 X-41.78 Y-29.386 E11.4239
; feature outer perimeter
G1 X-41.835 Y-28.906 F6000
G92 E0.0000
G1 X-42.26 Y-28.906 E0.0153 F3000 ; custom feedrate - half
G1 X-42.26 Y-47.262 E0.6746
G1 X19.608000000000004 Y-47.262 E2.8970
G1 X19.608000000000004 Y-46.866 E2.9112
G1 X20.512 Y-46.866 E2.9437
G1 X20.512 Y-47.262 E2.9579
G1 X21.688000000000002 Y-47.262 E3.0002
G1 X21.688000000000002 Y-46.866 E3.0144
G1 X22.587999999999994 Y-46.866 E3.0467
G1 X22.587999999999994 Y-47.262 E3.0609
G1 X42.260000000000005 Y-47.262 E3.7675
G1 X42.260000000000005 Y-15.938000000000002 E4.8927
G1 X9.607999999999997 Y14.474000000000004 E6.4956
G1 X7.058 Y14.474000000000004 E6.5872
G1 X7.058 Y16.849000000000004 E6.6725
G1 X-25.26 Y46.95 E8.2589
G1 X-25.26 Y31.427999999999997 E8.8165
G1 X-42.26 Y31.427999999999997 E9.4272
G1 X-42.26 Y-26.239 E11.4986
G1 X-41.835 Y-26.239 E11.5139
G1 X-41.835 Y-27.121 E11.5455
G1 X-42.26 Y-27.121 E11.5608
G1 X-42.26 Y-28.041 E11.5939
G1 X-41.835 Y-28.041 E11.6091
G1 X-41.835 Y-28.906 E11.6402
; feature gap fill
G1 X-41.647999999999996 Y-27.592 F6000
G92 E0.0000
G1 X-41.831 Y-27.409 E0.0093 F6000 ; custom feedrate - full
G1 X20.884 Y-46.679 F6000
G92 E0.0000
G1 X21.179000000000002 Y-46.974000000000004 E0.0150 F6000 ; custom feedrate - full
G92 E0.0000
G1 E-1.2 F2100 ; custom retraction
; layer 23, Z = 4.600
; feature inner perimeter
G1 Z4.800 F1200
G1 X21.688000000000002 Y-46.969 F6000
G1 X21.688000000000002 Y-46.866
G1 X22.587999999999994 Y-46.866
G1 X22.587999999999994 Y-46.961
G1 X41.78 Y-46.782
G1 Z4.600 F1200
G1 E0 F2100 ; custom un-retraction/prime
G92 E0.0000
G1 X41.78 Y-16.147 E1.1004 F6000 ; custom feedrate - full
G1 X9.418999999999997 Y13.994 E2.6890
G1 X6.578000000000003 Y13.994 E2.7910
G1 X6.578000000000003 Y16.64 E2.8861
G1 X-24.78 Y45.846999999999994 E4.4254
G1 X-24.78 Y30.947999999999993 E4.9606
G1 X-41.78 Y30.947999999999993 E5.5713
G1 X-41.78 Y-46.782 E8.3634
G1 X41.78 Y-46.782 E11.3650
; feature outer perimeter
G1 X42.260000000000005 Y-47.262 F6000
G92 E0.0000
G1 X42.260000000000005 Y-15.938000000000002 E1.1252 F3000 ; custom feedrate - half
G1 X9.607999999999997 Y14.474000000000004 E2.7280
G1 X7.058 Y14.474000000000004 E2.8196
G1 X7.058 Y16.849000000000004 E2.9049
G1 X-25.26 Y46.95 E4.4914
G1 X-25.26 Y31.427999999999997 E5.0490
G1 X-42.26 Y31.427999999999997 E5.6596
G1 X-42.26 Y-47.262 E8.4862
G1 X42.260000000000005 Y-47.262 E11.5223
G92 E0.0000
G1 E-1.2 F2100 ; custom retraction
; layer 24, Z = 4.800
; feature inner perimeter
G1 Z5.000 F1200
G1 X42.09 Y-47.262 F6000
G1 X42.09 Y-47.136
G1 X41.61 Y-46.782
G1 Z4.800 F1200
G1 E0 F2100 ; custom un-retraction/prime
G92 E0.0000
G1 X41.61 Y-15.988999999999997 E1.1061 F6000 ; custom feedrate - full
G1 X9.418999999999997 Y13.994 E2.6863
G1 X6.578000000000003 Y13.994 E2.7884
G1 X6.578000000000003 Y16.64 E2.8834
G1 X-24.78 Y45.846999999999994 E4.4227
G1 X-24.78 Y30.947999999999993 E4.9580
G1 X-41.78 Y30.947999999999993 E5.5686
G1 X-41.78 Y-46.782 E8.3607
G1 X41.61 Y-46.782 E11.3562
; feature outer perimeter
G1 X42.09 Y-47.262 F6000
G92 E0.0000
G1 X42.09 Y-15.780000000000001 E1.1309 F3000 ; custom feedrate - half
G1 X9.607999999999997 Y14.474000000000004 E2.7254
G1 X7.058 Y14.474000000000004 E2.8170
G1 X7.058 Y16.849000000000004 E2.9023
G1 X-25.26 Y46.95 E4.4887
G1 X-25.26 Y31.427999999999997 E5.0463
G1 X-42.26 Y31.427999999999997 E5.6570
G1 X-42.26 Y-47.262 E8.4836
G1 X42.09 Y-47.262 E11.5135
G92 E0.0000
G1 E-1.2 F2100 ; custom retraction
; layer 25, Z = 5.000
; feature inner perimeter
G1 Z5.200 F1200
G1 X41.92 Y-47.262 F6000
G1 X41.92 Y-47.136
G1 X41.44 Y-46.782
G1 Z5.000 F1200
G1 E0 F2100 ; custom un-retraction/prime
G92 E0.0000
G1 X41.44 Y-15.831000000000003 E1.1118 F6000 ; custom feedrate - full
G1 X9.418999999999997 Y13.994 E2.6837
G1 X6.578000000000003 Y13.994 E2.7857
G1 X6.578000000000003 Y16.64 E2.8808
G1 X-24.78 Y45.846999999999994 E4.4201
G1 X-24.78 Y30.947999999999993 E4.9553
G1 X-41.78 Y30.947999999999993 E5.5660
G1 X-41.78 Y-46.782 E8.3581
G1 X41.44 Y-46.782 E11.3474
; feature outer perimeter
G1 X41.92 Y-47.262 F6000
G92 E0.0000
G1 X41.92 Y-15.622 E1.1365 F3000 ; custom feedrate - half
G1 X9.607999999999997 Y14.474000000000004 E2.7227
G1 X7.058 Y14.474000000000004 E2.8143
G1 X7.058 Y16.849000000000004 E2.8996
G1 X-25.26 Y46.95 E4.4861
G1 X-25.26 Y31.427999999999997 E5.0436
G1 X-42.26 Y31.427999999999997 E5.6543
G1 X-42.26 Y-47.262 E8.4809
G1 X41.92 Y-47.262 E11.5047
G92 E0.0000
G1 E-1.2 F2100 ; custom retraction
; layer 26, Z = 5.200
; feature inner perimeter
M204 P1200 ; custom acceleration - B
M205 X10 Y10 ; custom jerk - B
G1 Z5.400 F1200
G1 X41.78 Y-46.782 F6000
G1 Z5.200 F1200
G1 E0 F2100 ; custom un-retraction/prime
G92 E0.0000
G1 X41.78 Y-16.147 E1.1004 F6000 ; custom feedrate - full
G1 X9.418999999999997 Y13.994 E2.6890
G1 X6.578000000000003 Y13.994 E2.7910
G1 X6.578000000000003 Y16.64 E2.8861
G1 X-24.78 Y45.846999999999994 E4.4254
G1 X-24.78 Y30.947999999999993 E4.9606
G1 X-41.78 Y30.947999999999993 E5.5713
G1 X-41.78 Y-46.782 E8.3634
G1 X41.78 Y-46.782 E11.3650
; feature outer perimeter
G1 X42.260000000000005 Y-47.262 F6000
G92 E0.0000
G1 X42.260000000000005 Y-15.938000000000002 E1.1252 F3000 ; custom feedrate - half
G1 X9.607999999999997 Y14.474000000000004 E2.7280
G1 X7.058 Y14.474000000000004 E2.8196
G1 X7.058 Y16.849000000000004 E2.9049
G1 X-25.26 Y46.95 E4.4914
G1 X-25.26 Y31.427999999999997 E5.0490
G1 X-42.26 Y31.427999999999997 E5.6596
G1 X-42.26 Y-47.262 E8.4862
G1 X42.260000000000005 Y-47.262 E11.5223
G92 E0.0000
G1 E-1.2 F2100 ; custom retraction
; layer 27, Z = 5.400
; feature inner perimeter
G1 Z5.600 F1200
G1 X41.78 Y-46.782 F6000
G1 Z5.400 F1200
G1 E0 F2100 ; custom un-retraction/prime
G92 E0.0000
G1 X41.78 Y-16.147 E1.1004 F6000 ; custom feedrate - full
G1 X9.418999999999997 Y13.994 E2.6890
G1 X6.578000000000003 Y13.994 E2.7910
G1 X6.578000000000003 Y16.64 E2.8861
G1 X-24.78 Y45.846999999999994 E4.4254
G1 X-24.78 Y30.947999999999993 E4.9606
G1 X-41.78 Y30.947999999999993 E5.5713
G1 X-41.78 Y-46.782 E8.3634
G1 X41.78 Y-46.782 E11.3650
; feature outer perimeter
G1 X42.260000000000005 Y-47.262 F6000
G92 E0.0000
G1 X42.260000000000005 Y-15.938000000000002 E1.1252 F3000 ; custom feedrate - half
G1 X9.607999999999997 Y14.474000000000004 E2.7280
G1 X7.058 Y14.474000000000004 E2.8196
G1 X7.058 Y16.849000000000004 E2.9049
G1 X-25.26 Y46.95 E4.4914
G1 X-25.26 Y31.427999999999997 E5.0490
G1 X-42.26 Y31.427999999999997 E5.6596
G1 X-42.26 Y-47.262 E8.4862
G1 X42.260000000000005 Y-47.262 E11.5223
G92 E0.0000
G1 E-1.2 F2100 ; custom retraction
; layer 28, Z = 5.600
; feature inner perimeter
G1 Z5.800 F1200
G1 X41.78 Y-46.782 F6000
G1 Z5.600 F1200
G1 E0 F2100 ; custom un-retraction/prime
G92 E0.0000
G1 X41.78 Y-16.147 E1.1004 F6000 ; custom feedrate - full
G1 X9.418999999999997 Y13.994 E2.6890
G1 X6.578000000000003 Y13.994 E2.7910
G1 X6.578000000000003 Y16.64 E2.8861
G1 X-24.78 Y45.846999999999994 E4.4254
G1 X-24.78 Y30.947999999999993 E4.9606
G1 X-41.78 Y30.947999999999993 E5.5713
G1 X-41.78 Y-25.603 E7.6026
G1 X-41.355000000000004 Y-25.603 E7.6179
G1 X-41.355000000000004 Y-29.548 E7.7596
G1 X-41.78 Y-29.548 E7.7749
G1 X-41.78 Y-46.782 E8.3939
G1 X20.180999999999997 Y-46.782 E10.6196
G1 X20.180999999999997 Y-46.386 E10.6338
G1 X22.013999999999996 Y-46.386 E10.6997
G1 X22.013999999999996 Y-46.782 E10.7139
G1 X41.78 Y-46.782 E11.4239
; feature outer perimeter
G1 X42.260000000000005 Y-47.262 F6000
G92 E0.0000
G1 X42.260000000000005 Y-15.938000000000002 E1.1252 F3000 ; custom feedrate - half
G1 X9.607999999999997 Y14.474000000000004 E2.7280
G1 X7.058 Y14.474000000000004 E2.8196
G1 X7.058 Y16.849000000000004 E2.9049
G1 X-25.26 Y46.95 E4.4914
G1 X-25.26 Y31.427999999999997 E5.0490
G1 X-42.26 Y31.427999999999997 E5.6596
G1 X-42.26 Y-26.083 E7.7255
G1 X-41.835 Y-26.083 E7.7407
G1 X-41.835 Y-26.95 E7.7719
G1 X-42.26 Y-26.95 E7.7871
G1 X-42.26 Y-28.173 E7.8311
G1 X-41.835 Y-28.173 E7.8463
G1 X-41.835 Y-29.068 E7.8785
G1 X-42.26 Y-29.068 E7.8937
G1 X-42.26 Y-47.262 E8.5473
G1 X20.661 Y-47.262 E10.8075
G1 X20.661 Y-46.866 E10.8217
G1 X21.534000000000006 Y-46.866 E10.8530
G1 X21.534000000000006 Y-47.262 E10.8673
G1 X42.260000000000005 Y-47.262 E11.6118
; feature gap fill
G1 X-41.647999999999996 Y-27.592 F6000
G92 E0.0000
G1 X-41.972 Y-27.268 E0.0165 F6000 ; custom feedrate - full
G92 E0.0000
G1 E-1.2 F2100 ; custom retraction
; layer 29, Z = 5.800
; feature inner perimeter
G1 Z6.000 F1200
G1 X-41.933 Y-26.95 F6000
G1 X-41.835 Y-26.95
G1 X-41.835 Y-26.152
G1 X-41.78 Y-25.704
G1 Z5.800 F1200
G1 E0 F2100 ; custom un-retraction/prime
G92 E0.0000
G1 X-41.355000000000004 Y-25.704 E0.0153 F6000 ; custom feedrate - full
G1 X-41.355000000000004 Y-29.447 E0.1497
G1 X-41.78 Y-29.447 E0.1650
G1 X-41.78 Y-46.782 E0.7877
G1 X20.180999999999997 Y-46.782 E3.0134
G1 X20.180999999999997 Y-46.386 E3.0276
G1 X22.013999999999996 Y-46.386 E3.0934
G1 X22.013999999999996 Y-46.782 E3.1076
G1 X41.78 Y-46.782 E3.8177
G1 X41.78 Y-16.147 E4.9181
G1 X9.418999999999997 Y13.994 E6.5067
G1 X6.578000000000003 Y13.994 E6.6087
G1 X6.578000000000003 Y16.64 E6.7038
G1 X-24.78 Y45.846999999999994 E8.2431
G1 X-24.78 Y30.947999999999993 E8.7783
G1 X-41.78 Y30.947999999999993 E9.3889
G1 X-41.78 Y-25.704 E11.4239
; feature outer perimeter
G1 X-41.835 Y-26.184 F6000
G92 E0.0000
G1 X-41.835 Y-27.049 E0.0311 F3000 ; custom feedrate - half
G1 X-42.26 Y-27.049 E0.0463
G1 X-42.26 Y-28.076 E0.0832
G1 X-41.835 Y-28.076 E0.0985
G1 X-41.835 Y-28.967 E0.1305
G1 X-42.26 Y-28.967 E0.1458
G1 X-42.26 Y-47.262 E0.8029
G1 X20.661 Y-47.262 E3.0631
G1 X20.661 Y-46.866 E3.0773
G1 X21.534000000000006 Y-46.866 E3.1087
G1 X21.534000000000006 Y-47.262 E3.1229
G1 X42.260000000000005 Y-47.262 E3.8674
G1 X42.260000000000005 Y-15.938000000000002 E4.9926
G1 X9.607999999999997 Y14.474000000000004 E6.5955
G1 X7.058 Y14.474000000000004 E6.6870
G1 X7.058 Y16.849000000000004 E6.7723
G1 X-25.26 Y46.95 E8.3588
G1 X-25.26 Y31.427999999999997 E8.9164
G1 X-42.26 Y31.427999999999997 E9.5270
G1 X-42.26 Y-26.184 E11.5965
G1 X-41.835 Y-26.184 E11.6118
; feature gap fill
G1 X-41.647999999999996 Y-27.393 F6000
G92 E0.0000
G1 X-41.972 Y-27.717 E0.0165 F6000 ; custom feedrate - full
G92 E0.0000
G1 E-1.2 F2100 ; custom retraction
; layer 30, Z = 6.000
; feature inner perimeter
G1 Z6.200 F1200
G1 X-41.93 Y-28.076 F6000
G1 X-41.835 Y-28.076
G1 X-41.835 Y-28.88
G1 X-41.78 Y-29.347
G1 Z6.000 F1200
G1 E0 F2100 ; custom un-retraction/prime
G92 E0.0000
G1 X-41.78 Y-46.782 E0.6263 F6000 ; custom feedrate - full
G1 X20.180999999999997 Y-46.782 E2.8520
G1 X20.180999999999997 Y-46.386 E2.8662
G1 X22.013999999999996 Y-46.386 E2.9320
G1 X22.013999999999996 Y-46.782 E2.9462
G1 X41.78 Y-46.782 E3.6563
G1 X41.78 Y-16.147 E4.7567
G1 X9.418999999999997 Y13.994 E6.3453
G1 X6.578000000000003 Y13.994 E6.4473
G1 X6.578000000000003 Y16.64 E6.5424
G1 X-24.78 Y45.846999999999994 E8.0817
G1 X-24.78 Y30.947999999999993 E8.6169
G1 X-41.78 Y30.947999999999993 E9.2275
G1 X-41.78 Y-25.805 E11.2662
G1 X-41.355000000000004 Y-25.805 E11.2814
G1 X-41.355000000000004 Y-29.347 E11.4087
G1 X-41.78 Y-29.347 E11.4239
; feature outer perimeter
G1 X-41.835 Y-28.867 F6000
G92 E0.0000
G1 X-42.26 Y-28.867 E0.0153 F3000 ; custom feedrate - half
G1 X-42.26 Y-47.262 E0.6760
G1 X20.661 Y-47.262 E2.9362
G1 X20.661 Y-46.866 E2.9504
G1 X21.534000000000006 Y-46.866 E2.9818
G1 X21.534000000000006 Y-47.262 E2.9960
G1 X42.260000000000005 Y-47.262 E3.7405
G1 X42.260000000000005 Y-15.938000000000002 E4.8657
G1 X9.607999999999997 Y14.474000000000004 E6.4685
G1 X7.058 Y14.474000000000004 E6.5601
G1 X7.058 Y16.849000000000004 E6.6454
G1 X-25.26 Y46.95 E8.2319
G1 X-25.26 Y31.427999999999997 E8.7895
G1 X-42.26 Y31.427999999999997 E9.4001
G1 X-42.26 Y-26.285 E11.4732
G1 X-41.835 Y-26.285 E11.4885
G1 X-41.835 Y-27.147 E11.5195
G1 X-42.26 Y-27.147 E11.5347
G1 X-42.26 Y-27.98 E11.5646
G1 X-41.835 Y-27.98 E11.5799
G1 X-41.835 Y-28.867 E11.6118
; feature gap fill
G1 X-41.647999999999996 Y-27.592 F6000
G92 E0.0000
G1 X-41.805 Y-27.435 E0.0080 F6000 ; custom feedrate - full
G92 E0.0000
G1 E-1.2 F2100 ; custom retraction
; layer 31, Z = 6.200
; feature inner perimeter
G1 Z6.400 F1200
G1 X-41.78 Y-25.905 F6000
G1 Z6.200 F1200
G1 E0 F2100 ; custom un-retraction/prime
G92 E0.0000
G1 X-41.355000000000004 Y-25.905 E0.0153 F6000 ; custom feedrate - full
G1 X-41.355000000000004 Y-29.247 E0.1353
G1 X-41.78 Y-29.247 E0.1505
G1 X-41.78 Y-46.782 E0.7804
G1 X20.180999999999997 Y-46.782 E3.0061
G1 X20.180999999999997 Y-46.386 E3.0203
G1 X22.013999999999996 Y-46.386 E3.0862
G1 X22.013999999999996 Y-46.782 E3.1004
G1 X41.78 Y-46.782 E3.8104
G1 X41.78 Y-16.147 E4.9109
G1 X9.418999999999997 Y13.994 E6.4994
G1 X6.578000000000003 Y13.994 E6.6015
G1 X6.578000000000003 Y16.64 E6.6965
G1 X-24.78 Y45.846999999999994 E8.2358
G1 X-24.78 Y30.947999999999993 E8.7710
G1 X-41.78 Y30.947999999999993 E9.3817
G1 X-41.78 Y-25.905 E11.4239
; feature outer perimeter
G1 X-41.835 Y-26.385 F6000
G92 E0.0000
G1 X-41.835 Y-27.246 E0.0309 F3000 ; custom feedrate - half
G1 X-42.26 Y-27.246 E0.0462
G1 X-42.26 Y-27.883 E0.0691
G1 X-41.835 Y-27.883 E0.0843
G1 X-41.835 Y-28.767 E0.1161
G1 X-42.26 Y-28.767 E0.1313
G1 X-42.26 Y-47.262 E0.7957
G1 X20.661 Y-47.262 E3.0559
G1 X20.661 Y-46.866 E3.0701
G1 X21.534000000000006 Y-46.866 E3.1014
G1 X21.534000000000006 Y-47.262 E3.1157
G1 X42.260000000000005 Y-47.262 E3.8602
G1 X42.260000000000005 Y-15.938000000000002 E4.9854
G1 X9.607999999999997 Y14.474000000000004 E6.5882
G1 X7.058 Y14.474000000000004 E6.6798
G1 X7.058 Y16.849000000000004 E6.7651
G1 X-25.26 Y46.95 E8.3516
G1 X-25.26 Y31.427999999999997 E8.9091
G1 X-42.26 Y31.427999999999997 E9.5198
G1 X-42.26 Y-26.385 E11.5965
G1 X-41.835 Y-26.385 E11.6118
; feature gap fill
G1 X-41.789 Y-27.534 F6000
G92 E0.0000
G1 X-41.85 Y-27.595 E0.0031 F6000 ; custom feedrate - full
G92 E0.0000
G1 E-1.2 F2100 ; custom retraction
; layer 32, Z = 6.400
; feature inner perimeter
G1 Z6.600 F1200
G1 X-41.835 Y-27.883 F6000
G1 X-41.835 Y-27.93
G1 X-41.78 Y-29.146
G1 Z6.400 F1200
G1 E0 F2100 ; custom un-retraction/prime
G92 E0.0000
G1 X-41.78 Y-46.782 E0.6335 F6000 ; custom feedrate - full
G1 X20.180999999999997 Y-46.782 E2.8592
G1 X20.180999999999997 Y-46.386 E2.8734
G1 X22.013999999999996 Y-46.386 E2.9392
G1 X22.013999999999996 Y-46.782 E2.9535
G1 X41.78 Y-46.782 E3.6635
G1 X41.78 Y-16.147 E4.7639
G1 X9.418999999999997 Y13.994 E6.3525
G1 X6.578000000000003 Y13.994 E6.4545
G1 X6.578000000000003 Y16.64 E6.5496
G1 X-24.78 Y45.846999999999994 E8.0889
G1 X-24.78 Y30.947999999999993 E8.6241
G1 X-41.78 Y30.947999999999993 E9.2348
G1 X-41.78 Y-26.006 E11.2806
G1 X-41.355000000000004 Y-26.006 E11.2959
G1 X-41.355000000000004 Y-29.146 E11.4087
G1 X-41.78 Y-29.146 E11.4239
; feature outer perimeter
G1 X-41.835 Y-28.666 F6000
G92 E0.0000
G1 X-42.26 Y-28.666 E0.0153 F3000 ; custom feedrate - half
G1 X-42.26 Y-47.262 E0.6832
G1 X20.661 Y-47.262 E2.9434
G1 X20.661 Y-46.866 E2.9576
G1 X21.534000000000006 Y-46.866 E2.9890
G1 X21.534000000000006 Y-47.262 E3.0032
G1 X42.260000000000005 Y-47.262 E3.7477
G1 X42.260000000000005 Y-15.938000000000002 E4.8729
G1 X9.607999999999997 Y14.474000000000004 E6.4758
G1 X7.058 Y14.474000000000004 E6.5673
G1 X7.058 Y16.849000000000004 E6.6526
G1 X-25.26 Y46.95 E8.2391
G1 X-25.26 Y31.427999999999997 E8.7967
G1 X-42.26 Y31.427999999999997 E9.4073
G1 X-42.26 Y-26.486 E11.4877
G1 X-41.835 Y-26.486 E11.5029
G1 X-41.835 Y-27.344 E11.5338
G1 X-42.26 Y-27.344 E11.5490
G1 X-42.26 Y-27.786 E11.5649
G1 X-41.835 Y-27.786 E11.5802
G1 X-41.835 Y-28.666 E11.6118
G92 E0.0000
G1 E-1.2 F2100 ; custom retraction
; layer 33, Z = 6.600
; feature inner perimeter
G1 Z6.800 F1200
G1 X-41.78 Y-29.046 F6000
G1 Z6.600 F1200
G1 E0 F2100 ; custom un-retraction/prime
G92 E0.0000
G1 X-41.78 Y-46.782 E0.6371 F6000 ; custom feedrate - full
G1 X20.180999999999997 Y-46.782 E2.8628
G1 X20.180999999999997 Y-46.386 E2.8770
G1 X22.013999999999996 Y-46.386 E2.9428
G1 X22.013999999999996 Y-46.782 E2.9571
G1 X41.78 Y-46.782 E3.6671
G1 X41.78 Y-16.147 E4.7675
G1 X9.418999999999997 Y13.994 E6.3561
G1 X6.578000000000003 Y13.994 E6.4581
G1 X6.578000000000003 Y16.64 E6.5532
G1 X-24.78 Y45.846999999999994 E8.0925
G1 X-24.78 Y30.947999999999993 E8.6277
G1 X-41.78 Y30.947999999999993 E9.2384
G1 X-41.78 Y-26.107 E11.2878
G1 X-41.355000000000004 Y-26.107 E11.3031
G1 X-41.355000000000004 Y-29.046 E11.4087
G1 X-41.78 Y-29.046 E11.4239
; feature outer perimeter
G1 X-41.835 Y-28.566 F6000
G92 E0.0000
G1 X-42.26 Y-28.566 E0.0153 F3000 ; custom feedrate - half
G1 X-42.26 Y-47.262 E0.6869
G1 X20.661 Y-47.262 E2.9470
G1 X20.661 Y-46.866 E2.9612
G1 X21.534000000000006 Y-46.866 E2.9926
G1 X21.534000000000006 Y-47.262 E3.0068
G1 X42.260000000000005 Y-47.262 E3.7513
G1 X42.260000000000005 Y-15.938000000000002 E4.8765
G1 X9.607999999999997 Y14.474000000000004 E6.4794
G1 X7.058 Y14.474000000000004 E6.5709
G1 X7.058 Y16.849000000000004 E6.6563
G1 X-25.26 Y46.95 E8.2427
G1 X-25.26 Y31.427999999999997 E8.8003
G1 X-42.26 Y31.427999999999997 E9.4109
G1 X-42.26 Y-26.587 E11.4949
G1 X-41.835 Y-26.587 E11.5102
G1 X-41.835 Y-27.443 E11.5409
G1 X-42.26 Y-27.443 E11.5562
G1 X-42.26 Y-27.689 E11.5650
G1 X-41.835 Y-27.689 E11.5803
G1 X-41.835 Y-28.566 E11.6118
G92 E0.0000
G1 E-1.2 F2100 ; custom retraction
; layer 34, Z = 6.800
; feature inner perimeter
G1 Z7.000 F1200
G1 X-41.78 Y-28.945 F6000
G1 Z6.800 F1200
G1 E0 F2100 ; custom un-retraction/prime
G92 E0.0000
G1 X-41.78 Y-46.782 E0.6407 F6000 ; custom feedrate - full
G1 X20.180999999999997 Y-46.782 E2.8664
G1 X20.180999999999997 Y-46.386 E2.8806
G1 X22.013999999999996 Y-46.386 E2.9464
G1 X22.013999999999996 Y-46.782 E2.9607
G1 X41.78 Y-46.782 E3.6707
G1 X41.78 Y-16.147 E4.7711
G1 X9.418999999999997 Y13.994 E6.3597
G1 X6.578000000000003 Y13.994 E6.4617
G1 X6.578000000000003 Y16.64 E6.5568
G1 X-24.78 Y45.846999999999994 E8.0961
G1 X-24.78 Y30.947999999999993 E8.6313
G1 X-41.78 Y30.947999999999993 E9.2420
G1 X-41.78 Y-26.208 E11.2950
G1 X-41.355000000000004 Y-26.208 E11.3103
G1 X-41.355000000000004 Y-28.945 E11.4087
G1 X-41.78 Y-28.945 E11.4239
; feature outer perimeter
G1 X-41.835 Y-28.465 F6000
G92 E0.0000
G1 X-42.26 Y-28.465 E0.0153 F3000 ; custom feedrate - half
G1 X-42.26 Y-47.262 E0.6905
G1 X20.661 Y-47.262 E2.9506
G1 X20.661 Y-46.866 E2.9648
G1 X21.534000000000006 Y-46.866 E2.9962
G1 X21.534000000000006 Y-47.262 E3.0104
G1 X42.260000000000005 Y-47.262 E3.7549
G1 X42.260000000000005 Y-15.938000000000002 E4.8801
G1 X9.607999999999997 Y14.474000000000004 E6.4830
G1 X7.058 Y14.474000000000004 E6.5746
G1 X7.058 Y16.849000000000004 E6.6599
G1 X-25.26 Y46.95 E8.2463
G1 X-25.26 Y31.427999999999997 E8.8039
G1 X-42.26 Y31.427999999999997 E9.4145
G1 X-42.26 Y-26.688 E11.5021
G1 X-41.835 Y-26.688 E11.5174
G1 X-41.835 Y-27.541 E11.5480
G1 X-42.26 Y-27.541 E11.5633
G1 X-42.26 Y-27.593 E11.5651
G1 X-41.835 Y-27.593 E11.5804
G1 X-41.835 Y-28.465 E11.6118
G92 E0.0000
G1 E-1.2 F2100 ; custom retraction
; layer 35, Z = 7.000
; feature inner perimeter
G1 Z7.200 F1200
G1 X-41.78 Y-28.845 F6000
G1 Z7.000 F1200
G1 E0 F2100 ; custom un-retraction/prime
G92 E0.0000
G1 X-41.78 Y-46.782 E0.6443 F6000 ; custom feedrate - full
G1 X20.180999999999997 Y-46.782 E2.8700
G1 X20.180999999999997 Y-46.386 E2.8842
G1 X22.013999999999996 Y-46.386 E2.9501
G1 X22.013999999999996 Y-46.782 E2.9643
G1 X41.78 Y-46.782 E3.6743
G1 X41.78 Y-16.147 E4.7747
G1 X9.418999999999997 Y13.994 E6.3633
G1 X6.578000000000003 Y13.994 E6.4653
G1 X6.578000000000003 Y16.64 E6.5604
G1 X-24.78 Y45.846999999999994 E8.0997
G1 X-24.78 Y30.947999999999993 E8.6349
G1 X-41.78 Y30.947999999999993 E9.2456
G1 X-41.78 Y-26.308 E11.3023
G1 X-41.355000000000004 Y-26.308 E11.3175
G1 X-41.355000000000004 Y-28.845 E11.4087
G1 X-41.78 Y-28.845 E11.4239
; feature outer perimeter
G1 X-41.835 Y-28.365 F6000
G92 E0.0000
G1 X-42.26 Y-28.365 E0.0153 F3000 ; custom feedrate - half
G1 X-42.26 Y-47.262 E0.6941
G1 X20.661 Y-47.262 E2.9542
G1 X20.661 Y-46.866 E2.9684
G1 X21.534000000000006 Y-46.866 E2.9998
G1 X21.534000000000006 Y-47.262 E3.0140
G1 X42.260000000000005 Y-47.262 E3.7585
G1 X42.260000000000005 Y-15.938000000000002 E4.8837
G1 X9.607999999999997 Y14.474000000000004 E6.4866
G1 X7.058 Y14.474000000000004 E6.5782
G1 X7.058 Y16.849000000000004 E6.6635
G1 X-25.26 Y46.95 E8.2499
G1 X-25.26 Y31.427999999999997 E8.8075
G1 X-42.26 Y31.427999999999997 E9.4181
G1 X-42.26 Y-26.788 E11.5093
G1 X-41.835 Y-26.788 E11.5246
G1 X-41.835 Y-28.365 E11.5812
G92 E0.0000
G1 E-1.2 F2100 ; custom retraction
; layer 36, Z = 7.200
; feature inner perimeter
G1 Z7.400 F1200
G1 X-41.78 Y-28.745 F6000
G1 Z7.200 F1200
G1 E0 F2100 ; custom un-retraction/prime
G92 E0.0000
G1 X-41.78 Y-46.782 E0.6479 F6000 ; custom feedrate - full
G1 X20.135999999999996 Y-46.782 E2.8720
G1 X20.135999999999996 Y-46.386 E2.8862
G1 X22.048000000000002 Y-46.386 E2.9549
G1 X22.048000000000002 Y-46.782 E2.9691
G1 X41.78 Y-46.782 E3.6779
G1 X41.78 Y-16.147 E4.7783
G1 X9.418999999999997 Y13.994 E6.3669
G1 X6.578000000000003 Y13.994 E6.4690
G1 X6.578000000000003 Y16.64 E6.5640
G1 X-24.78 Y45.846999999999994 E8.1033
G1 X-24.78 Y30.947999999999993 E8.6385
G1 X-41.78 Y30.947999999999993 E9.2492
G1 X-41.78 Y-26.409 E11.3095
G1 X-41.355000000000004 Y-26.409 E11.3248
G1 X-41.355000000000004 Y-28.745 E11.4087
G1 X-41.78 Y-28.745 E11.4239
; feature outer perimeter
G1 X-41.835 Y-28.265 F6000
G92 E0.0000
G1 X-42.26 Y-28.265 E0.0153 F3000 ; custom feedrate - half
G1 X-42.26 Y-47.262 E0.6977
G1 X20.616 Y-47.262 E2.9562
G1 X20.616 Y-46.866 E2.9705
G1 X21.567999999999998 Y-46.866 E3.0047
G1 X21.567999999999998 Y-47.262 E3.0189
G1 X42.260000000000005 Y-47.262 E3.7621
G1 X42.260000000000005 Y-15.938000000000002 E4.8873
G1 X9.607999999999997 Y14.474000000000004 E6.4902
G1 X7.058 Y14.474000000000004 E6.5818
G1 X7.058 Y16.849000000000004 E6.6671
G1 X-25.26 Y46.95 E8.2535
G1 X-25.26 Y31.427999999999997 E8.8111
G1 X-42.26 Y31.427999999999997 E9.4218
G1 X-42.26 Y-26.889 E11.5166
G1 X-41.835 Y-26.889 E11.5318
G1 X-41.835 Y-28.265 E11.5812
G92 E0.0000
G1 E-1.2 F2100 ; custom retraction
; layer 37, Z = 7.400
; feature inner perimeter
G1 Z7.600 F1200
G1 X-41.78 Y-28.644 F6000
G1 Z7.400 F1200
G1 E0 F2100 ; custom un-retraction/prime
G92 E0.0000
G1 X-41.78 Y-46.782 E0.6515 F6000 ; custom feedrate - full
G1 X20.045 Y-46.782 E2.8723
G1 X20.045 Y-46.386 E2.8865
G1 X22.141000000000005 Y-46.386 E2.9618
G1 X22.141000000000005 Y-46.782 E2.9761
G1 X41.78 Y-46.782 E3.6815
G1 X41.78 Y-16.147 E4.7819
G1 X9.418999999999997 Y13.994 E6.3705
G1 X6.578000000000003 Y13.994 E6.4726
G1 X6.578000000000003 Y16.64 E6.5676
G1 X-24.78 Y45.846999999999994 E8.1069
G1 X-24.78 Y30.947999999999993 E8.6421
G1 X-41.78 Y30.947999999999993 E9.2528
G1 X-41.78 Y-26.51 E11.3167
G1 X-41.355000000000004 Y-26.51 E11.3320
G1 X-41.355000000000004 Y-28.644 E11.4087
G1 X-41.78 Y-28.644 E11.4239
; feature outer perimeter
G1 X-41.835 Y-28.164 F6000
G92 E0.0000
G1 X-42.26 Y-28.164 E0.0153 F3000 ; custom feedrate - half
G1 X-42.26 Y-47.262 E0.7013
G1 X20.525000000000006 Y-47.262 E2.9566
G1 X20.525000000000006 Y-46.866 E2.9708
G1 X21.661 Y-46.866 E3.0116
G1 X21.661 Y-47.262 E3.0258
G1 X42.260000000000005 Y-47.262 E3.7657
G1 X42.260000000000005 Y-15.938000000000002 E4.8909
G1 X9.607999999999997 Y14.474000000000004 E6.4938
G1 X7.058 Y14.474000000000004 E6.5854
G1 X7.058 Y16.849000000000004 E6.6707
G1 X-25.26 Y46.95 E8.2571
G1 X-25.26 Y31.427999999999997 E8.8147
G1 X-42.26 Y31.427999999999997 E9.4254
G1 X-42.26 Y-26.99 E11.5238
G1 X-41.835 Y-26.99 E11.5390
G1 X-41.835 Y-28.164 E11.5812
G92 E0.0000
G1 E-1.2 F2100 ; custom retraction
; layer 38, Z = 7.600
; feature inner perimeter
G1 Z7.800 F1200
G1 X-41.78 Y-28.544 F6000
G1 Z7.600 F1200
G1 E0 F2100 ; custom un-retraction/prime
G92 E0.0000
G1 X-41.78 Y-46.782 E0.6551 F6000 ; custom feedrate - full
G1 X19.953000000000003 Y-46.782 E2.8726
G1 X19.953000000000003 Y-46.386 E2.8869
G1 X22.233999999999995 Y-46.386 E2.9688
G1 X22.233999999999995 Y-46.782 E2.9830
G1 X41.78 Y-46.782 E3.6851
G1 X41.78 Y-16.147 E4.7855
G1 X9.418999999999997 Y13.994 E6.3741
G1 X6.578000000000003 Y13.994 E6.4762
G1 X6.578000000000003 Y16.64 E6.5712
G1 X-24.78 Y45.846999999999994 E8.1105
G1 X-24.78 Y30.947999999999993 E8.6457
G1 X-41.78 Y30.947999999999993 E9.2564
G1 X-41.78 Y-26.611 E11.3239
G1 X-41.355000000000004 Y-26.611 E11.3392
G1 X-41.355000000000004 Y-28.544 E11.4087
G1 X-41.78 Y-28.544 E11.4239
; feature outer perimeter
G1 X-41.835 Y-28.064 F6000
G92 E0.0000
G1 X-42.26 Y-28.064 E0.0153 F3000 ; custom feedrate - half
G1 X-42.26 Y-47.262 E0.7049
G1 X20.433000000000007 Y-47.262 E2.9569
G1 X20.433000000000007 Y-46.866 E2.9711
G1 X21.754000000000005 Y-46.866 E3.0185
G1 X21.754000000000005 Y-47.262 E3.0327
G1 X42.260000000000005 Y-47.262 E3.7694
G1 X42.260000000000005 Y-15.938000000000002 E4.8945
G1 X9.607999999999997 Y14.474000000000004 E6.4974
G1 X7.058 Y14.474000000000004 E6.5890
G1 X7.058 Y16.849000000000004 E6.6743
G1 X-25.26 Y46.95 E8.2607
G1 X-25.26 Y31.427999999999997 E8.8183
G1 X-42.26 Y31.427999999999997 E9.4290
G1 X-42.26 Y-27.091 E11.5310
G1 X-41.835 Y-27.091 E11.5463
G1 X-41.835 Y-28.064 E11.5812
G92 E0.0000
G1 E-1.2 F2100 ; custom retraction
; layer 39, Z = 7.800
; feature inner perimeter
G1 Z8.000 F1200
G1 X-41.78 Y-28.557 F6000
G1 Z7.800 F1200
G1 E0 F2100 ; custom un-retraction/prime
G92 E0.0000
G1 X-41.78 Y-46.782 E0.6546 F6000 ; custom feedrate - full
G1 X19.861000000000004 Y-46.782 E2.8689
G1 X19.861000000000004 Y-46.386 E2.8831
G1 X22.325999999999993 Y-46.386 E2.9716
G1 X22.325999999999993 Y-46.782 E2.9858
G1 X41.78 Y-46.782 E3.6846
G1 X41.78 Y-16.147 E4.7851
G1 X9.418999999999997 Y13.994 E6.3736
G1 X6.578000000000003 Y13.994 E6.4757
G1 X6.578000000000003 Y16.64 E6.5707
G1 X-24.78 Y45.846999999999994 E8.1100
G1 X-24.78 Y30.947999999999993 E8.6453
G1 X-41.78 Y30.947999999999993 E9.2559
G1 X-41.78 Y-26.582 E11.3224
G1 X-41.355000000000004 Y-26.582 E11.3377
G1 X-41.355000000000004 Y-28.557 E11.4087
G1 X-41.78 Y-28.557 E11.4239
; feature outer perimeter
G1 X-41.835 Y-28.077 F6000
G92 E0.0000
G1 X-42.26 Y-28.077 E0.0153 F3000 ; custom feedrate - half
G1 X-42.26 Y-47.262 E0.7044
G1 X20.340999999999994 Y-47.262 E2.9531
G1 X20.340999999999994 Y-46.866 E2.9673
G1 X21.846000000000004 Y-46.866 E3.0214
G1 X21.846000000000004 Y-47.262 E3.0356
G1 X42.260000000000005 Y-47.262 E3.7689
G1 X42.260000000000005 Y-15.938000000000002 E4.8940
G1 X9.607999999999997 Y14.474000000000004 E6.4969
G1 X7.058 Y14.474000000000004 E6.5885
G1 X7.058 Y16.849000000000004 E6.6738
G1 X-25.26 Y46.95 E8.2602
G1 X-25.26 Y31.427999999999997 E8.8178
G1 X-42.26 Y31.427999999999997 E9.4285
G1 X-42.26 Y-27.062 E11.5295
G1 X-41.835 Y-27.062 E11.5448
G1 X-41.835 Y-28.077 E11.5812
G92 E0.0000
G1 E-1.2 F2100 ; custom retraction
; layer 40, Z = 8.000
; feature inner perimeter
G1 Z8.200 F1200
G1 X-41.78 Y-28.661 F6000
G1 Z8.000 F1200
G1 E0 F2100 ; custom un-retraction/prime
G92 E0.0000
G1 X-41.78 Y-46.782 E0.6509 F6000 ; custom feedrate - full
G1 X19.769999999999996 Y-46.782 E2.8619
G1 X19.769999999999996 Y-46.386 E2.8761
G1 X22.418999999999997 Y-46.386 E2.9712
G1 X22.418999999999997 Y-46.782 E2.9855
G1 X41.78 Y-46.782 E3.6809
G1 X41.78 Y-16.147 E4.7813
G1 X9.418999999999997 Y13.994 E6.3699
G1 X6.578000000000003 Y13.994 E6.4720
G1 X6.578000000000003 Y16.64 E6.5670
G1 X-24.78 Y45.846999999999994 E8.1063
G1 X-24.78 Y30.947999999999993 E8.6415
G1 X-41.78 Y30.947999999999993 E9.2522
G1 X-41.78 Y-26.479 E11.3150
G1 X-41.355000000000004 Y-26.479 E11.3303
G1 X-41.355000000000004 Y-28.661 E11.4087
G1 X-41.78 Y-28.661 E11.4239
; feature outer perimeter
G1 X-41.835 Y-28.181 F6000
G92 E0.0000
G1 X-42.26 Y-28.181 E0.0153 F3000 ; custom feedrate - half
G1 X-42.26 Y-47.262 E0.7007
G1 X20.25 Y-47.262 E2.9461
G1 X20.25 Y-46.866 E2.9603
G1 X21.938999999999993 Y-46.866 E3.0210
G1 X21.938999999999993 Y-47.262 E3.0352
G1 X42.260000000000005 Y-47.262 E3.7652
G1 X42.260000000000005 Y-15.938000000000002 E4.8903
G1 X9.607999999999997 Y14.474000000000004 E6.4932
G1 X7.058 Y14.474000000000004 E6.5848
G1 X7.058 Y16.849000000000004 E6.6701
G1 X-25.26 Y46.95 E8.2565
G1 X-25.26 Y31.427999999999997 E8.8141
G1 X-42.26 Y31.427999999999997 E9.4248
G1 X-42.26 Y-26.959 E11.5221
G1 X-41.835 Y-26.959 E11.5374
G1 X-41.835 Y-28.181 E11.5812
G92 E0.0000
G1 E-1.2 F2100 ; custom retraction
; layer 41, Z = 8.200
; feature inner perimeter
G1 Z8.400 F1200
G1 X-41.78 Y-28.764 F6000
G1 Z8.200 F1200
G1 E0 F2100 ; custom un-retraction/prime
G92 E0.0000
G1 X-41.78 Y-46.782 E0.6472 F6000 ; custom feedrate - full
G1 X19.677999999999997 Y-46.782 E2.8548
G1 X19.677999999999997 Y-46.386 E2.8691
G1 X22.512 Y-46.386 E2.9708
G1 X22.512 Y-46.782 E2.9851
G1 X41.78 Y-46.782 E3.6772
G1 X41.78 Y-16.147 E4.7776
G1 X9.418999999999997 Y13.994 E6.3662
G1 X6.578000000000003 Y13.994 E6.4682
G1 X6.578000000000003 Y16.64 E6.5633
G1 X-24.78 Y45.846999999999994 E8.1026
G1 X-24.78 Y30.947999999999993 E8.6378
G1 X-41.78 Y30.947999999999993 E9.2485
G1 X-41.78 Y-26.376 E11.3076
G1 X-41.355000000000004 Y-26.376 E11.3229
G1 X-41.355000000000004 Y-28.764 E11.4087
G1 X-41.78 Y-28.764 E11.4239
; feature outer perimeter
G1 X-41.835 Y-28.284 F6000
G92 E0.0000
G1 X-42.26 Y-28.284 E0.0153 F3000 ; custom feedrate - half
G1 X-42.26 Y-47.262 E0.6970
G1 X20.158 Y-47.262 E2.9391
G1 X20.158 Y-46.866 E2.9533
G1 X21.052000000000007 Y-46.866 E2.9854
G1 X21.052000000000007 Y-47.262 E2.9996
G1 X21.144999999999996 Y-47.262 E3.0030
G1 X21.144999999999996 Y-46.866 E3.0172
G1 X22.031999999999996 Y-46.866 E3.0490
G1 X22.031999999999996 Y-47.262 E3.0633
G1 X42.260000000000005 Y-47.262 E3.7899
G1 X42.260000000000005 Y-15.938000000000002 E4.9150
G1 X9.607999999999997 Y14.474000000000004 E6.5179
G1 X7.058 Y14.474000000000004 E6.6095
G1 X7.058 Y16.849000000000004 E6.6948
G1 X-25.26 Y46.95 E8.2812
G1 X-25.26 Y31.427999999999997 E8.8388
G1 X-42.26 Y31.427999999999997 E9.4495
G1 X-42.26 Y-26.856 E11.5431
G1 X-41.835 Y-26.856 E11.5584
G1 X-41.835 Y-28.284 E11.6097
G92 E0.0000
G1 E-1.2 F2100 ; custom retraction
; layer 42, Z = 8.400
; feature inner perimeter
G1 Z8.600 F1200
G1 X-41.78 Y-28.868 F6000
G1 Z8.400 F1200
G1 E0 F2100 ; custom un-retraction/prime
G92 E0.0000
G1 X-41.78 Y-46.782 E0.6435 F6000 ; custom feedrate - full
G1 X19.586 Y-46.782 E2.8478
G1 X19.586 Y-46.386 E2.8620
G1 X22.604 Y-46.386 E2.9705
G1 X22.604 Y-46.782 E2.9847
G1 X41.78 Y-46.782 E3.6735
G1 X41.78 Y-16.147 E4.7739
G1 X9.418999999999997 Y13.994 E6.3625
G1 X6.578000000000003 Y13.994 E6.4645
G1 X6.578000000000003 Y16.64 E6.5596
G1 X-24.78 Y45.846999999999994 E8.0989
G1 X-24.78 Y30.947999999999993 E8.6341
G1 X-41.78 Y30.947999999999993 E9.2447
G1 X-41.78 Y-26.274 E11.3002
G1 X-41.355000000000004 Y-26.274 E11.3155
G1 X-41.355000000000004 Y-28.868 E11.4087
G1 X-41.78 Y-28.868 E11.4239
; feature outer perimeter
G1 X-41.835 Y-28.388 F6000
G92 E0.0000
G1 X-42.26 Y-28.388 E0.0153 F3000 ; custom feedrate - half
G1 X-42.26 Y-47.262 E0.6932
G1 X20.066000000000003 Y-47.262 E2.9321
G1 X20.066000000000003 Y-46.866 E2.9463
G1 X20.962000000000003 Y-46.866 E2.9784
G1 X20.962000000000003 Y-47.262 E2.9927
G1 X21.235 Y-47.262 E3.0025
G1 X21.235 Y-46.866 E3.0167
G1 X22.123999999999995 Y-46.866 E3.0486
G1 X22.123999999999995 Y-47.262 E3.0629
G1 X42.260000000000005 Y-47.262 E3.7862
G1 X42.260000000000005 Y-15.938000000000002 E4.9113
G1 X9.607999999999997 Y14.474000000000004 E6.5142
G1 X7.058 Y14.474000000000004 E6.6058
G1 X7.058 Y16.849000000000004 E6.6911
G1 X-25.26 Y46.95 E8.2775
G1 X-25.26 Y31.427999999999997 E8.8351
G1 X-42.26 Y31.427999999999997 E9.4458
G1 X-42.26 Y-26.754 E11.5357
G1 X-41.835 Y-26.754 E11.5510
G1 X-41.835 Y-28.388 E11.6097
G92 E0.0000
G1 E-1.2 F2100 ; custom retraction
; layer 43, Z = 8.600
; feature inner perimeter
G1 Z8.800 F1200
G1 X-41.78 Y-28.972 F6000
G1 Z8.600 F1200
G1 E0 F2100 ; custom un-retraction/prime
G92 E0.0000
G1 X-41.78 Y-46.782 E0.6398 F6000 ; custom feedrate - full
G1 X19.495000000000005 Y-46.782 E2.8408
G1 X19.495000000000005 Y-46.386 E2.8550
G1 X22.697000000000003 Y-46.386 E2.9701
G1 X22.697000000000003 Y-46.782 E2.9843
G1 X41.78 Y-46.782 E3.6698
G1 X41.78 Y-16.147 E4.7702
G1 X9.418999999999997 Y13.994 E6.3588
G1 X6.578000000000003 Y13.994 E6.4608
G1 X6.578000000000003 Y16.64 E6.5558
G1 X-24.78 Y45.846999999999994 E8.0952
G1 X-24.78 Y30.947999999999993 E8.6304
G1 X-41.78 Y30.947999999999993 E9.2410
G1 X-41.78 Y-26.171 E11.2928
G1 X-41.355000000000004 Y-26.171 E11.3080
G1 X-41.355000000000004 Y-28.972 E11.4087
G1 X-41.78 Y-28.972 E11.4239
; feature outer perimeter
G1 X-41.835 Y-28.492 F6000
G92 E0.0000
G1 X-42.26 Y-28.492 E0.0153 F3000 ; custom feedrate - half
G1 X-42.26 Y-47.262 E0.6895
G1 X19.974999999999994 Y-47.262 E2.9250
G1 X19.974999999999994 Y-46.866 E2.9393
G1 X20.872 Y-46.866 E2.9715
G1 X20.872 Y-47.262 E2.9857
G1 X21.325999999999993 Y-47.262 E3.0020
G1 X21.325999999999993 Y-46.866 E3.0162
G1 X22.217 Y-46.866 E3.0482
G1 X22.217 Y-47.262 E3.0625
G1 X42.260000000000005 Y-47.262 E3.7824
G1 X42.260000000000005 Y-15.938000000000002 E4.9076
G1 X9.607999999999997 Y14.474000000000004 E6.5105
G1 X7.058 Y14.474000000000004 E6.6021
G1 X7.058 Y16.849000000000004 E6.6874
G1 X-25.26 Y46.95 E8.2738
G1 X-25.26 Y31.427999999999997 E8.8314
G1 X-42.26 Y31.427999999999997 E9.4420
G1 X-42.26 Y-26.651 E11.5283
G1 X-41.835 Y-26.651 E11.5435
G1 X-41.835 Y-27.517 E11.5747
G1 X-42.26 Y-27.517 E11.5899
G1 X-42.26 Y-27.64 E11.5944
G1 X-41.835 Y-27.64 E11.6096
G1 X-41.835 Y-28.492 E11.6402
G92 E0.0000
G1 E-1.2 F2100 ; custom retraction
; layer 44, Z = 8.800
; feature inner perimeter
G1 Z9.000 F1200
G1 X-41.78 Y-29.075 F6000
G1 Z8.800 F1200
G1 E0 F2100 ; custom un-retraction/prime
G92 E0.0000
G1 X-41.78 Y-46.782 E0.6360 F6000 ; custom feedrate - full
G1 X19.403000000000006 Y-46.782 E2.8338
G1 X19.403000000000006 Y-46.386 E2.8480
G1 X22.790000000000006 Y-46.386 E2.9697
G1 X22.790000000000006 Y-46.782 E2.9839
G1 X41.78 Y-46.782 E3.6660
G1 X41.78 Y-16.147 E4.7665
G1 X9.418999999999997 Y13.994 E6.3550
G1 X6.578000000000003 Y13.994 E6.4571
G1 X6.578000000000003 Y16.64 E6.5521
G1 X-24.78 Y45.846999999999994 E8.0914
G1 X-24.78 Y30.947999999999993 E8.6266
G1 X-41.78 Y30.947999999999993 E9.2373
G1 X-41.78 Y-26.068 E11.2854
G1 X-41.355000000000004 Y-26.068 E11.3006
G1 X-41.355000000000004 Y-29.075 E11.4087
G1 X-41.78 Y-29.075 E11.4239
; feature outer perimeter
G1 X-41.835 Y-28.595 F6000
G92 E0.0000
G1 X-42.26 Y-28.595 E0.0153 F3000 ; custom feedrate - half
G1 X-42.26 Y-47.262 E0.6858
G1 X19.882999999999996 Y-47.262 E2.9180
G1 X19.882999999999996 Y-46.866 E2.9322
G1 X20.781999999999996 Y-46.866 E2.9645
G1 X20.781999999999996 Y-47.262 E2.9788
G1 X21.417 Y-47.262 E3.0016
G1 X21.417 Y-46.866 E3.0158
G1 X22.310000000000002 Y-46.866 E3.0479
G1 X22.310000000000002 Y-47.262 E3.0621
G1 X42.260000000000005 Y-47.262 E3.7787
G1 X42.260000000000005 Y-15.938000000000002 E4.9039
G1 X9.607999999999997 Y14.474000000000004 E6.5067
G1 X7.058 Y14.474000000000004 E6.5983
G1 X7.058 Y16.849000000000004 E6.6836
G1 X-25.26 Y46.95 E8.2701
G1 X-25.26 Y31.427999999999997 E8.8277
G1 X-42.26 Y31.427999999999997 E9.4383
G1 X-42.26 Y-26.548 E11.5209
G1 X-41.835 Y-26.548 E11.5361
G1 X-41.835 Y-27.418 E11.5674
G1 X-42.26 Y-27.418 E11.5827
G1 X-42.26 Y-27.74 E11.5942
G1 X-41.835 Y-27.74 E11.6095
G1 X-41.835 Y-28.595 E11.6402
; feature gap fill
G1 X21.069999999999993 Y-46.865 F6000
G92 E0.0000
G1 X21.129000000000005 Y-46.924 E0.0030 F6000 ; custom feedrate - full
G92 E0.0000
G1 E-1.2 F2100 ; custom retraction
; layer 45, Z = 9.000
; feature inner perimeter
G1 Z9.200 F1200
G1 X21.417 Y-46.900999999999996 F6000
G1 X21.417 Y-46.866
G1 X21.842 Y-46.866
G1 X22.882000000000005 Y-46.782
G1 Z9.000 F1200
G1 E0 F2100 ; custom un-retraction/prime
G92 E0.0000
G1 X41.78 Y-46.782 E0.6788 F6000 ; custom feedrate - full
G1 X41.78 Y-16.147 E1.7792
G1 X9.418999999999997 Y13.994 E3.3678
G1 X6.578000000000003 Y13.994 E3.4699
G1 X6.578000000000003 Y16.64 E3.5649
G1 X-24.78 Y45.846999999999994 E5.1042
G1 X-24.78 Y30.947999999999993 E5.6394
G1 X-41.78 Y30.947999999999993 E6.2501
G1 X-41.78 Y-25.965 E8.2945
G1 X-41.355000000000004 Y-25.965 E8.3097
G1 X-41.355000000000004 Y-29.179 E8.4252
G1 X-41.78 Y-29.179 E8.4404
G1 X-41.78 Y-46.782 E9.0728
G1 X19.311000000000007 Y-46.782 E11.2672
G1 X19.311000000000007 Y-46.386 E11.2814
G1 X22.882000000000005 Y-46.386 E11.4097
G1 X22.882000000000005 Y-46.782 E11.4239
; feature outer perimeter
G1 X22.402 Y-46.866 F6000
G92 E0.0000
G1 X22.402 Y-47.262 E0.0142 F3000 ; custom feedrate - half
G1 X42.260000000000005 Y-47.262 E0.7275
G1 X42.260000000000005 Y-15.938000000000002 E1.8527
G1 X9.607999999999997 Y14.474000000000004 E3.4556
G1 X7.058 Y14.474000000000004 E3.5471
G1 X7.058 Y16.849000000000004 E3.6324
G1 X-25.26 Y46.95 E5.2189
G1 X-25.26 Y31.427999999999997 E5.7765
G1 X-42.26 Y31.427999999999997 E6.3871
G1 X-42.26 Y-26.445 E8.4660
G1 X-41.835 Y-26.445 E8.4813
G1 X-41.835 Y-27.319 E8.5126
G1 X-42.26 Y-27.319 E8.5279
G1 X-42.26 Y-27.84 E8.5466
G1 X-41.835 Y-27.84 E8.5619
G1 X-41.835 Y-28.699 E8.5927
G1 X-42.26 Y-28.699 E8.6080
G1 X-42.26 Y-47.262 E9.2748
G1 X19.790999999999997 Y-47.262 E11.5038
G1 X19.790999999999997 Y-46.866 E11.5180
G1 X20.691999999999993 Y-46.866 E11.5503
G1 X20.691999999999993 Y-47.262 E11.5645
G1 X21.507000000000005 Y-47.262 E11.5938
G1 X21.507000000000005 Y-46.866 E11.6081
G1 X22.402 Y-46.866 E11.6402
; feature gap fill
G1 X21.203000000000003 Y-46.679 F6000
G92 E0.0000
G1 X20.980000000000004 Y-46.902 E0.0113 F6000 ; custom feedrate - full
G92 E0.0000
G1 E-1.2 F2100 ; custom retraction
; layer 46, Z = 9.200
; feature inner perimeter
G1 Z9.400 F1200
G1 X20.691999999999993 Y-46.883 F6000
G1 X20.691999999999993 Y-46.866
G1 X20.450999999999993 Y-46.866
G1 X19.22 Y-46.782
G1 Z9.200 F1200
G1 E0 F2100 ; custom un-retraction/prime
G92 E0.0000
G1 X19.22 Y-46.386 E0.0142 F6000 ; custom feedrate - full
G1 X22.974999999999994 Y-46.386 E0.1491
G1 X22.974999999999994 Y-46.782 E0.1633
G1 X41.78 Y-46.782 E0.8388
G1 X41.78 Y-16.147 E1.9393
G1 X9.418999999999997 Y13.994 E3.5278
G1 X6.578000000000003 Y13.994 E3.6299
G1 X6.578000000000003 Y16.64 E3.7249
G1 X-24.78 Y45.846999999999994 E5.2642
G1 X-24.78 Y30.947999999999993 E5.7994
G1 X-41.78 Y30.947999999999993 E6.4101
G1 X-41.78 Y-25.862 E8.4508
G1 X-41.355000000000004 Y-25.862 E8.4660
G1 X-41.355000000000004 Y-29.282 E8.5889
G1 X-41.78 Y-29.282 E8.6042
G1 X-41.78 Y-46.782 E9.2328
G1 X19.22 Y-46.782 E11.4239
; feature outer perimeter
G1 X19.700000000000003 Y-46.866 F6000
G92 E0.0000
G1 X20.602000000000004 Y-46.866 E0.0324 F3000 ; custom feedrate - half
G1 X20.602000000000004 Y-47.262 E0.0466
G1 X21.598 Y-47.262 E0.0824
G1 X21.598 Y-46.866 E0.0966
G1 X22.495000000000005 Y-46.866 E0.1289
G1 X22.495000000000005 Y-47.262 E0.1431
G1 X42.260000000000005 Y-47.262 E0.8530
G1 X42.260000000000005 Y-15.938000000000002 E1.9782
G1 X9.607999999999997 Y14.474000000000004 E3.5811
G1 X7.058 Y14.474000000000004 E3.6727
G1 X7.058 Y16.849000000000004 E3.7580
G1 X-25.26 Y46.95 E5.3444
G1 X-25.26 Y31.427999999999997 E5.9020
G1 X-42.26 Y31.427999999999997 E6.5127
G1 X-42.26 Y-26.342 E8.5878
G1 X-41.835 Y-26.342 E8.6031
G1 X-41.835 Y-27.22 E8.6346
G1 X-42.26 Y-27.22 E8.6499
G1 X-42.26 Y-27.941 E8.6758
G1 X-41.835 Y-27.941 E8.6910
G1 X-41.835 Y-28.802 E8.7220
G1 X-42.26 Y-28.802 E8.7373
G1 X-42.26 Y-47.262 E9.4003
G1 X19.700000000000003 Y-47.262 E11.6260
G1 X19.700000000000003 Y-46.866 E11.6402
; feature gap fill
G1 X20.89 Y-46.685 F6000
G92 E0.0000
G1 X21.179000000000002 Y-46.974000000000004 E0.0147 F6000 ; custom feedrate - full
G1 X-41.647999999999996 Y-27.592 F6000
G92 E0.0000
G1 X-41.732 Y-27.508 E0.0043 F6000 ; custom feedrate - full
G92 E0.0000
G1 E-1.2 F2100 ; custom retraction
; layer 47, Z = 9.400
; feature inner perimeter
G1 Z9.600 F1200
G1 X-41.78 Y-25.759 F6000
G1 Z9.400 F1200
G1 E0 F2100 ; custom un-retraction/prime
G92 E0.0000
G1 X-41.355000000000004 Y-25.759 E0.0153 F6000 ; custom feedrate - full
G1 X-41.355000000000004 Y-29.386 E0.1455
G1 X-41.78 Y-29.386 E0.1608
G1 X-41.78 Y-46.782 E0.7857
G1 X19.128 Y-46.782 E2.9736
G1 X19.128 Y-46.386 E2.9878
G1 X23.067999999999998 Y-46.386 E3.1293
G1 X23.067999999999998 Y-46.782 E3.1435
G1 X41.78 Y-46.782 E3.8157
G1 X41.78 Y-16.147 E4.9161
G1 X9.418999999999997 Y13.994 E6.5047
G1 X6.578000000000003 Y13.994 E6.6067
G1 X6.578000000000003 Y16.64 E6.7018
G1 X-24.78 Y45.846999999999994 E8.2411
G1 X-24.78 Y30.947999999999993 E8.7763
G1 X-41.78 Y30.947999999999993 E9.3869
G1 X-41.78 Y-25.759 E11.4239
; feature outer perimeter
G1 X-41.835 Y-26.239 F6000
G92 E0.0000
G1 X-41.835 Y-27.121 E0.0317 F3000 ; custom feedrate - half
G1 X-42.26 Y-27.121 E0.0469
G1 X-42.26 Y-28.041 E0.0800
G1 X-41.835 Y-28.041 E0.0952
G1 X-41.835 Y-28.906 E0.1263
G1 X-42.26 Y-28.906 E0.1416
G1 X-42.26 Y-47.262 E0.8009
G1 X19.608000000000004 Y-47.262 E3.0233
G1 X19.608000000000004 Y-46.866 E3.0375
G1 X20.512 Y-46.866 E3.0700
G1 X20.512 Y-47.262 E3.0842
G1 X21.688000000000002 Y-47.262 E3.1265
G1 X21.688000000000002 Y-46.866 E3.1407
G1 X22.587999999999994 Y-46.866 E3.1730
G1 X22.587999999999994 Y-47.262 E3.1872
G1 X42.260000000000005 Y-47.262 E3.8939
G1 X42.260000000000005 Y-15.938000000000002 E5.0190
G1 X9.607999999999997 Y14.474000000000004 E6.6219
G1 X7.058 Y14.474000000000004 E6.7135
G1 X7.058 Y16.849000000000004 E6.7988
G1 X-25.26 Y46.95 E8.3852
G1 X-25.26 Y31.427999999999997 E8.9428
G1 X-42.26 Y31.427999999999997 E9.5535
G1 X-42.26 Y-26.239 E11.6249
G1 X-41.835 Y-26.239 E11.6402
; feature gap fill
G1 X-41.664 Y-27.409 F6000
G92 E0.0000
G1 X-41.972 Y-27.717 E0.0157 F6000 ; custom feedrate - full
G1 X20.908 Y-46.974000000000004 F6000
G92 E0.0000
G1 X21.203000000000003 Y-46.679 E0.0150 F6000 ; custom feedrate - full
G92 E0.0000
G1 E-1.2 F2100 ; custom retraction
; layer 48, Z = 9.600
; feature inner perimeter
G1 Z9.800 F1200
G1 X41.78 Y-46.782 F6000
G1 Z9.600 F1200
G1 E0 F2100 ; custom un-retraction/prime
G92 E0.0000
G1 X41.78 Y-16.147 E1.1004 F6000 ; custom feedrate - full
G1 X9.418999999999997 Y13.994 E2.6890
G1 X6.578000000000003 Y13.994 E2.7910
G1 X6.578000000000003 Y16.64 E2.8861
G1 X-24.78 Y45.846999999999994 E4.4254
G1 X-24.78 Y30.947999999999993 E4.9606
G1 X-41.78 Y30.947999999999993 E5.5713
G1 X-41.78 Y-46.782 E8.3634
G1 X41.78 Y-46.782 E11.3650
; feature outer perimeter
G1 X42.260000000000005 Y-47.262 F6000
G92 E0.0000
G1 X42.260000000000005 Y-15.938000000000002 E1.1252 F3000 ; custom feedrate - half
G1 X9.607999999999997 Y14.474000000000004 E2.7280
G1 X7.058 Y14.474000000000004 E2.8196
G1 X7.058 Y16.849000000000004 E2.9049
G1 X-25.26 Y46.95 E4.4914
G1 X-25.26 Y31.427999999999997 E5.0490
G1 X-42.26 Y31.427999999999997 E5.6596
G1 X-42.26 Y-47.262 E8.4862
G1 X42.260000000000005 Y-47.262 E11.5223
G92 E0.0000
G1 E-1.2 F2100 ; custom retraction
; layer 49, Z = 9.800
; feature inner perimeter
G1 Z10.000 F1200
G1 X42.09 Y-47.262 F6000
G1 X42.09 Y-47.136
G1 X41.61 Y-46.782
G1 Z9.800 F1200
G1 E0 F2100 ; custom un-retraction/prime
G92 E0.0000
G1 X41.61 Y-15.988999999999997 E1.1061 F6000 ; custom feedrate - full
G1 X9.418999999999997 Y13.994 E2.6863
G1 X6.578000000000003 Y13.994 E2.7884
G1 X6.578000000000003 Y16.64 E2.8834
G1 X-24.78 Y45.846999999999994 E4.4227
G1 X-24.78 Y30.947999999999993 E4.9580
G1 X-41.78 Y30.947999999999993 E5.5686
G1 X-41.78 Y-46.782 E8.3607
G1 X41.61 Y-46.782 E11.3562
; feature outer perimeter
G1 X42.09 Y-47.262 F6000
G92 E0.0000
G1 X42.09 Y-15.780000000000001 E1.1309 F3000 ; custom feedrate - half
G1 X9.607999999999997 Y14.474000000000004 E2.7254
G1 X7.058 Y14.474000000000004 E2.8170
G1 X7.058 Y16.849000000000004 E2.9023
G1 X-25.26 Y46.95 E4.4887
G1 X-25.26 Y31.427999999999997 E5.0463
G1 X-42.26 Y31.427999999999997 E5.6570
G1 X-42.26 Y-47.262 E8.4836
G1 X42.09 Y-47.262 E11.5135
G92 E0.0000
G1 E-1.2 F2100 ; custom retraction
; layer 50, Z = 10.000
; feature inner perimeter
G1 Z10.200 F1200
G1 X41.92 Y-47.262 F6000
G1 X41.92 Y-47.136
G1 X41.44 Y-46.782
G1 Z10.000 F1200
G1 E0 F2100 ; custom un-retraction/prime
G92 E0.0000
G1 X41.44 Y-15.831000000000003 E1.1118 F6000 ; custom feedrate - full
G1 X9.418999999999997 Y13.994 E2.6837
G1 X6.578000000000003 Y13.994 E2.7857
G1 X6.578000000000003 Y16.64 E2.8808
G1 X-24.78 Y45.846999999999994 E4.4201
G1 X-24.78 Y30.947999999999993 E4.9553
G1 X-41.78 Y30.947999999999993 E5.5660
G1 X-41.78 Y-46.782 E8.3581
G1 X41.44 Y-46.782 E11.3474
; feature outer perimeter
G1 X41.92 Y-47.262 F6000
G92 E0.0000
G1 X41.92 Y-15.622 E1.1365 F3000 ; custom feedrate - half
G1 X9.607999999999997 Y14.474000000000004 E2.7227
G1 X7.058 Y14.474000000000004 E2.8143
G1 X7.058 Y16.849000000000004 E2.8996
G1 X-25.26 Y46.95 E4.4861
G1 X-25.26 Y31.427999999999997 E5.0436
G1 X-42.26 Y31.427999999999997 E5.6543
G1 X-42.26 Y-47.262 E8.4809
G1 X41.92 Y-47.262 E11.5047
G92 E0.0000
G1 E-1.2 F2100 ; custom retraction
; layer 51, Z = 10.200
; feature inner perimeter
M204 P1800 ; custom acceleration - C
M205 X10 Y10 ; custom jerk - C
