; G-Code generated by Simplify3D(R) Version 4.1.2
; Aug 5, 2020 at 7:00:59 PM
; Settings Summary
;   processName,Process1
;   applyToModels,nivelador Z
;   profileName,Hbot Pro
;   profileVersion,2020-07-30 18:59:30
;   baseProfile,Default
;   printMaterial,PLA
;   printQuality,Medium
;   printExtruders,
;   extruderName,Primary Extruder
;   extruderToolheadNumber,0
;   extruderDiameter,0.4
;   extruderAutoWidth,1
;   extruderWidth,0.48
;   extrusionMultiplier,0.98
;   extruderUseRetract,1
;   extruderRetractionDistance,1.2
;   extruderExtraRestartDistance,0
;   extruderRetractionZLift,0.4
;   extruderRetractionSpeed,2400
;   extruderUseCoasting,0
;   extruderCoastingDistance,0.3
;   extruderUseWipe,1
;   extruderWipeDistance,1
;   primaryExtruder,0
;   layerHeight,0.2
;   topSolidLayers,3
;   bottomSolidLayers,3
;   perimeterOutlines,3
;   printPerimetersInsideOut,1
;   startPointOption,3
;   startPointOriginX,0
;   startPointOriginY,0
;   sequentialIslands,0
;   spiralVaseMode,0
;   firstLayerHeightPercentage,125
;   firstLayerWidthPercentage,95
;   firstLayerUnderspeed,0.5
;   useRaft,0
;   raftExtruder,0
;   raftTopLayers,1
;   raftBaseLayers,1
;   raftOffset,3
;   raftSeparationDistance,0.14
;   raftTopInfill,100
;   aboveRaftSpeedMultiplier,0.3
;   useSkirt,1
;   skirtExtruder,0
;   skirtLayers,1
;   skirtOutlines,1
;   skirtOffset,3
;   usePrimePillar,0
;   primePillarExtruder,999
;   primePillarWidth,12
;   primePillarLocation,7
;   primePillarSpeedMultiplier,1
;   useOozeShield,0
;   oozeShieldExtruder,999
;   oozeShieldOffset,2
;   oozeShieldOutlines,1
;   oozeShieldSidewallShape,1
;   oozeShieldSidewallAngle,30
;   oozeShieldSpeedMultiplier,1
;   infillExtruder,0
;   internalInfillPattern,Rectilinear
;   externalInfillPattern,Rectilinear
;   infillPercentage,25
;   outlineOverlapPercentage,25
;   infillExtrusionWidthPercentage,100
;   minInfillLength,2
;   infillLayerInterval,1
;   internalInfillAngles,45,-45
;   overlapInternalInfillAngles,0
;   externalInfillAngles,45,-45
;   generateSupport,1
;   supportExtruder,0
;   supportInfillPercentage,45
;   supportExtraInflation,0
;   supportBaseLayers,0
;   denseSupportExtruder,0
;   denseSupportLayers,0
;   denseSupportInfillPercentage,70
;   supportLayerInterval,1
;   supportHorizontalPartOffset,0.3
;   supportUpperSeparationLayers,1
;   supportLowerSeparationLayers,1
;   supportType,0
;   supportGridSpacing,4
;   maxOverhangAngle,89
;   supportAngles,0
;   temperatureName,Primary Extruder,Heated Bed
;   temperatureNumber,0,1
;   temperatureSetpointCount,1,1
;   temperatureSetpointLayers,1,1
;   temperatureSetpointTemperatures,205,50
;   temperatureStabilizeAtStartup,1,1
;   temperatureHeatedBed,0,1
;   fanLayers,1,2
;   fanSpeeds,0,100
;   blipFanToFullPower,0
;   adjustSpeedForCooling,1
;   minSpeedLayerTime,15
;   minCoolingSpeedSlowdown,15
;   increaseFanForCooling,0
;   minFanLayerTime,45
;   maxCoolingFanSpeed,100
;   increaseFanForBridging,0
;   bridgingFanSpeed,100
;   use5D,1
;   relativeEdistances,0
;   allowEaxisZeroing,1
;   independentExtruderAxes,0
;   includeM10123,0
;   stickySupport,1
;   applyToolheadOffsets,0
;   gcodeXoffset,0
;   gcodeYoffset,0
;   gcodeZoffset,0
;   overrideMachineDefinition,1
;   machineTypeOverride,0
;   strokeXoverride,310
;   strokeYoverride,205
;   strokeZoverride,300
;   originOffsetXoverride,0
;   originOffsetYoverride,0
;   originOffsetZoverride,0
;   homeXdirOverride,-1
;   homeYdirOverride,-1
;   homeZdirOverride,-1
;   flipXoverride,1
;   flipYoverride,-1
;   flipZoverride,1
;   toolheadOffsets,0,0|0,0|0,0|0,0|0,0|0,0
;   overrideFirmwareConfiguration,0
;   firmwareTypeOverride,RepRap (Marlin/Repetier/Sprinter)
;   GPXconfigOverride,r2
;   baudRateOverride,115200
;   overridePrinterModels,0
;   printerModelsOverride
;   startingGcode,G28 ; home all axes,G1 Z30 F3000,M190 S[bed1_temperature],M109 S[extruder0_temperature],G29 S1,G92 E0,G1 X0 Y0 Z0.2 F3000 ; go outside printing area,G1 X60.0 E9.0  F1000.0 ; intro line,G1 X100.0 E12.5  F1000.0 ; intro line,G92 E0
;   layerChangeGcode,
;   retractionGcode,
;   toolChangeGcode,
;   endingGcode,G28 X0,G90 ; Posicion Absoluta,M104 S0 ; turn off extruder,M140 S0 ; turn off bed,M84 ; disable motors,M107 ; turn off fan,
;   exportFileFormat,gcode
;   celebration,0
;   celebrationSong,Star Wars
;   postProcessing,
;   defaultSpeed,4200
;   outlineUnderspeed,0.45
;   solidInfillUnderspeed,0.6
;   supportUnderspeed,0.65
;   rapidXYspeed,12000
;   rapidZspeed,720
;   minBridgingArea,50
;   bridgingExtraInflation,1
;   bridgingExtrusionMultiplier,1
;   bridgingSpeedMultiplier,1
;   useFixedBridgingAngle,0
;   fixedBridgingAngle,0
;   applyBridgingToPerimeters,0
;   filamentDiameters,1.75|1.75|1.75|1.75|1.75|1.75
;   filamentPricesPerKg,16|16|16|16|16|16
;   filamentDensities,1.25|1.25|1.25|1.25|1.25|1.25
;   useMinPrintHeight,0
;   minPrintHeight,0
;   useMaxPrintHeight,0
;   maxPrintHeight,50
;   useDiaphragm,0
;   diaphragmLayerInterval,20
;   robustSlicing,1
;   mergeAllIntoSolid,0
;   onlyRetractWhenCrossingOutline,1
;   retractBetweenLayers,1
;   useRetractionMinTravel,1
;   retractionMinTravel,3
;   retractWhileWiping,1
;   onlyWipeOutlines,1
;   avoidCrossingOutline,1
;   maxMovementDetourFactor,5
;   toolChangeRetractionDistance,12
;   toolChangeExtraRestartDistance,-0.5
;   toolChangeRetractionSpeed,600
;   externalThinWallType,0
;   internalThinWallType,1
;   thinWallAllowedOverlapPercentage,10
;   singleExtrusionMinLength,1
;   singleExtrusionMinPrintingWidthPercentage,50
;   singleExtrusionMaxPrintingWidthPercentage,200
;   singleExtrusionEndpointExtension,0.2
;   horizontalSizeCompensation,0
G90
M82
M106 S0
G28 ; home all axes
G1 Z30 F3000
M190 S50
M109 S205
G29 S1
G92 E0
G1 X0 Y0 Z0.2 F3000 ; go outside printing area
G1 X60.0 E9.0  F1000.0 ; intro line
G1 X100.0 E12.5  F1000.0 ; intro line
G92 E0
; process Process1
; layer 1, Z = 0.250
T0
G92 E0.0000
G1 E-1.2000 F2400
; feature skirt
; tool H0.250 W0.456
G1 Z0.400 F720
G1 X127.909 Y89.410 F12000
G1 Z0.250 F720
G1 E0.0000 F2400
G92 E0.0000
G1 X128.022 Y89.257 E0.0088 F2100
G1 X128.378 Y88.825 E0.0348
G1 X128.512 Y88.680 E0.0440
G1 X128.921 Y88.292 E0.0702
G1 X129.072 Y88.166 E0.0793
G1 X129.525 Y87.831 E0.1055
G1 X129.691 Y87.723 E0.1147
G1 X130.178 Y87.447 E0.1407
G1 X130.349 Y87.363 E0.1495
G1 X130.838 Y87.158 E0.1742
G1 X131.017 Y87.095 E0.1830
G1 X131.552 Y86.942 E0.2088
G1 X131.738 Y86.900 E0.2177
G1 X132.295 Y86.810 E0.2439
G1 X132.553 Y86.789 E0.2559
G1 X145.999 Y86.771 E0.8805
G1 X147.434 Y87.542 E0.9561
G1 X148.266 Y88.801 E1.0262
G1 X148.561 Y89.191 E1.0489
G1 X148.947 Y89.636 E1.0763
G1 X149.296 Y89.989 E1.0994
G1 X149.666 Y90.320 E1.1224
G1 X150.130 Y90.684 E1.1498
G1 X150.539 Y90.964 E1.1729
G1 X150.971 Y91.223 E1.1962
G1 X151.418 Y91.455 E1.2196
G1 X151.872 Y91.656 E1.2427
G1 X152.425 Y91.859 E1.2701
G1 X152.901 Y92.000 E1.2931
G1 X153.392 Y92.113 E1.3165
G1 X153.888 Y92.195 E1.3399
G1 X154.389 Y92.248 E1.3633
G1 X154.892 Y92.270 E1.3866
G1 X155.389 Y92.261 E1.4097
G1 X155.976 Y92.213 E1.4371
G1 X156.461 Y92.140 E1.4598
G1 X157.036 Y92.016 E1.4872
G1 X157.507 Y91.881 E1.5099
G1 X158.055 Y91.685 E1.5370
G1 X158.588 Y91.451 E1.5640
G1 X159.022 Y91.226 E1.5867
G1 X159.527 Y90.921 E1.6141
G1 X159.934 Y90.638 E1.6372
G1 X160.323 Y90.329 E1.6602
G1 X160.760 Y89.934 E1.6876
G1 X161.101 Y89.583 E1.7103
G1 X161.483 Y89.134 E1.7377
G1 X161.780 Y88.736 E1.7608
G1 X162.557 Y87.549 E1.8267
G1 X163.994 Y86.772 E1.9026
G1 X177.193 Y86.774 E2.5156
G1 X177.369 Y86.783 E2.5238
G1 X178.014 Y86.854 E2.5539
G1 X178.242 Y86.896 E2.5647
G1 X178.869 Y87.058 E2.5948
G1 X179.083 Y87.130 E2.6053
G1 X179.678 Y87.376 E2.6352
G1 X179.880 Y87.477 E2.6456
G1 X180.429 Y87.800 E2.6752
G1 X180.603 Y87.919 E2.6850
G1 X181.050 Y88.268 E2.7114
G1 X181.193 Y88.394 E2.7202
G1 X181.600 Y88.797 E2.7468
G1 X181.778 Y89.006 E2.7596
G1 X182.334 Y89.786 E2.8041
G1 X182.477 Y90.029 E2.8172
G1 X182.736 Y90.572 E2.8451
G1 X182.808 Y90.749 E2.8540
G1 X182.977 Y91.247 E2.8784
G1 X183.026 Y91.424 E2.8869
G1 X183.138 Y91.939 E2.9114
G1 X183.167 Y92.127 E2.9203
G1 X183.219 Y92.663 E2.9453
G1 X183.226 Y92.818 E2.9525
G1 X183.227 Y112.159 E3.8509
G1 X183.219 Y112.321 E3.8584
G1 X183.155 Y112.960 E3.8882
G1 X183.115 Y113.189 E3.8990
G1 X182.957 Y113.821 E3.9292
G1 X182.885 Y114.042 E3.9400
G1 X182.628 Y114.668 E3.9715
G1 X182.525 Y114.877 E3.9823
G1 X182.200 Y115.429 E4.0120
G1 X182.081 Y115.603 E4.0218
G1 X181.730 Y116.053 E4.0483
G1 X181.599 Y116.201 E4.0575
G1 X181.201 Y116.599 E4.0837
G1 X181.053 Y116.730 E4.0928
G1 X180.612 Y117.075 E4.1189
G1 X180.455 Y117.183 E4.1277
G1 X180.002 Y117.458 E4.1523
G1 X179.834 Y117.547 E4.1612
G1 X179.327 Y117.778 E4.1870
G1 X179.150 Y117.846 E4.1959
G1 X178.648 Y118.007 E4.2203
G1 X178.471 Y118.053 E4.2288
G1 X177.954 Y118.155 E4.2533
G1 X177.766 Y118.181 E4.2621
G1 X177.242 Y118.223 E4.2865
G1 X177.116 Y118.228 E4.2924
G1 X132.907 Y118.228 E6.3458
G1 X132.773 Y118.222 E6.3520
G1 X132.144 Y118.170 E6.3813
G1 X131.907 Y118.133 E6.3925
G1 X131.241 Y117.976 E6.4242
G1 X131.013 Y117.904 E6.4354
G1 X130.378 Y117.650 E6.4671
G1 X130.162 Y117.545 E6.4783
G1 X129.580 Y117.206 E6.5096
G1 X129.399 Y117.083 E6.5197
G1 X128.950 Y116.732 E6.5462
G1 X128.807 Y116.606 E6.5550
G1 X128.400 Y116.203 E6.5816
G1 X128.222 Y115.994 E6.5944
G1 X127.666 Y115.214 E6.6389
G1 X127.523 Y114.971 E6.6520
G1 X127.264 Y114.428 E6.6800
G1 X127.192 Y114.251 E6.6888
G1 X127.008 Y113.709 E6.7154
G1 X126.942 Y113.442 E6.7282
G1 X126.795 Y112.511 E6.7720
G1 X126.775 Y112.258 E6.7837
G1 X126.772 Y92.885 E7.6836
G1 X126.777 Y92.758 E7.6895
G1 X126.819 Y92.231 E7.7140
G1 X126.846 Y92.036 E7.7232
G1 X126.959 Y91.483 E7.7494
G1 X127.010 Y91.293 E7.7585
G1 X127.190 Y90.755 E7.7849
G1 X127.267 Y90.566 E7.7944
G1 X127.524 Y90.031 E7.8219
G1 X127.621 Y89.859 E7.8311
G1 X127.909 Y89.410 E7.8559
G92 E0.0000
G1 E-1.2000 F2400
; feature inner perimeter
G1 Z0.650 F720
G1 X130.757 Y91.371 F12000
G1 X130.747 Y91.388
G1 X131.495 Y91.910
G1 Z0.250 F720
G1 E0.0000 F2400
G92 E0.0000
G1 X131.641 Y91.733 E0.0106 F1523
G1 X131.806 Y91.577 E0.0212
G1 X131.988 Y91.442 E0.0317
G1 X132.188 Y91.329 E0.0424
G1 X132.377 Y91.249 E0.0519
G1 X132.600 Y91.185 E0.0627
G1 X132.808 Y91.152 E0.0725
G1 X133.030 Y91.140 E0.0828
G1 X144.576 Y91.140 E0.6191
G1 X144.699 Y91.327 E0.6295
G1 X145.167 Y91.944 E0.6655
G1 X145.740 Y92.605 E0.7061
G1 X146.283 Y93.154 E0.7419
G1 X146.858 Y93.669 E0.7778
G1 X147.545 Y94.208 E0.8184
G1 X148.182 Y94.644 E0.8542
G1 X148.843 Y95.039 E0.8900
G1 X149.526 Y95.394 E0.9257
G1 X150.232 Y95.707 E0.9616
G1 X151.052 Y96.008 E1.0022
G1 X151.792 Y96.227 E1.0380
G1 X152.542 Y96.399 E1.0738
G1 X153.301 Y96.526 E1.1095
G1 X154.066 Y96.606 E1.1452
G1 X154.835 Y96.639 E1.1810
G1 X155.608 Y96.626 E1.2169
G1 X156.478 Y96.554 E1.2575
G1 X157.245 Y96.440 E1.2935
G1 X158.099 Y96.255 E1.3340
G1 X158.844 Y96.042 E1.3700
G1 X159.669 Y95.747 E1.4107
G1 X160.472 Y95.395 E1.4515
G1 X161.160 Y95.038 E1.4874
G1 X161.908 Y94.586 E1.5280
G1 X162.541 Y94.145 E1.5639
G1 X163.146 Y93.666 E1.5997
G1 X163.795 Y93.079 E1.6404
G1 X164.335 Y92.524 E1.6763
G1 X164.901 Y91.858 E1.7169
G1 X165.363 Y91.239 E1.7528
G1 X165.427 Y91.140 E1.7583
G1 X177.042 Y91.142 E2.2978
G1 X177.341 Y91.175 E2.3117
G1 X177.589 Y91.239 E2.3236
G1 X177.829 Y91.338 E2.3357
G1 X178.056 Y91.472 E2.3479
G1 X178.233 Y91.610 E2.3584
G1 X178.381 Y91.757 E2.3680
G1 X178.513 Y91.921 E2.3778
G1 X178.624 Y92.097 E2.3875
G1 X178.724 Y92.306 E2.3983
G1 X178.791 Y92.503 E2.4079
G1 X178.835 Y92.707 E2.4176
G1 X178.858 Y92.950 E2.4290
G1 X178.859 Y112.021 E3.3148
G1 X178.828 Y112.325 E3.3289
G1 X178.767 Y112.572 E3.3407
G1 X178.661 Y112.831 E3.3538
G1 X178.528 Y113.056 E3.3659
G1 X178.391 Y113.231 E3.3762
G1 X178.231 Y113.391 E3.3868
G1 X178.050 Y113.533 E3.3974
G1 X177.875 Y113.639 E3.4070
G1 X177.664 Y113.735 E3.4177
G1 X177.465 Y113.799 E3.4274
G1 X177.261 Y113.840 E3.4371
G1 X177.008 Y113.860 E3.4489
G1 X133.021 Y113.860 E5.4920
G1 X132.709 Y113.834 E5.5065
G1 X132.442 Y113.771 E5.5193
G1 X132.186 Y113.669 E5.5320
G1 X131.942 Y113.527 E5.5452
G1 X131.767 Y113.390 E5.5555
G1 X131.619 Y113.243 E5.5651
G1 X131.487 Y113.079 E5.5749
G1 X131.376 Y112.903 E5.5846
G1 X131.276 Y112.694 E5.5954
G1 X131.209 Y112.497 E5.6050
G1 X131.165 Y112.291 E5.6148
G1 X131.143 Y112.074 E5.6250
G1 X131.140 Y92.992 E6.5112
G1 X131.160 Y92.742 E6.5229
G1 X131.205 Y92.519 E6.5335
G1 X131.277 Y92.306 E6.5439
G1 X131.385 Y92.081 E6.5555
G1 X131.495 Y91.910 E6.5650
G1 X131.126 Y91.641 F12000
G92 E0.0000
G1 X131.307 Y91.421 E0.0132 F1523
G1 X131.512 Y91.227 E0.0263
G1 X131.739 Y91.059 E0.0395
G1 X131.987 Y90.919 E0.0527
G1 X132.226 Y90.818 E0.0647
G1 X132.500 Y90.740 E0.0780
G1 X132.759 Y90.698 E0.0902
G1 X133.018 Y90.684 E0.1022
G1 X144.821 Y90.684 E0.6504
G1 X145.072 Y91.063 E0.6715
G1 X145.522 Y91.656 E0.7061
G1 X146.075 Y92.295 E0.7453
G1 X146.597 Y92.823 E0.7799
G1 X147.151 Y93.319 E0.8144
G1 X147.815 Y93.841 E0.8536
G1 X148.428 Y94.260 E0.8881
G1 X149.065 Y94.641 E0.9226
G1 X149.723 Y94.982 E0.9570
G1 X150.403 Y95.284 E0.9915
G1 X151.195 Y95.575 E1.0308
G1 X151.908 Y95.785 E1.0653
G1 X152.631 Y95.952 E1.0997
G1 X153.363 Y96.074 E1.1342
G1 X154.100 Y96.151 E1.1686
G1 X154.841 Y96.183 E1.2031
G1 X155.585 Y96.170 E1.2376
G1 X156.426 Y96.101 E1.2768
G1 X157.163 Y95.991 E1.3115
G1 X157.988 Y95.812 E1.3506
G1 X158.704 Y95.608 E1.3853
G1 X159.500 Y95.323 E1.4245
G1 X160.275 Y94.983 E1.4638
G1 X160.936 Y94.640 E1.4984
G1 X161.659 Y94.204 E1.5376
G1 X162.269 Y93.779 E1.5722
G1 X162.852 Y93.317 E1.6067
G1 X163.478 Y92.751 E1.6459
G1 X163.997 Y92.217 E1.6805
G1 X164.544 Y91.574 E1.7197
G1 X164.988 Y90.978 E1.7542
G1 X165.181 Y90.684 E1.7705
G1 X177.067 Y90.686 E2.3227
G1 X177.423 Y90.725 E2.3393
G1 X177.734 Y90.805 E2.3542
G1 X178.033 Y90.929 E2.3692
G1 X178.313 Y91.094 E2.3843
G1 X178.535 Y91.267 E2.3974
G1 X178.720 Y91.451 E2.4095
G1 X178.885 Y91.656 E2.4217
G1 X179.024 Y91.876 E2.4338
G1 X179.147 Y92.134 E2.4471
G1 X179.231 Y92.381 E2.4592
G1 X179.286 Y92.636 E2.4713
G1 X179.314 Y92.928 E2.4850
G1 X179.315 Y112.044 E3.3729
G1 X179.279 Y112.403 E3.3896
G1 X179.201 Y112.714 E3.4045
G1 X179.070 Y113.034 E3.4206
G1 X178.906 Y113.313 E3.4356
G1 X178.734 Y113.534 E3.4486
G1 X178.534 Y113.734 E3.4617
G1 X178.310 Y113.909 E3.4749
G1 X178.088 Y114.043 E3.4870
G1 X177.828 Y114.162 E3.5002
G1 X177.580 Y114.241 E3.5124
G1 X177.324 Y114.292 E3.5245
G1 X177.026 Y114.316 E3.5384
G1 X133.002 Y114.316 E5.5832
G1 X132.638 Y114.286 E5.6001
G1 X132.304 Y114.207 E5.6161
G1 X131.986 Y114.080 E5.6320
G1 X131.685 Y113.905 E5.6481
G1 X131.465 Y113.733 E5.6611
G1 X131.280 Y113.549 E5.6733
G1 X131.115 Y113.344 E5.6854
G1 X130.976 Y113.124 E5.6976
G1 X130.853 Y112.866 E5.7108
G1 X130.769 Y112.619 E5.7230
G1 X130.714 Y112.362 E5.7351
G1 X130.687 Y112.097 E5.7475
G1 X130.684 Y92.974 E6.6357
G1 X130.708 Y92.678 E6.6495
G1 X130.764 Y92.401 E6.6627
G1 X130.853 Y92.134 E6.6757
G1 X130.987 Y91.858 E6.6900
G1 X131.126 Y91.641 E6.7020
; feature outer perimeter
G1 X130.757 Y91.371 F12000
G92 E0.0000
G1 X130.973 Y91.110 E0.0157 F945
G1 X131.218 Y90.877 E0.0315
G1 X131.491 Y90.676 E0.0472
G1 X131.785 Y90.509 E0.0629
G1 X132.074 Y90.388 E0.0775
G1 X132.401 Y90.294 E0.0932
G1 X132.711 Y90.243 E0.1078
G1 X133.006 Y90.228 E0.1216
G1 X145.067 Y90.228 E0.6817
G1 X145.444 Y90.799 E0.7136
G1 X145.876 Y91.369 E0.7468
G1 X146.410 Y91.985 E0.7846
G1 X146.912 Y92.493 E0.8178
G1 X147.444 Y92.970 E0.8510
G1 X148.085 Y93.473 E0.8888
G1 X148.674 Y93.876 E0.9220
G1 X149.287 Y94.243 E0.9552
G1 X149.921 Y94.571 E0.9883
G1 X150.574 Y94.861 E1.0215
G1 X151.339 Y95.142 E1.0593
G1 X152.024 Y95.344 E1.0925
G1 X152.720 Y95.504 E1.1257
G1 X153.424 Y95.622 E1.1588
G1 X154.134 Y95.696 E1.1920
G1 X154.847 Y95.727 E1.2252
G1 X155.562 Y95.715 E1.2584
G1 X156.373 Y95.647 E1.2962
G1 X157.082 Y95.542 E1.3294
G1 X157.877 Y95.370 E1.3672
G1 X158.565 Y95.173 E1.4005
G1 X159.332 Y94.899 E1.4383
G1 X160.079 Y94.571 E1.4762
G1 X160.713 Y94.242 E1.5094
G1 X161.411 Y93.821 E1.5472
G1 X161.997 Y93.412 E1.5804
