; G-Code generated by Simplify3D(R) Version 4.1.2
; Aug 5, 2020 at 6:59:52 PM
; Settings Summary
;   processName,Process1
;   applyToModels,xyzCalibration_cube
;   profileName,Hbot Pro
;   profileVersion,2020-07-30 18:59:30
;   baseProfile,Default
;   printMaterial,PLA
;   printQuality,Medium
;   printExtruders,
;   extruderName,Primary Extruder
;   extruderToolheadNumber,0
;   extruderDiameter,0.4
;   extruderAutoWidth,1
;   extruderWidth,0.48
;   extrusionMultiplier,0.98
;   extruderUseRetract,1
;   extruderRetractionDistance,1.2
;   extruderExtraRestartDistance,0
;   extruderRetractionZLift,0.4
;   extruderRetractionSpeed,2400
;   extruderUseCoasting,0
;   extruderCoastingDistance,0.3
;   extruderUseWipe,1
;   extruderWipeDistance,1
;   primaryExtruder,0
;   layerHeight,0.2
;   topSolidLayers,3
;   bottomSolidLayers,3
;   perimeterOutlines,3
;   printPerimetersInsideOut,1
;   startPointOption,3
;   startPointOriginX,0
;   startPointOriginY,0
;   sequentialIslands,0
;   spiralVaseMode,0
;   firstLayerHeightPercentage,125
;   firstLayerWidthPercentage,95
;   firstLayerUnderspeed,0.5
;   useRaft,0
;   raftExtruder,0
;   raftTopLayers,1
;   raftBaseLayers,1
;   raftOffset,3
;   raftSeparationDistance,0.14
;   raftTopInfill,100
;   aboveRaftSpeedMultiplier,0.3
;   useSkirt,1
;   skirtExtruder,0
;   skirtLayers,1
;   skirtOutlines,1
;   skirtOffset,3
;   usePrimePillar,0
;   primePillarExtruder,999
;   primePillarWidth,12
;   primePillarLocation,7
;   primePillarSpeedMultiplier,1
;   useOozeShield,0
;   oozeShieldExtruder,999
;   oozeShieldOffset,2
;   oozeShieldOutlines,1
;   oozeShieldSidewallShape,1
;   oozeShieldSidewallAngle,30
;   oozeShieldSpeedMultiplier,1
;   infillExtruder,0
;   internalInfillPattern,Rectilinear
;   externalInfillPattern,Rectilinear
;   infillPercentage,25
;   outlineOverlapPercentage,25
;   infillExtrusionWidthPercentage,100
;   minInfillLength,2
;   infillLayerInterval,1
;   internalInfillAngles,45,-45
;   overlapInternalInfillAngles,0
;   externalInfillAngles,45,-45
;   generateSupport,1
;   supportExtruder,0
;   supportInfillPercentage,45
;   supportExtraInflation,0
;   supportBaseLayers,0
;   denseSupportExtruder,0
;   denseSupportLayers,0
;   denseSupportInfillPercentage,70
;   supportLayerInterval,1
;   supportHorizontalPartOffset,0.3
;   supportUpperSeparationLayers,1
;   supportLowerSeparationLayers,1
;   supportType,0
;   supportGridSpacing,4
;   maxOverhangAngle,89
;   supportAngles,0
;   temperatureName,Primary Extruder,Heated Bed
;   temperatureNumber,0,1
;   temperatureSetpointCount,1,1
;   temperatureSetpointLayers,1,1
;   temperatureSetpointTemperatures,205,50
;   temperatureStabilizeAtStartup,1,1
;   temperatureHeatedBed,0,1
;   fanLayers,1,2
;   fanSpeeds,0,100
;   blipFanToFullPower,0
;   adjustSpeedForCooling,1
;   minSpeedLayerTime,15
;   minCoolingSpeedSlowdown,15
;   increaseFanForCooling,0
;   minFanLayerTime,45
;   maxCoolingFanSpeed,100
;   increaseFanForBridging,0
;   bridgingFanSpeed,100
;   use5D,1
;   relativeEdistances,0
;   allowEaxisZeroing,1
;   independentExtruderAxes,0
;   includeM10123,0
;   stickySupport,1
;   applyToolheadOffsets,0
;   gcodeXoffset,0
;   gcodeYoffset,0
;   gcodeZoffset,0
;   overrideMachineDefinition,1
;   machineTypeOverride,0
;   strokeXoverride,310
;   strokeYoverride,205
;   strokeZoverride,300
;   originOffsetXoverride,0
;   originOffsetYoverride,0
;   originOffsetZoverride,0
;   homeXdirOverride,-1
;   homeYdirOverride,-1
;   homeZdirOverride,-1
;   flipXoverride,1
;   flipYoverride,-1
;   flipZoverride,1
;   toolheadOffsets,0,0|0,0|0,0|0,0|0,0|0,0
;   overrideFirmwareConfiguration,0
;   firmwareTypeOverride,RepRap (Marlin/Repetier/Sprinter)
;   GPXconfigOverride,r2
;   baudRateOverride,115200
;   overridePrinterModels,0
;   printerModelsOverride
;   startingGcode,G28 ; home all axes,G1 Z30 F3000,M190 S[bed1_temperature],M109 S[extruder0_temperature],G29 S1,G92 E0,G1 X0 Y0 Z0.2 F3000 ; go outside printing area,G1 X60.0 E9.0  F1000.0 ; intro line,G1 X100.0 E12.5  F1000.0 ; intro line,G92 E0
;   layerChangeGcode,
;   retractionGcode,
;   toolChangeGcode,
;   endingGcode,G28 X0,G90 ; Posicion Absoluta,M104 S0 ; turn off extruder,M140 S0 ; turn off bed,M84 ; disable motors,M107 ; turn off fan,
;   exportFileFormat,gcode
;   celebration,0
;   celebrationSong,Star Wars
;   postProcessing,
;   defaultSpeed,4200
;   outlineUnderspeed,0.45
;   solidInfillUnderspeed,0.6
;   supportUnderspeed,0.65
;   rapidXYspeed,12000
;   rapidZspeed,720
;   minBridgingArea,50
;   bridgingExtraInflation,1
;   bridgingExtrusionMultiplier,1
;   bridgingSpeedMultiplier,1
;   useFixedBridgingAngle,0
;   fixedBridgingAngle,0
;   applyBridgingToPerimeters,0
;   filamentDiameters,1.75|1.75|1.75|1.75|1.75|1.75
;   filamentPricesPerKg,16|16|16|16|16|16
;   filamentDensities,1.25|1.25|1.25|1.25|1.25|1.25
;   useMinPrintHeight,0
;   minPrintHeight,0
;   useMaxPrintHeight,0
;   maxPrintHeight,50
;   useDiaphragm,0
;   diaphragmLayerInterval,20
;   robustSlicing,1
;   mergeAllIntoSolid,0
;   onlyRetractWhenCrossingOutline,1
;   retractBetweenLayers,1
;   useRetractionMinTravel,1
;   retractionMinTravel,3
;   retractWhileWiping,1
;   onlyWipeOutlines,1
;   avoidCrossingOutline,1
;   maxMovementDetourFactor,5
;   toolChangeRetractionDistance,12
;   toolChangeExtraRestartDistance,-0.5
;   toolChangeRetractionSpeed,600
;   externalThinWallType,0
;   internalThinWallType,1
;   thinWallAllowedOverlapPercentage,10
;   singleExtrusionMinLength,1
;   singleExtrusionMinPrintingWidthPercentage,50
;   singleExtrusionMaxPrintingWidthPercentage,200
;   singleExtrusionEndpointExtension,0.2
;   horizontalSizeCompensation,0
G90
M82
M106 S0
G28 ; home all axes
G1 Z30 F3000
M190 S50
M109 S205
G29 S1
G92 E0
G1 X0 Y0 Z0.2 F3000 ; go outside printing area
G1 X60.0 E9.0  F1000.0 ; intro line
G1 X100.0 E12.5  F1000.0 ; intro line
G92 E0
; process Process1
; layer 1, Z = 0.250
T0
G92 E0.0000
G1 E-1.2000 F2400
; feature skirt
; tool H0.250 W0.456
G1 Z0.400 F720
G1 X94.933 Y90.844 F12000
G1 Z0.250 F720
G1 E0.0000 F2400
G92 E0.0000
G1 X96.824 Y88.953 E0.1242 F2100
G1 X119.498 Y88.953 E1.1774
G1 X121.389 Y90.844 E1.3016
G1 X121.389 Y113.518 E2.3547
G1 X119.498 Y115.409 E2.4790
G1 X96.824 Y115.409 E3.5321
G1 X94.933 Y113.518 E3.6563
G1 X94.933 Y90.844 E4.7095
G92 E0.0000
G1 E-1.2000 F2400
; feature inner perimeter
G1 Z0.650 F720
G1 X98.389 Y92.409 F12000
G1 X98.389 Y92.804
G1 X99.301 Y93.321
G1 Z0.250 F720
G1 E0.0000 F2400
G92 E0.0000
G1 X117.021 Y93.321 E0.8231 F1523
G1 X117.021 Y111.041 E1.6461
G1 X99.301 Y111.041 E2.4692
G1 X99.301 Y93.321 E3.2922
G1 X98.845 Y92.865 F12000
G92 E0.0000
G1 X117.477 Y92.865 E0.8654 F1523
G1 X117.477 Y111.497 E1.7308
G1 X98.845 Y111.497 E2.5962
G1 X98.845 Y92.865 E3.4617
; feature outer perimeter
G1 X98.389 Y92.409 F12000
G92 E0.0000
G1 X117.933 Y92.409 E0.9078 F945
G1 X117.933 Y111.953 E1.8156
G1 X98.389 Y111.953 E2.7233
G1 X98.389 Y92.409 E3.6311
G1 X99.389 Y92.409 F945
; feature solid layer
G1 X116.410 Y93.663 F12000
G92 E0.0000
G1 X116.679 Y93.932 E0.0177 F1260
G1 X116.679 Y94.577 E0.0476
G1 X115.765 Y93.663 E0.1077
G1 X115.120 Y93.663 E0.1376
G1 X116.679 Y95.222 E0.2400
G1 X116.679 Y95.867 E0.2700
G1 X114.476 Y93.663 E0.4147
G1 X113.831 Y93.663 E0.4447
G1 X116.679 Y96.512 E0.6318
G1 X116.679 Y97.157 E0.6617
G1 X113.186 Y93.663 E0.8912
G1 X112.541 Y93.663 E0.9212
G1 X116.679 Y97.802 E1.1930
G1 X116.679 Y98.446 E1.2230
G1 X111.896 Y93.663 E1.5372
G1 X111.251 Y93.663 E1.5671
G1 X116.679 Y99.091 E1.9237
G1 X116.679 Y99.736 E1.9536
G1 X110.606 Y93.663 E2.3525
G1 X109.961 Y93.663 E2.3825
G1 X116.679 Y100.381 E2.8238
G1 X116.679 Y101.026 E2.8537
G1 X109.316 Y93.663 E3.3374
G1 X108.672 Y93.663 E3.3673
G1 X116.679 Y101.671 E3.8933
G1 X116.679 Y102.316 E3.9233
G1 X108.027 Y93.663 E4.4916
G1 X107.382 Y93.663 E4.5216
G1 X116.679 Y102.961 E5.1323
G1 X116.679 Y103.605 E5.1623
G1 X106.737 Y93.663 E5.8153
G1 X106.092 Y93.663 E5.8453
G1 X116.679 Y104.250 E6.5407
G1 X116.679 Y104.895 E6.5707
G1 X105.447 Y93.663 E7.3085
G1 X104.802 Y93.663 E7.3384
G1 X116.679 Y105.540 E8.1186
G1 X116.679 Y106.185 E8.1486
G1 X104.157 Y93.663 E8.9711
G1 X103.513 Y93.663 E9.0010
G1 X116.679 Y106.830 E9.8659
G1 X116.679 Y107.475 E9.8959
G1 X102.868 Y93.663 E10.8031
G1 X102.223 Y93.663 E10.8331
G1 X116.679 Y108.120 E11.7827
G1 X116.679 Y108.765 E11.8126
G1 X101.578 Y93.663 E12.8046
G1 X100.933 Y93.663 E12.8345
G1 X116.679 Y109.409 E13.8689
G1 X116.679 Y110.054 E13.8988
G1 X100.288 Y93.663 E14.9755
G1 X99.643 Y93.663 E15.0054
G1 X116.679 Y110.699 E16.1245
G1 X116.034 Y110.699 E16.1544
G1 X99.643 Y94.308 E17.2311
G1 X99.643 Y94.953 E17.2611
G1 X115.389 Y110.699 E18.2954
G1 X114.745 Y110.699 E18.3254
G1 X99.643 Y95.598 E19.3173
G1 X99.643 Y96.243 E19.3473
G1 X114.100 Y110.699 E20.2969
G1 X113.455 Y110.699 E20.3268
G1 X99.643 Y96.888 E21.2341
G1 X99.643 Y97.532 E21.2640
G1 X112.810 Y110.699 E22.1289
G1 X112.165 Y110.699 E22.1589
G1 X99.643 Y98.177 E22.9814
G1 X99.643 Y98.822 E23.0113
G1 X111.520 Y110.699 E23.7915
G1 X110.875 Y110.699 E23.8215
G1 X99.643 Y99.467 E24.5593
G1 X99.643 Y100.112 E24.5892
G1 X110.230 Y110.699 E25.2847
G1 X109.586 Y110.699 E25.3146
G1 X99.643 Y100.757 E25.9677
G1 X99.643 Y101.402 E25.9977
G1 X108.941 Y110.699 E26.6084
G1 X108.296 Y110.699 E26.6383
G1 X99.643 Y102.047 E27.2067
G1 X99.643 Y102.692 E27.2366
G1 X107.651 Y110.699 E27.7626
G1 X107.006 Y110.699 E27.7926
G1 X99.643 Y103.336 E28.2762
G1 X99.643 Y103.981 E28.3062
G1 X106.361 Y110.699 E28.7475
G1 X105.716 Y110.699 E28.7774
G1 X99.643 Y104.626 E29.1763
G1 X99.643 Y105.271 E29.2063
G1 X105.071 Y110.699 E29.5629
G1 X104.426 Y110.699 E29.5928
G1 X99.643 Y105.916 E29.9070
G1 X99.643 Y106.561 E29.9370
G1 X103.782 Y110.699 E30.2088
G1 X103.137 Y110.699 E30.2387
G1 X99.643 Y107.206 E30.4682
G1 X99.643 Y107.851 E30.4982
G1 X102.492 Y110.699 E30.6853
G1 X101.847 Y110.699 E30.7153
G1 X99.643 Y108.495 E30.8600
G1 X99.643 Y109.140 E30.8900
G1 X101.202 Y110.699 E30.9924
G1 X100.557 Y110.699 E31.0223
G1 X99.643 Y109.785 E31.0823
G1 X99.643 Y110.430 E31.1123
G1 X99.912 Y110.699 E31.1300
G92 E0.0000
G1 E-1.2000 F2400
; layer 2, Z = 0.450
M106 S255
; feature inner perimeter
; tool H0.200 W0.480
G1 Z0.650 F720
G1 X99.361 Y93.381 F12000
G1 Z0.450 F720
G1 E0.0000 F2400
G92 E0.0000
G1 X116.961 Y93.381 E0.6884 F3045
G1 X116.961 Y110.981 E1.3768
G1 X99.361 Y110.981 E2.0652
G1 X99.361 Y93.381 E2.7536
G1 X98.881 Y92.901 F12000
G92 E0.0000
G1 X117.441 Y92.901 E0.7260 F3045
G1 X117.441 Y111.461 E1.4519
G1 X98.881 Y111.461 E2.1779
G1 X98.881 Y92.901 E2.9038
; feature outer perimeter
G1 X98.401 Y92.421 F12000
G92 E0.0000
G1 X117.921 Y92.421 E0.7635 F1890
G1 X117.921 Y111.941 E1.5270
G1 X98.401 Y111.941 E2.2905
G1 X98.401 Y92.421 E3.0540
G1 X99.401 Y92.421 F1890
; feature solid layer
G1 X99.721 Y94.329 F12000
G92 E0.0000
G1 X100.310 Y93.741 E0.0325 F2520
G1 X100.988 Y93.741 E0.0591
G1 X99.721 Y95.008 E0.1292
G1 X99.721 Y95.687 E0.1557
G1 X101.667 Y93.741 E0.2634
G1 X102.346 Y93.741 E0.2899
G1 X99.721 Y96.366 E0.4351
G1 X99.721 Y97.045 E0.4617
G1 X103.025 Y93.741 E0.6444
G1 X103.704 Y93.741 E0.6710
G1 X99.721 Y97.724 E0.8912
G1 X99.721 Y98.402 E0.9178
G1 X104.382 Y93.741 E1.1756
G1 X105.061 Y93.741 E1.2022
G1 X99.721 Y99.081 E1.4976
G1 X99.721 Y99.760 E1.5241
G1 X105.740 Y93.741 E1.8571
G1 X106.419 Y93.741 E1.8836
G1 X99.721 Y100.439 E2.2541
G1 X99.721 Y101.118 E2.2807
G1 X107.098 Y93.741 E2.6887
G1 X107.777 Y93.741 E2.7152
G1 X99.721 Y101.797 E3.1608
G1 X99.721 Y102.475 E3.1874
G1 X108.455 Y93.741 E3.6705
G1 X109.134 Y93.741 E3.6971
G1 X99.721 Y103.154 E4.2177
G1 X99.721 Y103.833 E4.2443
G1 X109.813 Y93.741 E4.8025
G1 X110.492 Y93.741 E4.8291
G1 X99.721 Y104.512 E5.4249
G1 X99.721 Y105.191 E5.4514
G1 X111.171 Y93.741 E6.0847
G1 X111.850 Y93.741 E6.1113
G1 X99.721 Y105.869 E6.7822
G1 X99.721 Y106.548 E6.8087
G1 X112.528 Y93.741 E7.5172
G1 X113.207 Y93.741 E7.5437
G1 X99.721 Y107.227 E8.2897
G1 X99.721 Y107.906 E8.3162
G1 X113.886 Y93.741 E9.0998
G1 X114.565 Y93.741 E9.1263
G1 X99.721 Y108.585 E9.9474
G1 X99.721 Y109.264 E9.9740
G1 X115.244 Y93.741 E10.8326
G1 X115.922 Y93.741 E10.8591
G1 X99.721 Y109.942 E11.7553
G1 X99.721 Y110.621 E11.7819
G1 X116.601 Y93.741 E12.7156
G1 X116.601 Y94.420 E12.7421
G1 X100.400 Y110.621 E13.6383
G1 X101.079 Y110.621 E13.6649
G1 X116.601 Y95.099 E14.5235
G1 X116.601 Y95.778 E14.5500
G1 X101.758 Y110.621 E15.3711
G1 X102.437 Y110.621 E15.3977
G1 X116.601 Y96.457 E16.1812
G1 X116.601 Y97.135 E16.2077
G1 X103.115 Y110.621 E16.9537
G1 X103.794 Y110.621 E16.9803
G1 X116.601 Y97.814 E17.6887
G1 X116.601 Y98.493 E17.7152
G1 X104.473 Y110.621 E18.3861
G1 X105.152 Y110.621 E18.4127
G1 X116.601 Y99.172 E19.0460
G1 X116.601 Y99.851 E19.0726
G1 X105.831 Y110.621 E19.6683
G1 X106.509 Y110.621 E19.6949
G1 X116.601 Y100.529 E20.2531
G1 X116.601 Y101.208 E20.2797
G1 X107.188 Y110.621 E20.8003
G1 X107.867 Y110.621 E20.8269
G1 X116.601 Y101.887 E21.3100
G1 X116.601 Y102.566 E21.3366
G1 X108.546 Y110.621 E21.7822
G1 X109.225 Y110.621 E21.8087
G1 X116.601 Y103.245 E22.2167
G1 X116.601 Y103.924 E22.2433
G1 X109.904 Y110.621 E22.6138
G1 X110.582 Y110.621 E22.6403
G1 X116.601 Y104.602 E22.9733
G1 X116.601 Y105.281 E22.9998
G1 X111.261 Y110.621 E23.2952
G1 X111.940 Y110.621 E23.3217
G1 X116.601 Y105.960 E23.5796
G1 X116.601 Y106.639 E23.6061
G1 X112.619 Y110.621 E23.8264
G1 X113.298 Y110.621 E23.8530
G1 X116.601 Y107.318 E24.0357
G1 X116.601 Y107.996 E24.0622
G1 X113.977 Y110.621 E24.2074
G1 X114.655 Y110.621 E24.2340
G1 X116.601 Y108.675 E24.3416
G1 X116.601 Y109.354 E24.3682
G1 X115.334 Y110.621 E24.4383
G1 X116.013 Y110.621 E24.4648
G1 X116.601 Y110.033 E24.4974
G92 E0.0000
G1 E-1.2000 F2400
; layer 3, Z = 0.650
; feature inner perimeter
G1 Z0.850 F720
G1 X99.361 Y93.381 F12000
G1 Z0.650 F720
G1 E0.0000 F2400
G92 E0.0000
G1 X116.961 Y93.381 E0.6884 F3045
G1 X116.961 Y110.981 E1.3768
G1 X99.361 Y110.981 E2.0652
G1 X99.361 Y93.381 E2.7536
G1 X98.881 Y92.901 F12000
G92 E0.0000
G1 X117.441 Y92.901 E0.7260 F3045
G1 X117.441 Y111.461 E1.4519
G1 X98.881 Y111.461 E2.1779
G1 X98.881 Y92.901 E2.9038
; feature outer perimeter
G1 X98.401 Y92.421 F12000
G92 E0.0000
G1 X117.921 Y92.421 E0.7635 F1890
G1 X117.921 Y111.941 E1.5270
G1 X98.401 Y111.941 E2.2905
G1 X98.401 Y92.421 E3.0540
G1 X99.401 Y92.421 F1890
; feature solid layer
G1 X116.013 Y93.741 F12000
G92 E0.0000
G1 X116.601 Y94.329 E0.0325 F2520
G1 X116.601 Y95.008 E0.0591
G1 X115.334 Y93.741 E0.1292
G1 X114.655 Y93.741 E0.1557
G1 X116.601 Y95.687 E0.2634
G1 X116.601 Y96.366 E0.2899
G1 X113.977 Y93.741 E0.4351
G1 X113.298 Y93.741 E0.4617
G1 X116.601 Y97.045 E0.6444
G1 X116.601 Y97.724 E0.6709
G1 X112.619 Y93.741 E0.8912
G1 X111.940 Y93.741 E0.9178
G1 X116.601 Y98.402 E1.1756
G1 X116.601 Y99.081 E1.2022
G1 X111.261 Y93.741 E1.4976
G1 X110.582 Y93.741 E1.5241
G1 X116.601 Y99.760 E1.8570
G1 X116.601 Y100.439 E1.8836
G1 X109.904 Y93.741 E2.2541
G1 X109.225 Y93.741 E2.2806
G1 X116.601 Y101.118 E2.6887
G1 X116.601 Y101.796 E2.7152
G1 X108.546 Y93.741 E3.1608
G1 X107.867 Y93.741 E3.1873
G1 X116.601 Y102.475 E3.6705
G1 X116.601 Y103.154 E3.6970
G1 X107.188 Y93.741 E4.2177
G1 X106.509 Y93.741 E4.2443
G1 X116.601 Y103.833 E4.8025
G1 X116.601 Y104.512 E4.8290
G1 X105.831 Y93.741 E5.4248
G1 X105.152 Y93.741 E5.4514
G1 X116.601 Y105.191 E6.0847
G1 X116.601 Y105.869 E6.1113
G1 X104.473 Y93.741 E6.7821
G1 X103.794 Y93.741 E6.8087
G1 X116.601 Y106.548 E7.5171
G1 X116.601 Y107.227 E7.5437
G1 X103.115 Y93.741 E8.2896
G1 X102.437 Y93.741 E8.3162
G1 X116.601 Y107.906 E9.0997
G1 X116.601 Y108.585 E9.1263
G1 X101.758 Y93.741 E9.9473
G1 X101.079 Y93.741 E9.9739
G1 X116.601 Y109.264 E10.8325
G1 X116.601 Y109.942 E10.8591
G1 X100.400 Y93.741 E11.7552
G1 X99.721 Y93.741 E11.7818
G1 X116.601 Y110.621 E12.7155
G1 X115.922 Y110.621 E12.7421
G1 X99.721 Y94.420 E13.6382
G1 X99.721 Y95.099 E13.6648
G1 X115.244 Y110.621 E14.5234
G1 X114.565 Y110.621 E14.5500
G1 X99.721 Y95.778 E15.3711
G1 X99.721 Y96.456 E15.3976
G1 X113.886 Y110.621 E16.1811
G1 X113.207 Y110.621 E16.2077
G1 X99.721 Y97.135 E16.9537
